(.../Program Files/EAGLE-5.6.0/ulp/pcb-gcode.ulp)
(Copyright 2005 - 2009 by John Johnson)
(See readme.txt for licensing terms.)
(This file generated from the board:)
(.../Programador USBv2/programer.brd)
(Current profile is .../EAGLE-5.6.0/ulp/profiles/mach.pp  )
(This file generated 1/13/2010 2:27:15 PM)
G21
(Absolute Coordinates)
G90
G00 X0.0000  Y0.0000  
M03
G04 P3.000000
G00 Z2.5400  
G00 X-86.7097 Y39.8934 
G01 Z-0.1778 F254   
G01 X-86.4828 Y39.9874 F508   
G01 X-86.2371 Y39.9874 
G01 X-86.0102 Y39.8934 
G01 X-85.8365 Y39.7197 
G01 X-85.7425 Y39.4928 
G01 X-85.7425 Y39.2471 
G01 X-85.8365 Y39.0202 
G01 X-86.0102 Y38.8465 
G01 X-86.2371 Y38.7525 
G01 X-86.4828 Y38.7525 
G01 X-86.7097 Y38.8465 
G01 X-86.8141 Y38.9509 
G01 X-92.5364 Y38.9509 
G01 X-93.5609 Y37.9263 
G01 X-93.5609 Y35.3863 
G01 X-93.8063 Y35.1409 
G01 X-95.0763 Y33.8709 
G01 X-95.4236 Y33.8709 
G01 X-97.6163 Y33.8709 
G01 X-98.2853 Y33.2020 
G01 X-98.2853 Y32.6991 
G01 X-98.7391 Y32.2453 
G01 X-99.3808 Y32.2453 
G01 X-99.8346 Y32.6991 
G01 X-99.8346 Y33.3408 
G01 X-99.3808 Y33.7946 
G01 X-98.8779 Y33.7946 
G01 X-98.2090 Y34.4636 
G01 X-97.9636 Y34.7090 
G01 X-95.4236 Y34.7090 
G01 X-94.3990 Y35.7336 
G01 X-94.3990 Y37.9263 
G01 X-94.3990 Y38.2736 
G01 X-93.1290 Y39.5435 
G01 X-92.8836 Y39.7890 
G01 X-86.8141 Y39.7890 
G01 X-86.7097 Y39.8934 
G00 Z2.5400  
G00 X-48.6097 Y44.9734 
G01 Z-0.1778 F254   
G01 X-48.3828 Y45.0674 F508   
G01 X-48.1371 Y45.0674 
G01 X-47.9102 Y44.9734 
G01 X-47.7365 Y44.7997 
G01 X-47.6425 Y44.5728 
G01 X-47.6425 Y44.3271 
G01 X-47.7365 Y44.1002 
G01 X-47.9102 Y43.9265 
G01 X-48.1371 Y43.8325 
G01 X-48.3828 Y43.8325 
G01 X-48.6097 Y43.9265 
G01 X-48.7141 Y44.0309 
G01 X-49.0758 Y44.0309 
G01 X-49.1802 Y43.9265 
G01 X-49.4071 Y43.8325 
G01 X-49.6528 Y43.8325 
G01 X-49.8797 Y43.9265 
G01 X-50.0534 Y44.1002 
G01 X-50.1474 Y44.3271 
G01 X-50.1474 Y44.5728 
G01 X-50.0534 Y44.7997 
G01 X-49.8797 Y44.9734 
G01 X-49.6528 Y45.0674 
G01 X-49.4071 Y45.0674 
G01 X-49.1802 Y44.9734 
G01 X-49.0758 Y44.8690 
G01 X-48.7141 Y44.8690 
G01 X-48.6097 Y44.9734 
G00 Z2.5400  
G00 X-54.9597 Y70.3734 
G01 Z-0.1778 F254   
G01 X-54.7328 Y70.4674 F508   
G01 X-54.4871 Y70.4674 
G01 X-54.2602 Y70.3734 
G01 X-54.0865 Y70.1997 
G01 X-53.9925 Y69.9728 
G01 X-53.9925 Y69.7271 
G01 X-54.0865 Y69.5002 
G01 X-54.2602 Y69.3265 
G01 X-54.4871 Y69.2325 
G01 X-54.7328 Y69.2325 
G01 X-54.9597 Y69.3265 
G01 X-55.0641 Y69.4309 
G01 X-56.4735 Y69.4309 
G01 X-56.8291 Y69.0753 
G01 X-57.4708 Y69.0753 
G01 X-57.9246 Y69.5291 
G01 X-57.9246 Y70.1708 
G01 X-57.4708 Y70.6246 
G01 X-56.8291 Y70.6246 
G01 X-56.4735 Y70.2690 
G01 X-55.0641 Y70.2690 
G01 X-54.9597 Y70.3734 
G00 Z2.5400  
G00 X-47.3397 Y83.0734 
G01 Z-0.1778 F254   
G01 X-47.1128 Y83.1674 F508   
G01 X-46.8671 Y83.1674 
G01 X-46.6402 Y83.0734 
G01 X-46.4665 Y82.8997 
G01 X-46.3725 Y82.6728 
G01 X-46.3725 Y82.4271 
G01 X-46.4665 Y82.2002 
G01 X-46.6402 Y82.0265 
G01 X-46.8671 Y81.9325 
G01 X-47.1128 Y81.9325 
G01 X-47.3397 Y82.0265 
G01 X-47.4440 Y82.1309 
G01 X-50.5498 Y82.1309 
G01 X-50.5799 Y82.0581 
G01 X-50.8241 Y81.8139 
G01 X-51.1432 Y81.6817 
G01 X-52.9967 Y81.6817 
G01 X-53.3158 Y81.8139 
G01 X-53.5600 Y82.0581 
G01 X-53.6922 Y82.3772 
G01 X-53.6922 Y82.7227 
G01 X-53.5600 Y83.0418 
G01 X-53.3158 Y83.2860 
G01 X-52.9967 Y83.4182 
G01 X-51.1432 Y83.4182 
G01 X-50.8241 Y83.2860 
G01 X-50.5799 Y83.0418 
G01 X-50.5498 Y82.9690 
G01 X-47.4440 Y82.9690 
G01 X-47.3397 Y83.0734 
G00 Z2.5400  
G00 X-66.6574 Y55.7571 
G01 Z-0.1778 F254   
G01 X-66.6574 Y56.0028 F508   
G01 X-66.5634 Y56.2297 
G01 X-66.3897 Y56.4034 
G01 X-66.1628 Y56.4974 
G01 X-65.9171 Y56.4974 
G01 X-65.6902 Y56.4034 
G01 X-65.5858 Y56.2990 
G01 X-59.8636 Y56.2990 
G01 X-53.7590 Y62.4036 
G01 X-53.7590 Y63.3263 
G01 X-54.7836 Y64.3509 
G01 X-55.7063 Y64.3509 
G01 X-56.0536 Y64.3509 
G01 X-57.3236 Y65.6209 
G01 X-57.5690 Y65.8663 
G01 X-57.5690 Y68.4063 
G01 X-57.5690 Y68.7536 
G01 X-57.3236 Y68.9990 
G01 X-52.4890 Y68.9990 
G01 X-52.4890 Y72.2163 
G01 X-58.5936 Y78.3209 
G01 X-65.5858 Y78.3209 
G01 X-65.6902 Y78.2165 
G01 X-65.9171 Y78.1225 
G01 X-66.1628 Y78.1225 
G01 X-66.3897 Y78.2165 
G01 X-66.5634 Y78.3902 
G01 X-66.6574 Y78.6171 
G01 X-66.6574 Y78.8628 
G01 X-66.5634 Y79.0897 
G01 X-66.3897 Y79.2634 
G01 X-66.1628 Y79.3574 
G01 X-65.9171 Y79.3574 
G01 X-65.6902 Y79.2634 
G01 X-65.5858 Y79.1590 
G01 X-58.2463 Y79.1590 
G01 X-58.0009 Y78.9136 
G01 X-51.6509 Y72.5636 
G01 X-51.6509 Y72.2163 
G01 X-51.6509 Y68.4063 
G01 X-51.8963 Y68.1609 
G01 X-52.2436 Y68.1609 
G01 X-56.7309 Y68.1609 
G01 X-56.7309 Y66.2136 
G01 X-55.7063 Y65.1890 
G01 X-54.4363 Y65.1890 
G01 X-54.1909 Y64.9436 
G01 X-52.9209 Y63.6736 
G01 X-52.9209 Y63.3263 
G01 X-52.9209 Y62.0563 
G01 X-53.1663 Y61.8109 
G01 X-59.5163 Y55.4609 
G01 X-59.8636 Y55.4609 
G01 X-65.5858 Y55.4609 
G01 X-65.6902 Y55.3565 
G01 X-65.9171 Y55.2625 
G01 X-66.1628 Y55.2625 
G01 X-66.3897 Y55.3565 
G01 X-66.5634 Y55.5302 
G01 X-66.6574 Y55.7571 
G00 Z2.5400  
G00 X-93.1290 Y67.4836 
G01 Z-0.1778 F254   
G01 X-93.1290 Y68.5246 F508   
G01 X-93.1488 Y68.5328 
G01 X-93.3667 Y68.7507 
G01 X-93.4846 Y69.0354 
G01 X-93.4846 Y70.6645 
G01 X-93.3667 Y70.9492 
G01 X-93.1488 Y71.1671 
G01 X-92.8641 Y71.2850 
G01 X-92.5558 Y71.2850 
G01 X-92.2711 Y71.1671 
G01 X-92.0532 Y70.9492 
G01 X-91.9353 Y70.6645 
G01 X-91.9353 Y69.0354 
G01 X-92.0532 Y68.7507 
G01 X-92.2711 Y68.5328 
G01 X-92.2909 Y68.5246 
G01 X-92.2909 Y67.1363 
G01 X-92.5363 Y66.8909 
G01 X-93.5609 Y65.8663 
G01 X-93.8063 Y65.6209 
G01 X-100.5036 Y65.6209 
G01 X-100.7490 Y65.8663 
G01 X-101.7736 Y66.8909 
G01 X-103.9663 Y66.8909 
G01 X-106.2609 Y64.5963 
G01 X-106.2609 Y15.4136 
G01 X-103.9663 Y13.1190 
G01 X-94.3990 Y13.1190 
G01 X-94.3990 Y13.7963 
G01 X-95.4236 Y14.8209 
G01 X-100.5036 Y14.8209 
G01 X-100.7490 Y15.0663 
G01 X-100.7490 Y15.4136 
G01 X-100.7490 Y17.9536 
G01 X-100.5036 Y18.1990 
G01 X-99.2336 Y19.4690 
G01 X-99.2210 Y19.4690 
G01 X-99.2009 Y19.5176 
G01 X-98.9688 Y19.7497 
G01 X-98.6654 Y19.8754 
G01 X-96.9145 Y19.8754 
G01 X-96.6111 Y19.7497 
G01 X-96.3790 Y19.5176 
G01 X-96.2533 Y19.2142 
G01 X-96.2533 Y18.8857 
G01 X-96.3790 Y18.5823 
G01 X-96.6111 Y18.3502 
G01 X-96.9145 Y18.2245 
G01 X-98.6654 Y18.2245 
G01 X-98.9688 Y18.3502 
G01 X-99.0679 Y18.4494 
G01 X-99.9109 Y17.6063 
G01 X-99.9109 Y15.6590 
G01 X-95.4236 Y15.6590 
G01 X-95.0763 Y15.6590 
G01 X-93.8063 Y14.3890 
G01 X-93.5609 Y14.1436 
G01 X-93.5609 Y12.8736 
G01 X-93.5609 Y12.5263 
G01 X-93.8063 Y12.2809 
G01 X-103.9663 Y12.2809 
G01 X-104.3136 Y12.2809 
G01 X-106.8536 Y14.8209 
G01 X-107.0990 Y15.0663 
G01 X-107.0990 Y64.5963 
G01 X-107.0990 Y64.9436 
G01 X-104.5590 Y67.4836 
G01 X-104.3136 Y67.7290 
G01 X-101.7736 Y67.7290 
G01 X-101.4263 Y67.7290 
G01 X-100.1563 Y66.4590 
G01 X-94.1536 Y66.4590 
G01 X-93.1290 Y67.4836 
G00 Z2.5400  
G00 X-83.1674 Y65.9171 
G01 Z-0.1778 F254   
G01 X-83.1674 Y66.1628 F508   
G01 X-83.0734 Y66.3897 
G01 X-82.9690 Y66.4941 
G01 X-82.9690 Y68.5247 
G01 X-82.9888 Y68.5328 
G01 X-83.2067 Y68.7507 
G01 X-83.3246 Y69.0354 
G01 X-83.3246 Y70.6645 
G01 X-83.2067 Y70.9492 
G01 X-82.9888 Y71.1671 
G01 X-82.7041 Y71.2850 
G01 X-82.3958 Y71.2850 
G01 X-82.1111 Y71.1671 
G01 X-81.8932 Y70.9492 
G01 X-81.7753 Y70.6645 
G01 X-81.7753 Y69.0354 
G01 X-81.8932 Y68.7507 
G01 X-82.1111 Y68.5328 
G01 X-82.1309 Y68.5247 
G01 X-82.1309 Y66.4941 
G01 X-82.0265 Y66.3897 
G01 X-81.9325 Y66.1628 
G01 X-81.9325 Y65.9171 
G01 X-82.0265 Y65.6902 
G01 X-82.2002 Y65.5165 
G01 X-82.4271 Y65.4225 
G01 X-82.6728 Y65.4225 
G01 X-82.8997 Y65.5165 
G01 X-83.0734 Y65.6902 
G01 X-83.1674 Y65.9171 
G00 Z2.5400  
G00 X-101.8764 Y93.3774 
G01 Z-0.1778 F254   
G01 X-101.3235 Y93.3774 F508   
G01 X-100.9325 Y92.9864 
G01 X-100.9325 Y92.4335 
G01 X-101.3235 Y92.0425 
G01 X-101.8764 Y92.0425 
G01 X-102.1248 Y92.2909 
G01 X-105.2363 Y92.2909 
G01 X-107.5309 Y89.9963 
G01 X-107.5309 Y14.1436 
G01 X-105.2363 Y11.8490 
G01 X-99.2210 Y11.8490 
G01 X-99.2009 Y11.8976 
G01 X-98.9688 Y12.1297 
G01 X-98.6654 Y12.2554 
G01 X-96.9145 Y12.2554 
G01 X-96.6111 Y12.1297 
G01 X-96.3790 Y11.8976 
G01 X-96.3589 Y11.8490 
G01 X-93.3382 Y11.8490 
G01 X-93.3382 Y12.1169 
G01 X-93.2365 Y12.3625 
G01 X-93.0485 Y12.5505 
G01 X-92.8029 Y12.6522 
G01 X-92.5370 Y12.6522 
G01 X-92.2914 Y12.5505 
G01 X-92.1034 Y12.3625 
G01 X-92.0017 Y12.1169 
G01 X-92.0017 Y10.7430 
G01 X-92.1034 Y10.4974 
G01 X-92.2509 Y10.3499 
G01 X-92.2509 Y10.2936 
G01 X-91.4648 Y9.5074  
G01 X-91.3171 Y9.5074  
G01 X-91.0902 Y9.4134  
G01 X-90.9165 Y9.2397  
G01 X-90.8225 Y9.0128  
G01 X-90.8225 Y8.7671  
G01 X-90.9165 Y8.5402  
G01 X-91.0902 Y8.3665  
G01 X-91.3171 Y8.2725  
G01 X-91.5628 Y8.2725  
G01 X-91.7897 Y8.3665  
G01 X-91.9634 Y8.5402  
G01 X-92.0574 Y8.7671  
G01 X-92.0574 Y8.9148  
G01 X-93.0890 Y9.9463  
G01 X-93.0890 Y10.2936 
G01 X-93.0890 Y10.3499 
G01 X-93.2365 Y10.4974 
G01 X-93.3382 Y10.7430 
G01 X-93.3382 Y11.0109 
G01 X-96.3589 Y11.0109 
G01 X-96.3790 Y10.9623 
G01 X-96.6111 Y10.7302 
G01 X-96.9145 Y10.6045 
G01 X-98.6654 Y10.6045 
G01 X-98.9688 Y10.7302 
G01 X-99.2009 Y10.9623 
G01 X-99.2210 Y11.0109 
G01 X-105.2363 Y11.0109 
G01 X-105.5836 Y11.0109 
G01 X-108.1236 Y13.5509 
G01 X-108.3690 Y13.7963 
G01 X-108.3690 Y89.9963 
G01 X-108.3690 Y90.3436 
G01 X-105.5836 Y93.1290 
G01 X-105.2363 Y93.1290 
G01 X-102.1248 Y93.1290 
G01 X-101.8764 Y93.3774 
G00 Z2.5400  
G00 X-56.6546 Y40.3191 
G01 Z-0.1778 F254   
G01 X-56.6546 Y40.9608 F508   
G01 X-56.2008 Y41.4146 
G01 X-55.6979 Y41.4146 
G01 X-53.7590 Y43.3536 
G01 X-53.7590 Y52.2436 
G01 X-53.5136 Y52.4890 
G01 X-52.2436 Y53.7590 
G01 X-51.8963 Y53.7590 
G01 X-47.4441 Y53.7590 
G01 X-47.3397 Y53.8634 
G01 X-47.1128 Y53.9574 
G01 X-46.8671 Y53.9574 
G01 X-46.6402 Y53.8634 
G01 X-46.4665 Y53.6897 
G01 X-46.3725 Y53.4628 
G01 X-46.3725 Y53.2171 
G01 X-46.4665 Y52.9902 
G01 X-46.5709 Y52.8859 
G01 X-46.5709 Y50.9736 
G01 X-44.2763 Y48.6790 
G01 X-44.0309 Y48.4336 
G01 X-44.0309 Y44.6236 
G01 X-37.2490 Y37.8416 
G01 X-37.2490 Y39.5436 
G01 X-37.0036 Y39.7890 
G01 X-35.7336 Y41.0590 
G01 X-35.3863 Y41.0590 
G01 X-26.4963 Y41.0590 
G01 X-26.2509 Y40.8136 
G01 X-18.8763 Y33.4390 
G01 X-17.8352 Y33.4390 
G01 X-17.8271 Y33.4588 
G01 X-17.6092 Y33.6767 
G01 X-17.3245 Y33.7946 
G01 X-15.6954 Y33.7946 
G01 X-15.4107 Y33.6767 
G01 X-15.1928 Y33.4588 
G01 X-15.0749 Y33.1741 
G01 X-15.0749 Y32.8658 
G01 X-15.1928 Y32.5811 
G01 X-15.4107 Y32.3632 
G01 X-15.6954 Y32.2453 
G01 X-17.3245 Y32.2453 
G01 X-17.6092 Y32.3632 
G01 X-17.8271 Y32.5811 
G01 X-17.8352 Y32.6009 
G01 X-18.8763 Y32.6009 
G01 X-19.2236 Y32.6009 
G01 X-26.8436 Y40.2209 
G01 X-35.3863 Y40.2209 
G01 X-36.4109 Y39.1963 
G01 X-36.4109 Y37.6046 
G01 X-36.0154 Y37.6046 
G01 X-35.7307 Y37.4867 
G01 X-35.5128 Y37.2688 
G01 X-35.5046 Y37.2490 
G01 X-35.3863 Y37.2490 
G01 X-35.1409 Y37.0036 
G01 X-32.6009 Y34.4636 
G01 X-32.6009 Y34.1163 
G01 X-32.6009 Y28.1136 
G01 X-28.7909 Y24.3036 
G01 X-28.7909 Y23.9563 
G01 X-28.7909 Y22.3646 
G01 X-28.3954 Y22.3646 
G01 X-28.1107 Y22.2467 
G01 X-27.8928 Y22.0288 
G01 X-27.8846 Y22.0090 
G01 X-24.8064 Y22.0090 
G01 X-24.4508 Y22.3646 
G01 X-23.8091 Y22.3646 
G01 X-23.3553 Y21.9108 
G01 X-23.3553 Y21.2691 
G01 X-23.8091 Y20.8153 
G01 X-24.4508 Y20.8153 
G01 X-24.8064 Y21.1709 
G01 X-27.8846 Y21.1709 
G01 X-27.8928 Y21.1511 
G01 X-28.1107 Y20.9332 
G01 X-28.3954 Y20.8153 
G01 X-30.0245 Y20.8153 
G01 X-30.3092 Y20.9332 
G01 X-30.5271 Y21.1511 
G01 X-30.6450 Y21.4358 
G01 X-30.6450 Y21.7441 
G01 X-30.5271 Y22.0288 
G01 X-30.3092 Y22.2467 
G01 X-30.0245 Y22.3646 
G01 X-29.6290 Y22.3646 
G01 X-29.6290 Y23.9563 
G01 X-33.1936 Y27.5209 
G01 X-33.4390 Y27.7663 
G01 X-33.4390 Y34.1163 
G01 X-35.6133 Y36.2907 
G01 X-35.7307 Y36.1732 
G01 X-36.0154 Y36.0553 
G01 X-37.6445 Y36.0553 
G01 X-37.9292 Y36.1732 
G01 X-38.1471 Y36.3911 
G01 X-38.2650 Y36.6758 
G01 X-38.2650 Y36.9841 
G01 X-38.1471 Y37.2688 
G01 X-38.0042 Y37.4116 
G01 X-44.8690 Y44.2763 
G01 X-44.8690 Y44.6236 
G01 X-44.8690 Y48.0863 
G01 X-47.4090 Y50.6263 
G01 X-47.4090 Y50.9736 
G01 X-47.4090 Y52.8859 
G01 X-47.4441 Y52.9209 
G01 X-51.8963 Y52.9209 
G01 X-52.9209 Y51.8963 
G01 X-52.9209 Y43.0063 
G01 X-53.1663 Y42.7609 
G01 X-55.1053 Y40.8220 
G01 X-55.1053 Y40.3191 
G01 X-55.4609 Y39.9635 
G01 X-55.4609 Y36.2364 
G01 X-55.1053 Y35.8808 
G01 X-55.1053 Y35.2391 
G01 X-55.4609 Y34.8835 
G01 X-55.4609 Y29.3836 
G01 X-54.7789 Y28.7015 
G01 X-54.7628 Y28.7082 
G01 X-54.4571 Y28.7082 
G01 X-54.1747 Y28.5912 
G01 X-53.9587 Y28.3752 
G01 X-53.8417 Y28.0928 
G01 X-53.8417 Y27.7871 
G01 X-53.9587 Y27.5047 
G01 X-54.1747 Y27.2887 
G01 X-54.4571 Y27.1717 
G01 X-54.7628 Y27.1717 
G01 X-54.7789 Y27.1784 
G01 X-55.4609 Y26.4963 
G01 X-55.4609 Y14.1436 
G01 X-54.7789 Y13.4615 
G01 X-54.7628 Y13.4682 
G01 X-54.4571 Y13.4682 
G01 X-54.1747 Y13.3512 
G01 X-53.9587 Y13.1352 
G01 X-53.8417 Y12.8528 
G01 X-53.8417 Y12.5471 
G01 X-53.9587 Y12.2647 
G01 X-54.1747 Y12.0487 
G01 X-54.4571 Y11.9317 
G01 X-54.7628 Y11.9317 
G01 X-55.0452 Y12.0487 
G01 X-55.2612 Y12.2647 
G01 X-55.3782 Y12.5471 
G01 X-55.3782 Y12.8528 
G01 X-55.3715 Y12.8689 
G01 X-56.0536 Y13.5509 
G01 X-56.2990 Y13.7963 
G01 X-56.2990 Y26.4963 
G01 X-56.2990 Y26.8436 
G01 X-55.3715 Y27.7710 
G01 X-55.3782 Y27.7871 
G01 X-55.3782 Y28.0928 
G01 X-55.3715 Y28.1089 
G01 X-56.2990 Y29.0363 
G01 X-56.2990 Y29.3836 
G01 X-56.2990 Y34.8835 
G01 X-56.6546 Y35.2391 
G01 X-56.6546 Y35.8808 
G01 X-56.2990 Y36.2364 
G01 X-56.2990 Y39.9635 
G01 X-56.6546 Y40.3191 
G00 Z2.5400  
G00 X-59.2345 Y49.0346 
G01 Z-0.1778 F254   
G01 X-57.6054 Y49.0346 F508   
G01 X-57.3207 Y48.9167 
G01 X-57.1028 Y48.6988 
G01 X-56.9849 Y48.4141 
G01 X-56.9849 Y48.1058 
G01 X-57.1028 Y47.8211 
G01 X-57.3207 Y47.6032 
G01 X-57.6054 Y47.4853 
G01 X-58.0009 Y47.4853 
G01 X-58.0009 Y45.8936 
G01 X-57.1747 Y45.0674 
G01 X-57.0271 Y45.0674 
G01 X-56.8002 Y44.9734 
G01 X-56.6265 Y44.7997 
G01 X-56.5325 Y44.5728 
G01 X-56.5325 Y44.3271 
G01 X-56.6265 Y44.1002 
G01 X-56.8002 Y43.9265 
G01 X-57.0271 Y43.8325 
G01 X-57.2728 Y43.8325 
G01 X-57.4997 Y43.9265 
G01 X-57.6734 Y44.1002 
G01 X-57.7674 Y44.3271 
G01 X-57.7674 Y44.4747 
G01 X-58.8390 Y45.5463 
G01 X-58.8390 Y45.8936 
G01 X-58.8390 Y47.4853 
G01 X-59.2345 Y47.4853 
G01 X-59.5192 Y47.6032 
G01 X-59.7371 Y47.8211 
G01 X-59.7452 Y47.8409 
G01 X-60.7863 Y47.8409 
G01 X-61.1336 Y47.8409 
G01 X-64.9436 Y51.6509 
G01 X-67.9035 Y51.6509 
G01 X-68.2591 Y51.2953 
G01 X-68.9008 Y51.2953 
G01 X-69.3546 Y51.7491 
G01 X-69.3546 Y52.3908 
G01 X-68.9008 Y52.8446 
G01 X-68.2591 Y52.8446 
G01 X-67.9035 Y52.4890 
G01 X-64.9436 Y52.4890 
G01 X-64.5963 Y52.4890 
G01 X-60.7863 Y48.6790 
G01 X-59.7452 Y48.6790 
G01 X-59.7371 Y48.6988 
G01 X-59.5192 Y48.9167 
G01 X-59.2345 Y49.0346 
G00 Z2.5400  
G00 X-51.6145 Y49.0346 
G01 Z-0.1778 F254   
G01 X-49.9854 Y49.0346 F508   
G01 X-49.7007 Y48.9167 
G01 X-49.4828 Y48.6988 
G01 X-49.3649 Y48.4141 
G01 X-49.3649 Y48.1058 
G01 X-49.4828 Y47.8211 
G01 X-49.7007 Y47.6032 
G01 X-49.9854 Y47.4853 
G01 X-50.3809 Y47.4853 
G01 X-50.3809 Y43.0063 
G01 X-50.6263 Y42.7609 
G01 X-52.9209 Y40.4663 
G01 X-52.9209 Y39.5436 
G01 X-50.3809 Y37.0036 
G01 X-50.3809 Y36.6563 
G01 X-50.3809 Y36.2363 
G01 X-50.1236 Y35.9790 
G01 X-45.5463 Y35.9790 
G01 X-45.3009 Y35.7336 
G01 X-39.1963 Y29.6290 
G01 X-38.1553 Y29.6290 
G01 X-38.1471 Y29.6488 
G01 X-37.9292 Y29.8667 
G01 X-37.6445 Y29.9846 
G01 X-36.0154 Y29.9846 
G01 X-35.7307 Y29.8667 
G01 X-35.5128 Y29.6488 
G01 X-35.3949 Y29.3641 
G01 X-35.3949 Y29.0558 
G01 X-35.5128 Y28.7711 
G01 X-35.7307 Y28.5532 
G01 X-36.0154 Y28.4353 
G01 X-37.6445 Y28.4353 
G01 X-37.9292 Y28.5532 
G01 X-38.1471 Y28.7711 
G01 X-38.1553 Y28.7909 
G01 X-39.1963 Y28.7909 
G01 X-39.5436 Y28.7909 
G01 X-45.8936 Y35.1409 
G01 X-50.1236 Y35.1409 
G01 X-50.4791 Y34.7853 
G01 X-51.1208 Y34.7853 
G01 X-51.5746 Y35.2391 
G01 X-51.5746 Y35.8808 
G01 X-51.2190 Y36.2363 
G01 X-51.2190 Y36.6563 
G01 X-53.5136 Y38.9509 
G01 X-53.7590 Y39.1963 
G01 X-53.7590 Y40.4663 
G01 X-53.7590 Y40.8136 
G01 X-51.2190 Y43.3536 
G01 X-51.2190 Y47.4853 
G01 X-51.6145 Y47.4853 
G01 X-51.8992 Y47.6032 
G01 X-52.1171 Y47.8211 
G01 X-52.2350 Y48.1058 
G01 X-52.2350 Y48.4141 
G01 X-52.1171 Y48.6988 
G01 X-51.8992 Y48.9167 
G01 X-51.6145 Y49.0346 
G00 Z2.5400  
G00 X-51.6145 Y51.5746 
G01 Z-0.1778 F254   
G01 X-49.9854 Y51.5746 F508   
G01 X-49.7007 Y51.4567 
G01 X-49.4828 Y51.2388 
G01 X-49.4746 Y51.2190 
G01 X-49.3563 Y51.2190 
G01 X-46.8163 Y48.6790 
G01 X-46.5709 Y48.4336 
G01 X-46.5709 Y42.3290 
G01 X-45.5463 Y42.3290 
G01 X-45.3009 Y42.0836 
G01 X-41.4909 Y38.2736 
G01 X-41.4909 Y37.9263 
G01 X-41.4909 Y35.7336 
G01 X-38.0466 Y32.2893 
G01 X-37.9292 Y32.4067 
G01 X-37.6445 Y32.5246 
G01 X-36.0154 Y32.5246 
G01 X-35.7307 Y32.4067 
G01 X-35.5128 Y32.1888 
G01 X-35.3949 Y31.9041 
G01 X-35.3949 Y31.5958 
G01 X-35.5128 Y31.3111 
G01 X-35.7307 Y31.0932 
G01 X-36.0154 Y30.9753 
G01 X-37.6445 Y30.9753 
G01 X-37.9292 Y31.0932 
G01 X-38.1471 Y31.3111 
G01 X-38.1553 Y31.3309 
G01 X-38.2736 Y31.3309 
G01 X-42.3290 Y35.3863 
G01 X-42.3290 Y35.7336 
G01 X-42.3290 Y37.9263 
G01 X-45.8935 Y41.4909 
G01 X-46.8163 Y41.4909 
G01 X-47.1636 Y41.4909 
G01 X-49.3563 Y41.4909 
G01 X-50.0253 Y40.8220 
G01 X-50.0253 Y40.3191 
G01 X-50.4791 Y39.8653 
G01 X-51.1208 Y39.8653 
G01 X-51.5746 Y40.3191 
G01 X-51.5746 Y40.9608 
G01 X-51.1208 Y41.4146 
G01 X-50.6179 Y41.4146 
G01 X-49.7036 Y42.3290 
G01 X-49.3563 Y42.3290 
G01 X-47.4090 Y42.3290 
G01 X-47.4090 Y48.0863 
G01 X-49.5833 Y50.2607 
G01 X-49.7007 Y50.1432 
G01 X-49.9854 Y50.0253 
G01 X-51.6145 Y50.0253 
G01 X-51.8992 Y50.1432 
G01 X-52.1171 Y50.3611 
G01 X-52.2350 Y50.6458 
G01 X-52.2350 Y50.9541 
G01 X-52.1171 Y51.2388 
G01 X-51.8992 Y51.4567 
G01 X-51.6145 Y51.5746 
G00 Z2.5400  
G00 X-51.1432 Y91.8417 
G01 Z-0.1778 F254   
G01 X-52.9967 Y91.8417 F508   
G01 X-53.3158 Y91.9739 
G01 X-53.5600 Y92.2181 
G01 X-53.6922 Y92.5372 
G01 X-53.6922 Y92.8827 
G01 X-53.5600 Y93.2018 
G01 X-53.3158 Y93.4460 
G01 X-52.9967 Y93.5782 
G01 X-51.1432 Y93.5782 
G01 X-50.8241 Y93.4460 
G01 X-50.5799 Y93.2018 
G01 X-50.5498 Y93.1290 
G01 X-43.2353 Y93.1290 
G01 X-43.2271 Y93.1488 
G01 X-43.0092 Y93.3667 
G01 X-42.7245 Y93.4846 
G01 X-41.0954 Y93.4846 
G01 X-40.8107 Y93.3667 
G01 X-40.5928 Y93.1488 
G01 X-40.5846 Y93.1290 
G01 X-40.4663 Y93.1290 
G01 X-36.6563 Y89.3190 
G01 X-36.4109 Y89.0736 
G01 X-36.4109 Y80.1836 
G01 X-34.3147 Y78.0874 
G01 X-34.1671 Y78.0874 
G01 X-33.9402 Y77.9934 
G01 X-33.7665 Y77.8197 
G01 X-33.6725 Y77.5928 
G01 X-33.6725 Y77.3471 
G01 X-33.7665 Y77.1202 
G01 X-33.9402 Y76.9465 
G01 X-34.1671 Y76.8525 
G01 X-34.4128 Y76.8525 
G01 X-34.6397 Y76.9465 
G01 X-34.8134 Y77.1202 
G01 X-34.9074 Y77.3471 
G01 X-34.9074 Y77.4947 
G01 X-37.2490 Y79.8363 
G01 X-37.2490 Y80.1836 
G01 X-37.2490 Y88.7263 
G01 X-40.6933 Y92.1707 
G01 X-40.8107 Y92.0532 
G01 X-41.0954 Y91.9353 
G01 X-42.7245 Y91.9353 
G01 X-43.0092 Y92.0532 
G01 X-43.2271 Y92.2711 
G01 X-43.2353 Y92.2909 
G01 X-50.5498 Y92.2909 
G01 X-50.5799 Y92.2181 
G01 X-50.8241 Y91.9739 
G01 X-51.1432 Y91.8417 
G00 Z2.5400  
G00 X-51.1432 Y89.3017 
G01 Z-0.1778 F254   
G01 X-52.9967 Y89.3017 F508   
G01 X-53.3158 Y89.4339 
G01 X-53.5600 Y89.6781 
G01 X-53.5901 Y89.7509 
G01 X-54.7836 Y89.7509 
G01 X-55.0290 Y89.9963 
G01 X-56.2990 Y91.2663 
G01 X-56.2990 Y91.6136 
G01 X-56.2990 Y92.8836 
G01 X-56.0536 Y93.1290 
G01 X-54.7836 Y94.3990 
G01 X-54.4363 Y94.3990 
G01 X-54.3347 Y94.2974 
G01 X-45.9952 Y94.2974 
G01 X-44.6236 Y95.6690 
G01 X-44.2763 Y95.6690 
G01 X-43.2353 Y95.6690 
G01 X-43.2271 Y95.6888 
G01 X-43.0092 Y95.9067 
G01 X-42.7245 Y96.0246 
G01 X-41.0954 Y96.0246 
G01 X-40.8107 Y95.9067 
G01 X-40.5928 Y95.6888 
G01 X-40.5846 Y95.6690 
G01 X-40.4663 Y95.6690 
G01 X-34.1163 Y89.3190 
G01 X-33.8709 Y89.0736 
G01 X-33.8709 Y82.7236 
G01 X-30.3063 Y79.1590 
G01 X-14.1436 Y79.1590 
G01 X-13.7963 Y79.1590 
G01 X-12.5263 Y77.8890 
G01 X-12.2809 Y77.6436 
G01 X-12.2809 Y74.0790 
G01 X-7.4463 Y74.0790 
G01 X-7.2009 Y73.8336 
G01 X-5.9309 Y72.5636 
G01 X-5.9309 Y72.2163 
G01 X-5.9309 Y59.5163 
G01 X-6.1763 Y59.2709 
G01 X-6.5236 Y59.2709 
G01 X-8.7163 Y59.2709 
G01 X-11.0109 Y56.9763 
G01 X-11.0109 Y50.6263 
G01 X-11.2563 Y50.3809 
G01 X-11.6883 Y49.9490 
G01 X-7.4463 Y49.9490 
G01 X-7.2009 Y49.7036 
G01 X-5.9309 Y48.4336 
G01 X-5.9309 Y48.0863 
G01 X-5.9309 Y18.8763 
G01 X-6.1763 Y18.6309 
G01 X-8.7163 Y16.0909 
G01 X-9.0636 Y16.0909 
G01 X-23.0336 Y16.0909 
G01 X-23.2790 Y16.3363 
G01 X-24.3035 Y17.3609 
G01 X-31.5764 Y17.3609 
G01 X-32.6009 Y16.3363 
G01 X-32.6009 Y11.2563 
G01 X-32.8463 Y11.0109 
G01 X-35.3863 Y8.4709  
G01 X-35.7336 Y8.4709  
G01 X-61.1336 Y8.4709  
G01 X-61.3790 Y8.7163  
G01 X-63.9190 Y11.2563 
G01 X-63.9190 Y11.6036 
G01 X-63.9190 Y18.8763 
G01 X-63.9190 Y19.2236 
G01 X-62.9915 Y20.1510 
G01 X-62.9982 Y20.1671 
G01 X-62.9982 Y20.4728 
G01 X-62.8812 Y20.7552 
G01 X-62.6652 Y20.9712 
G01 X-62.3828 Y21.0882 
G01 X-62.0771 Y21.0882 
G01 X-62.0610 Y21.0815 
G01 X-61.3790 Y21.7636 
G01 X-61.3790 Y34.1163 
G01 X-63.4751 Y36.2125 
G01 X-63.6228 Y36.2125 
G01 X-63.8497 Y36.3065 
G01 X-63.9541 Y36.4109 
G01 X-65.8663 Y36.4109 
G01 X-66.2136 Y36.4109 
G01 X-68.7536 Y38.9509 
G01 X-80.8258 Y38.9509 
G01 X-80.9302 Y38.8465 
G01 X-81.1571 Y38.7525 
G01 X-81.4028 Y38.7525 
G01 X-81.6297 Y38.8465 
G01 X-81.8034 Y39.0202 
G01 X-81.8974 Y39.2471 
G01 X-81.8974 Y39.4928 
G01 X-81.8034 Y39.7197 
G01 X-81.6297 Y39.8934 
G01 X-81.4028 Y39.9874 
G01 X-81.1571 Y39.9874 
G01 X-80.9302 Y39.8934 
G01 X-80.8258 Y39.7890 
G01 X-68.4063 Y39.7890 
G01 X-68.1609 Y39.5436 
G01 X-65.8663 Y37.2490 
G01 X-63.9541 Y37.2490 
G01 X-63.8497 Y37.3534 
G01 X-63.6228 Y37.4474 
G01 X-63.3771 Y37.4474 
G01 X-63.1502 Y37.3534 
G01 X-62.9765 Y37.1797 
G01 X-62.8825 Y36.9528 
G01 X-62.8825 Y36.8051 
G01 X-60.5409 Y34.4636 
G01 X-60.5409 Y34.1163 
G01 X-60.5409 Y21.7636 
G01 X-60.5409 Y21.4163 
G01 X-61.4684 Y20.4889 
G01 X-61.4617 Y20.4728 
G01 X-61.4617 Y20.1671 
G01 X-61.5787 Y19.8847 
G01 X-61.7947 Y19.6687 
G01 X-62.0771 Y19.5517 
G01 X-62.3828 Y19.5517 
G01 X-62.3989 Y19.5584 
G01 X-63.0809 Y18.8763 
G01 X-63.0809 Y11.6036 
G01 X-60.7863 Y9.3090  
G01 X-35.7336 Y9.3090  
G01 X-33.4390 Y11.6036 
G01 X-33.4390 Y16.3363 
G01 X-33.4390 Y16.6836 
G01 X-32.3426 Y17.7799 
G01 X-33.1936 Y18.6309 
G01 X-35.5047 Y18.6309 
G01 X-35.5128 Y18.6111 
G01 X-35.7307 Y18.3932 
G01 X-36.0154 Y18.2753 
G01 X-37.6445 Y18.2753 
G01 X-37.9292 Y18.3932 
G01 X-38.1471 Y18.6111 
G01 X-38.2650 Y18.8958 
G01 X-38.2650 Y19.2041 
G01 X-38.1471 Y19.4888 
G01 X-37.9292 Y19.7067 
G01 X-37.6445 Y19.8246 
G01 X-36.0154 Y19.8246 
G01 X-35.7307 Y19.7067 
G01 X-35.5128 Y19.4888 
G01 X-35.5047 Y19.4690 
G01 X-33.1936 Y19.4690 
G01 X-32.8463 Y19.4690 
G01 X-31.5763 Y18.1990 
G01 X-23.9563 Y18.1990 
G01 X-23.7109 Y17.9536 
G01 X-22.6864 Y16.9290 
G01 X-9.0636 Y16.9290 
G01 X-6.7690 Y19.2236 
G01 X-6.7690 Y48.0863 
G01 X-7.7936 Y49.1109 
G01 X-12.5263 Y49.1109 
G01 X-12.8736 Y49.1109 
G01 X-13.7963 Y49.1109 
G01 X-20.4936 Y49.1109 
G01 X-20.7390 Y49.3563 
G01 X-22.0090 Y50.6263 
G01 X-22.0090 Y50.9736 
G01 X-22.0090 Y54.7836 
G01 X-21.7636 Y55.0290 
G01 X-20.4936 Y56.2990 
G01 X-20.1463 Y56.2990 
G01 X-17.6063 Y56.2990 
G01 X-17.3609 Y56.0536 
G01 X-16.0909 Y54.7836 
G01 X-16.0909 Y54.4363 
G01 X-16.0909 Y54.1146 
G01 X-15.6954 Y54.1146 
G01 X-15.4107 Y53.9967 
G01 X-15.1928 Y53.7788 
G01 X-15.0749 Y53.4941 
G01 X-15.0749 Y53.1858 
G01 X-15.1928 Y52.9011 
G01 X-15.4107 Y52.6832 
G01 X-15.6954 Y52.5653 
G01 X-17.3245 Y52.5653 
G01 X-17.6092 Y52.6832 
G01 X-17.8271 Y52.9011 
G01 X-17.9450 Y53.1858 
G01 X-17.9450 Y53.4941 
G01 X-17.8271 Y53.7788 
G01 X-17.6092 Y53.9967 
G01 X-17.3245 Y54.1146 
G01 X-16.9290 Y54.1146 
G01 X-16.9290 Y54.4363 
G01 X-17.9536 Y55.4609 
G01 X-20.1463 Y55.4609 
G01 X-21.1709 Y54.4363 
G01 X-21.1709 Y50.9736 
G01 X-20.1463 Y49.9490 
G01 X-13.7963 Y49.9490 
G01 X-12.8736 Y49.9490 
G01 X-11.8490 Y50.9736 
G01 X-11.8490 Y56.9763 
G01 X-11.8490 Y57.3236 
G01 X-9.3090 Y59.8636 
G01 X-9.0636 Y60.1090 
G01 X-6.7690 Y60.1090 
G01 X-6.7690 Y72.2163 
G01 X-7.7936 Y73.2409 
G01 X-12.2809 Y73.2409 
G01 X-12.2809 Y72.5636 
G01 X-12.2809 Y72.2163 
G01 X-14.8209 Y69.6763 
G01 X-15.0663 Y69.4309 
G01 X-15.1846 Y69.4309 
G01 X-15.1928 Y69.4111 
G01 X-15.4107 Y69.1932 
G01 X-15.6954 Y69.0753 
G01 X-17.3245 Y69.0753 
G01 X-17.6092 Y69.1932 
G01 X-17.8271 Y69.4111 
G01 X-17.9450 Y69.6958 
G01 X-17.9450 Y70.0041 
G01 X-17.8271 Y70.2888 
G01 X-17.6092 Y70.5067 
G01 X-17.3245 Y70.6246 
G01 X-15.6954 Y70.6246 
G01 X-15.4107 Y70.5067 
G01 X-15.2933 Y70.3892 
G01 X-13.1190 Y72.5636 
G01 X-13.1190 Y73.4863 
G01 X-13.1190 Y73.8336 
G01 X-13.1190 Y77.2963 
G01 X-14.1436 Y78.3209 
G01 X-30.6536 Y78.3209 
G01 X-30.8990 Y78.5663 
G01 X-34.7090 Y82.3763 
G01 X-34.7090 Y82.7236 
G01 X-34.7090 Y88.7263 
G01 X-40.6933 Y94.7107 
G01 X-40.8107 Y94.5932 
G01 X-41.0954 Y94.4753 
G01 X-42.7245 Y94.4753 
G01 X-43.0092 Y94.5932 
G01 X-43.2271 Y94.8111 
G01 X-43.2353 Y94.8309 
G01 X-44.2763 Y94.8309 
G01 X-45.5463 Y93.5609 
G01 X-45.8936 Y93.5609 
G01 X-45.9952 Y93.6625 
G01 X-54.3347 Y93.6625 
G01 X-55.4609 Y92.5363 
G01 X-55.4609 Y91.6136 
G01 X-54.4363 Y90.5890 
G01 X-53.5901 Y90.5890 
G01 X-53.5600 Y90.6618 
G01 X-53.3158 Y90.9060 
G01 X-52.9967 Y91.0382 
G01 X-51.1432 Y91.0382 
G01 X-50.8241 Y90.9060 
G01 X-50.5799 Y90.6618 
G01 X-50.4477 Y90.3427 
G01 X-50.4477 Y89.9972 
G01 X-50.5799 Y89.6781 
G01 X-50.8241 Y89.4339 
G01 X-51.1432 Y89.3017 
G00 Z2.5400  
G00 X-62.9982 Y17.6271 
G01 Z-0.1778 F254   
G01 X-62.9982 Y17.9328 F508   
G01 X-62.8812 Y18.2152 
G01 X-62.6652 Y18.4312 
G01 X-62.3828 Y18.5482 
G01 X-62.0771 Y18.5482 
G01 X-61.7947 Y18.4312 
G01 X-61.5787 Y18.2152 
G01 X-61.4617 Y17.9328 
G01 X-61.4617 Y17.6271 
G01 X-61.5787 Y17.3447 
G01 X-61.7947 Y17.1287 
G01 X-62.0771 Y17.0117 
G01 X-62.3828 Y17.0117 
G01 X-62.6652 Y17.1287 
G01 X-62.8812 Y17.3447 
G01 X-62.9982 Y17.6271 
G00 Z2.5400  
G00 X-60.4582 Y15.0871 
G01 Z-0.1778 F254   
G01 X-60.4582 Y15.3928 F508   
G01 X-60.3412 Y15.6752 
G01 X-60.1252 Y15.8912 
G01 X-59.8428 Y16.0082 
G01 X-59.5371 Y16.0082 
G01 X-59.2547 Y15.8912 
G01 X-59.0387 Y15.6752 
G01 X-58.9217 Y15.3928 
G01 X-58.9217 Y15.0871 
G01 X-59.0387 Y14.8047 
G01 X-59.2547 Y14.5887 
G01 X-59.5371 Y14.4717 
G01 X-59.8428 Y14.4717 
G01 X-60.1252 Y14.5887 
G01 X-60.3412 Y14.8047 
G01 X-60.4582 Y15.0871 
G00 Z2.5400  
G00 X-62.9982 Y15.0871 
G01 Z-0.1778 F254   
G01 X-62.9982 Y15.3928 F508   
G01 X-62.8812 Y15.6752 
G01 X-62.6652 Y15.8912 
G01 X-62.3828 Y16.0082 
G01 X-62.0771 Y16.0082 
G01 X-61.7947 Y15.8912 
G01 X-61.5787 Y15.6752 
G01 X-61.4617 Y15.3928 
G01 X-61.4617 Y15.0871 
G01 X-61.5787 Y14.8047 
G01 X-61.7947 Y14.5887 
G01 X-62.0771 Y14.4717 
G01 X-62.3828 Y14.4717 
G01 X-62.6652 Y14.5887 
G01 X-62.8812 Y14.8047 
G01 X-62.9982 Y15.0871 
G00 Z2.5400  
G00 X-60.4582 Y12.5471 
G01 Z-0.1778 F254   
G01 X-60.4582 Y12.8528 F508   
G01 X-60.3412 Y13.1352 
G01 X-60.1252 Y13.3512 
G01 X-59.8428 Y13.4682 
G01 X-59.5371 Y13.4682 
G01 X-59.2547 Y13.3512 
G01 X-59.0387 Y13.1352 
G01 X-58.9217 Y12.8528 
G01 X-58.9217 Y12.5471 
G01 X-59.0387 Y12.2647 
G01 X-59.2547 Y12.0487 
G01 X-59.5371 Y11.9317 
G01 X-59.8428 Y11.9317 
G01 X-60.1252 Y12.0487 
G01 X-60.3412 Y12.2647 
G01 X-60.4582 Y12.5471 
G00 Z2.5400  
G00 X-57.9182 Y15.0871 
G01 Z-0.1778 F254   
G01 X-57.9182 Y15.3928 F508   
G01 X-57.8012 Y15.6752 
G01 X-57.5852 Y15.8912 
G01 X-57.3028 Y16.0082 
G01 X-56.9971 Y16.0082 
G01 X-56.7147 Y15.8912 
G01 X-56.4987 Y15.6752 
G01 X-56.3817 Y15.3928 
G01 X-56.3817 Y15.0871 
G01 X-56.4987 Y14.8047 
G01 X-56.7147 Y14.5887 
G01 X-56.9971 Y14.4717 
G01 X-57.3028 Y14.4717 
G01 X-57.5852 Y14.5887 
G01 X-57.8012 Y14.8047 
G01 X-57.9182 Y15.0871 
G00 Z2.5400  
G00 X-57.9182 Y12.5471 
G01 Z-0.1778 F254   
G01 X-57.9182 Y12.8528 F508   
G01 X-57.8012 Y13.1352 
G01 X-57.5852 Y13.3512 
G01 X-57.3028 Y13.4682 
G01 X-56.9971 Y13.4682 
G01 X-56.7147 Y13.3512 
G01 X-56.4987 Y13.1352 
G01 X-56.3817 Y12.8528 
G01 X-56.3817 Y12.5471 
G01 X-56.4987 Y12.2647 
G01 X-56.7147 Y12.0487 
G01 X-56.9971 Y11.9317 
G01 X-57.3028 Y11.9317 
G01 X-57.5852 Y12.0487 
G01 X-57.8012 Y12.2647 
G01 X-57.9182 Y12.5471 
G00 Z2.5400  
G00 X-55.3782 Y15.0871 
G01 Z-0.1778 F254   
G01 X-55.3782 Y15.3928 F508   
G01 X-55.2612 Y15.6752 
G01 X-55.0452 Y15.8912 
G01 X-54.7628 Y16.0082 
G01 X-54.4571 Y16.0082 
G01 X-54.1747 Y15.8912 
G01 X-53.9587 Y15.6752 
G01 X-53.8417 Y15.3928 
G01 X-53.8417 Y15.0871 
G01 X-53.9587 Y14.8047 
G01 X-54.1747 Y14.5887 
G01 X-54.4571 Y14.4717 
G01 X-54.7628 Y14.4717 
G01 X-55.0452 Y14.5887 
G01 X-55.2612 Y14.8047 
G01 X-55.3782 Y15.0871 
G00 Z2.5400  
G00 X-52.8382 Y12.5471 
G01 Z-0.1778 F254   
G01 X-52.8382 Y12.8528 F508   
G01 X-52.7212 Y13.1352 
G01 X-52.5052 Y13.3512 
G01 X-52.2228 Y13.4682 
G01 X-51.9171 Y13.4682 
G01 X-51.6347 Y13.3512 
G01 X-51.4187 Y13.1352 
G01 X-51.3017 Y12.8528 
G01 X-51.3017 Y12.5471 
G01 X-51.4187 Y12.2647 
G01 X-51.6347 Y12.0487 
G01 X-51.9171 Y11.9317 
G01 X-52.2228 Y11.9317 
G01 X-52.5052 Y12.0487 
G01 X-52.7212 Y12.2647 
G01 X-52.8382 Y12.5471 
G00 Z2.5400  
G00 X-50.2982 Y15.0871 
G01 Z-0.1778 F254   
G01 X-50.2982 Y15.3928 F508   
G01 X-50.1812 Y15.6752 
G01 X-49.9652 Y15.8912 
G01 X-49.6828 Y16.0082 
G01 X-49.3771 Y16.0082 
G01 X-49.0947 Y15.8912 
G01 X-48.8787 Y15.6752 
G01 X-48.7617 Y15.3928 
G01 X-48.7617 Y15.0871 
G01 X-48.8787 Y14.8047 
G01 X-49.0947 Y14.5887 
G01 X-49.3771 Y14.4717 
G01 X-49.6828 Y14.4717 
G01 X-49.9652 Y14.5887 
G01 X-50.1812 Y14.8047 
G01 X-50.2982 Y15.0871 
G00 Z2.5400  
G00 X-50.2982 Y12.5471 
G01 Z-0.1778 F254   
G01 X-50.2982 Y12.8528 F508   
G01 X-50.1812 Y13.1352 
G01 X-49.9652 Y13.3512 
G01 X-49.6828 Y13.4682 
G01 X-49.3771 Y13.4682 
G01 X-49.0947 Y13.3512 
G01 X-48.8787 Y13.1352 
G01 X-48.7617 Y12.8528 
G01 X-48.7617 Y12.5471 
G01 X-48.8787 Y12.2647 
G01 X-49.0947 Y12.0487 
G01 X-49.3771 Y11.9317 
G01 X-49.6828 Y11.9317 
G01 X-49.9652 Y12.0487 
G01 X-50.1812 Y12.2647 
G01 X-50.2982 Y12.5471 
G00 Z2.5400  
G00 X-47.7582 Y15.0871 
G01 Z-0.1778 F254   
G01 X-47.7582 Y15.3928 F508   
G01 X-47.6412 Y15.6752 
G01 X-47.4252 Y15.8912 
G01 X-47.1428 Y16.0082 
G01 X-46.8371 Y16.0082 
G01 X-46.5547 Y15.8912 
G01 X-46.3387 Y15.6752 
G01 X-46.2217 Y15.3928 
G01 X-46.2217 Y15.0871 
G01 X-46.3387 Y14.8047 
G01 X-46.5547 Y14.5887 
G01 X-46.8371 Y14.4717 
G01 X-47.1428 Y14.4717 
G01 X-47.4252 Y14.5887 
G01 X-47.6412 Y14.8047 
G01 X-47.7582 Y15.0871 
G00 Z2.5400  
G00 X-47.7582 Y12.5471 
G01 Z-0.1778 F254   
G01 X-47.7582 Y12.8528 F508   
G01 X-47.6412 Y13.1352 
G01 X-47.4252 Y13.3512 
G01 X-47.1428 Y13.4682 
G01 X-46.8371 Y13.4682 
G01 X-46.5547 Y13.3512 
G01 X-46.3387 Y13.1352 
G01 X-46.2217 Y12.8528 
G01 X-46.2217 Y12.5471 
G01 X-46.3387 Y12.2647 
G01 X-46.5547 Y12.0487 
G01 X-46.8371 Y11.9317 
G01 X-47.1428 Y11.9317 
G01 X-47.4252 Y12.0487 
G01 X-47.6412 Y12.2647 
G01 X-47.7582 Y12.5471 
G00 Z2.5400  
G00 X-45.2182 Y15.0871 
G01 Z-0.1778 F254   
G01 X-45.2182 Y15.3928 F508   
G01 X-45.1012 Y15.6752 
G01 X-44.8852 Y15.8912 
G01 X-44.6028 Y16.0082 
G01 X-44.2971 Y16.0082 
G01 X-44.0147 Y15.8912 
G01 X-43.7987 Y15.6752 
G01 X-43.6817 Y15.3928 
G01 X-43.6817 Y15.0871 
G01 X-43.7987 Y14.8047 
G01 X-44.0147 Y14.5887 
G01 X-44.2971 Y14.4717 
G01 X-44.6028 Y14.4717 
G01 X-44.8852 Y14.5887 
G01 X-45.1012 Y14.8047 
G01 X-45.2182 Y15.0871 
G00 Z2.5400  
G00 X-47.7582 Y17.6271 
G01 Z-0.1778 F254   
G01 X-47.7582 Y17.9328 F508   
G01 X-47.6412 Y18.2152 
G01 X-47.4252 Y18.4312 
G01 X-47.1428 Y18.5482 
G01 X-46.8371 Y18.5482 
G01 X-46.5547 Y18.4312 
G01 X-46.3387 Y18.2152 
G01 X-46.2217 Y17.9328 
G01 X-46.2217 Y17.6271 
G01 X-46.3387 Y17.3447 
G01 X-46.5547 Y17.1287 
G01 X-46.8371 Y17.0117 
G01 X-47.1428 Y17.0117 
G01 X-47.4252 Y17.1287 
G01 X-47.6412 Y17.3447 
G01 X-47.7582 Y17.6271 
G00 Z2.5400  
G00 X-45.2182 Y17.6271 
G01 Z-0.1778 F254   
G01 X-45.2182 Y17.9328 F508   
G01 X-45.1012 Y18.2152 
G01 X-44.8852 Y18.4312 
G01 X-44.6028 Y18.5482 
G01 X-44.2971 Y18.5482 
G01 X-44.0147 Y18.4312 
G01 X-43.7987 Y18.2152 
G01 X-43.6817 Y17.9328 
G01 X-43.6817 Y17.6271 
G01 X-43.7987 Y17.3447 
G01 X-44.0147 Y17.1287 
G01 X-44.2971 Y17.0117 
G01 X-44.6028 Y17.0117 
G01 X-44.8852 Y17.1287 
G01 X-45.1012 Y17.3447 
G01 X-45.2182 Y17.6271 
G00 Z2.5400  
G00 X-47.7582 Y20.1671 
G01 Z-0.1778 F254   
G01 X-47.7582 Y20.4728 F508   
G01 X-47.6412 Y20.7552 
G01 X-47.4252 Y20.9712 
G01 X-47.1428 Y21.0882 
G01 X-46.8371 Y21.0882 
G01 X-46.5547 Y20.9712 
G01 X-46.3387 Y20.7552 
G01 X-46.2217 Y20.4728 
G01 X-46.2217 Y20.1671 
G01 X-46.3387 Y19.8847 
G01 X-46.5547 Y19.6687 
G01 X-46.8371 Y19.5517 
G01 X-47.1428 Y19.5517 
G01 X-47.4252 Y19.6687 
G01 X-47.6412 Y19.8847 
G01 X-47.7582 Y20.1671 
G00 Z2.5400  
G00 X-45.2182 Y20.1671 
G01 Z-0.1778 F254   
G01 X-45.2182 Y20.4728 F508   
G01 X-45.1012 Y20.7552 
G01 X-44.8852 Y20.9712 
G01 X-44.6028 Y21.0882 
G01 X-44.2971 Y21.0882 
G01 X-44.0147 Y20.9712 
G01 X-43.7987 Y20.7552 
G01 X-43.6817 Y20.4728 
G01 X-43.6817 Y20.1671 
G01 X-43.7987 Y19.8847 
G01 X-44.0147 Y19.6687 
G01 X-44.2971 Y19.5517 
G01 X-44.6028 Y19.5517 
G01 X-44.8852 Y19.6687 
G01 X-45.1012 Y19.8847 
G01 X-45.2182 Y20.1671 
G00 Z2.5400  
G00 X-47.7582 Y22.7071 
G01 Z-0.1778 F254   
G01 X-47.7582 Y23.0128 F508   
G01 X-47.6412 Y23.2952 
G01 X-47.4252 Y23.5112 
G01 X-47.1428 Y23.6282 
G01 X-46.8371 Y23.6282 
G01 X-46.5547 Y23.5112 
G01 X-46.3387 Y23.2952 
G01 X-46.2217 Y23.0128 
G01 X-46.2217 Y22.7071 
G01 X-46.3387 Y22.4247 
G01 X-46.5547 Y22.2087 
G01 X-46.8371 Y22.0917 
G01 X-47.1428 Y22.0917 
G01 X-47.4252 Y22.2087 
G01 X-47.6412 Y22.4247 
G01 X-47.7582 Y22.7071 
G00 Z2.5400  
G00 X-45.2182 Y22.7071 
G01 Z-0.1778 F254   
G01 X-45.2182 Y23.0128 F508   
G01 X-45.1012 Y23.2952 
G01 X-44.8852 Y23.5112 
G01 X-44.6028 Y23.6282 
G01 X-44.2971 Y23.6282 
G01 X-44.0147 Y23.5112 
G01 X-43.7987 Y23.2952 
G01 X-43.6817 Y23.0128 
G01 X-43.6817 Y22.7071 
G01 X-43.7987 Y22.4247 
G01 X-44.0147 Y22.2087 
G01 X-44.2971 Y22.0917 
G01 X-44.6028 Y22.0917 
G01 X-44.8852 Y22.2087 
G01 X-45.1012 Y22.4247 
G01 X-45.2182 Y22.7071 
G00 Z2.5400  
G00 X-47.7582 Y25.2471 
G01 Z-0.1778 F254   
G01 X-47.7582 Y25.5528 F508   
G01 X-47.6412 Y25.8352 
G01 X-47.4252 Y26.0512 
G01 X-47.1428 Y26.1682 
G01 X-46.8371 Y26.1682 
G01 X-46.5547 Y26.0512 
G01 X-46.3387 Y25.8352 
G01 X-46.2217 Y25.5528 
G01 X-46.2217 Y25.2471 
G01 X-46.3387 Y24.9647 
G01 X-46.5547 Y24.7487 
G01 X-46.8371 Y24.6317 
G01 X-47.1428 Y24.6317 
G01 X-47.4252 Y24.7487 
G01 X-47.6412 Y24.9647 
G01 X-47.7582 Y25.2471 
G00 Z2.5400  
G00 X-45.2182 Y25.2471 
G01 Z-0.1778 F254   
G01 X-45.2182 Y25.5528 F508   
G01 X-45.1012 Y25.8352 
G01 X-44.8852 Y26.0512 
G01 X-44.6028 Y26.1682 
G01 X-44.2971 Y26.1682 
G01 X-44.0147 Y26.0512 
G01 X-43.7987 Y25.8352 
G01 X-43.6817 Y25.5528 
G01 X-43.6817 Y25.2471 
G01 X-43.7987 Y24.9647 
G01 X-44.0147 Y24.7487 
G01 X-44.2971 Y24.6317 
G01 X-44.6028 Y24.6317 
G01 X-44.8852 Y24.7487 
G01 X-45.1012 Y24.9647 
G01 X-45.2182 Y25.2471 
G00 Z2.5400  
G00 X-47.7582 Y27.7871 
G01 Z-0.1778 F254   
G01 X-47.7582 Y28.0928 F508   
G01 X-47.6412 Y28.3752 
G01 X-47.4252 Y28.5912 
G01 X-47.1428 Y28.7082 
G01 X-46.8371 Y28.7082 
G01 X-46.5547 Y28.5912 
G01 X-46.3387 Y28.3752 
G01 X-46.2217 Y28.0928 
G01 X-46.2217 Y27.7871 
G01 X-46.3387 Y27.5047 
G01 X-46.5547 Y27.2887 
G01 X-46.8371 Y27.1717 
G01 X-47.1428 Y27.1717 
G01 X-47.4252 Y27.2887 
G01 X-47.6412 Y27.5047 
G01 X-47.7582 Y27.7871 
G00 Z2.5400  
G00 X-45.2182 Y27.7871 
G01 Z-0.1778 F254   
G01 X-45.2182 Y28.0928 F508   
G01 X-45.1012 Y28.3752 
G01 X-44.8852 Y28.5912 
G01 X-44.6028 Y28.7082 
G01 X-44.2971 Y28.7082 
G01 X-44.0147 Y28.5912 
G01 X-43.7987 Y28.3752 
G01 X-43.6817 Y28.0928 
G01 X-43.6817 Y27.7871 
G01 X-43.7987 Y27.5047 
G01 X-44.0147 Y27.2887 
G01 X-44.2971 Y27.1717 
G01 X-44.6028 Y27.1717 
G01 X-44.8852 Y27.2887 
G01 X-45.1012 Y27.5047 
G01 X-45.2182 Y27.7871 
G00 Z2.5400  
G00 X-47.7582 Y30.3271 
G01 Z-0.1778 F254   
G01 X-47.7582 Y30.6328 F508   
G01 X-47.6412 Y30.9152 
G01 X-47.4252 Y31.1312 
G01 X-47.1428 Y31.2482 
G01 X-46.8371 Y31.2482 
G01 X-46.5547 Y31.1312 
G01 X-46.3387 Y30.9152 
G01 X-46.2217 Y30.6328 
G01 X-46.2217 Y30.3271 
G01 X-46.3387 Y30.0447 
G01 X-46.5547 Y29.8287 
G01 X-46.8371 Y29.7117 
G01 X-47.1428 Y29.7117 
G01 X-47.4252 Y29.8287 
G01 X-47.6412 Y30.0447 
G01 X-47.7582 Y30.3271 
G00 Z2.5400  
G00 X-50.2982 Y27.7871 
G01 Z-0.1778 F254   
G01 X-50.2982 Y28.0928 F508   
G01 X-50.1812 Y28.3752 
G01 X-49.9652 Y28.5912 
G01 X-49.6828 Y28.7082 
G01 X-49.3771 Y28.7082 
G01 X-49.0947 Y28.5912 
G01 X-48.8787 Y28.3752 
G01 X-48.7617 Y28.0928 
G01 X-48.7617 Y27.7871 
G01 X-48.8787 Y27.5047 
G01 X-49.0947 Y27.2887 
G01 X-49.3771 Y27.1717 
G01 X-49.6828 Y27.1717 
G01 X-49.9652 Y27.2887 
G01 X-50.1812 Y27.5047 
G01 X-50.2982 Y27.7871 
G00 Z2.5400  
G00 X-50.2982 Y30.3271 
G01 Z-0.1778 F254   
G01 X-50.2982 Y30.6328 F508   
G01 X-50.1812 Y30.9152 
G01 X-49.9652 Y31.1312 
G01 X-49.6828 Y31.2482 
G01 X-49.3771 Y31.2482 
G01 X-49.0947 Y31.1312 
G01 X-48.8787 Y30.9152 
G01 X-48.7617 Y30.6328 
G01 X-48.7617 Y30.3271 
G01 X-48.8787 Y30.0447 
G01 X-49.0947 Y29.8287 
G01 X-49.3771 Y29.7117 
G01 X-49.6828 Y29.7117 
G01 X-49.9652 Y29.8287 
G01 X-50.1812 Y30.0447 
G01 X-50.2982 Y30.3271 
G00 Z2.5400  
G00 X-52.8382 Y27.7871 
G01 Z-0.1778 F254   
G01 X-52.8382 Y28.0928 F508   
G01 X-52.7212 Y28.3752 
G01 X-52.5052 Y28.5912 
G01 X-52.2228 Y28.7082 
G01 X-51.9171 Y28.7082 
G01 X-51.6347 Y28.5912 
G01 X-51.4187 Y28.3752 
G01 X-51.3017 Y28.0928 
G01 X-51.3017 Y27.7871 
G01 X-51.4187 Y27.5047 
G01 X-51.6347 Y27.2887 
G01 X-51.9171 Y27.1717 
G01 X-52.2228 Y27.1717 
G01 X-52.5052 Y27.2887 
G01 X-52.7212 Y27.5047 
G01 X-52.8382 Y27.7871 
G00 Z2.5400  
G00 X-55.3782 Y30.3271 
G01 Z-0.1778 F254   
G01 X-55.3782 Y30.6328 F508   
G01 X-55.2612 Y30.9152 
G01 X-55.0452 Y31.1312 
G01 X-54.7628 Y31.2482 
G01 X-54.4571 Y31.2482 
G01 X-54.1747 Y31.1312 
G01 X-53.9587 Y30.9152 
G01 X-53.8417 Y30.6328 
G01 X-53.8417 Y30.3271 
G01 X-53.9587 Y30.0447 
G01 X-54.1747 Y29.8287 
G01 X-54.4571 Y29.7117 
G01 X-54.7628 Y29.7117 
G01 X-55.0452 Y29.8287 
G01 X-55.2612 Y30.0447 
G01 X-55.3782 Y30.3271 
G00 Z2.5400  
G00 X-57.9182 Y27.7871 
G01 Z-0.1778 F254   
G01 X-57.9182 Y28.0928 F508   
G01 X-57.8012 Y28.3752 
G01 X-57.5852 Y28.5912 
G01 X-57.3028 Y28.7082 
G01 X-56.9971 Y28.7082 
G01 X-56.7147 Y28.5912 
G01 X-56.4987 Y28.3752 
G01 X-56.3817 Y28.0928 
G01 X-56.3817 Y27.7871 
G01 X-56.4987 Y27.5047 
G01 X-56.7147 Y27.2887 
G01 X-56.9971 Y27.1717 
G01 X-57.3028 Y27.1717 
G01 X-57.5852 Y27.2887 
G01 X-57.8012 Y27.5047 
G01 X-57.9182 Y27.7871 
G00 Z2.5400  
G00 X-57.9182 Y30.3271 
G01 Z-0.1778 F254   
G01 X-57.9182 Y30.6328 F508   
G01 X-57.8012 Y30.9152 
G01 X-57.5852 Y31.1312 
G01 X-57.3028 Y31.2482 
G01 X-56.9971 Y31.2482 
G01 X-56.7147 Y31.1312 
G01 X-56.4987 Y30.9152 
G01 X-56.3817 Y30.6328 
G01 X-56.3817 Y30.3271 
G01 X-56.4987 Y30.0447 
G01 X-56.7147 Y29.8287 
G01 X-56.9971 Y29.7117 
G01 X-57.3028 Y29.7117 
G01 X-57.5852 Y29.8287 
G01 X-57.8012 Y30.0447 
G01 X-57.9182 Y30.3271 
G00 Z2.5400  
G00 X-60.4582 Y27.7871 
G01 Z-0.1778 F254   
G01 X-60.4582 Y28.0928 F508   
G01 X-60.3412 Y28.3752 
G01 X-60.1252 Y28.5912 
G01 X-59.8428 Y28.7082 
G01 X-59.5371 Y28.7082 
G01 X-59.2547 Y28.5912 
G01 X-59.0387 Y28.3752 
G01 X-58.9217 Y28.0928 
G01 X-58.9217 Y27.7871 
G01 X-59.0387 Y27.5047 
G01 X-59.2547 Y27.2887 
G01 X-59.5371 Y27.1717 
G01 X-59.8428 Y27.1717 
G01 X-60.1252 Y27.2887 
G01 X-60.3412 Y27.5047 
G01 X-60.4582 Y27.7871 
G00 Z2.5400  
G00 X-60.4582 Y30.3271 
G01 Z-0.1778 F254   
G01 X-60.4582 Y30.6328 F508   
G01 X-60.3412 Y30.9152 
G01 X-60.1252 Y31.1312 
G01 X-59.8428 Y31.2482 
G01 X-59.5371 Y31.2482 
G01 X-59.2547 Y31.1312 
G01 X-59.0387 Y30.9152 
G01 X-58.9217 Y30.6328 
G01 X-58.9217 Y30.3271 
G01 X-59.0387 Y30.0447 
G01 X-59.2547 Y29.8287 
G01 X-59.5371 Y29.7117 
G01 X-59.8428 Y29.7117 
G01 X-60.1252 Y29.8287 
G01 X-60.3412 Y30.0447 
G01 X-60.4582 Y30.3271 
G00 Z2.5400  
G00 X-62.9982 Y27.7871 
G01 Z-0.1778 F254   
G01 X-62.9982 Y28.0928 F508   
G01 X-62.8812 Y28.3752 
G01 X-62.6652 Y28.5912 
G01 X-62.3828 Y28.7082 
G01 X-62.0771 Y28.7082 
G01 X-61.7947 Y28.5912 
G01 X-61.5787 Y28.3752 
G01 X-61.4617 Y28.0928 
G01 X-61.4617 Y27.7871 
G01 X-61.5787 Y27.5047 
G01 X-61.7947 Y27.2887 
G01 X-62.0771 Y27.1717 
G01 X-62.3828 Y27.1717 
G01 X-62.6652 Y27.2887 
G01 X-62.8812 Y27.5047 
G01 X-62.9982 Y27.7871 
G00 Z2.5400  
G00 X-60.4582 Y25.2471 
G01 Z-0.1778 F254   
G01 X-60.4582 Y25.5528 F508   
G01 X-60.3412 Y25.8352 
G01 X-60.1252 Y26.0512 
G01 X-59.8428 Y26.1682 
G01 X-59.5371 Y26.1682 
G01 X-59.2547 Y26.0512 
G01 X-59.0387 Y25.8352 
G01 X-58.9217 Y25.5528 
G01 X-58.9217 Y25.2471 
G01 X-59.0387 Y24.9647 
G01 X-59.2547 Y24.7487 
G01 X-59.5371 Y24.6317 
G01 X-59.8428 Y24.6317 
G01 X-60.1252 Y24.7487 
G01 X-60.3412 Y24.9647 
G01 X-60.4582 Y25.2471 
G00 Z2.5400  
G00 X-62.9982 Y25.2471 
G01 Z-0.1778 F254   
G01 X-62.9982 Y25.5528 F508   
G01 X-62.8812 Y25.8352 
G01 X-62.6652 Y26.0512 
G01 X-62.3828 Y26.1682 
G01 X-62.0771 Y26.1682 
G01 X-61.7947 Y26.0512 
G01 X-61.5787 Y25.8352 
G01 X-61.4617 Y25.5528 
G01 X-61.4617 Y25.2471 
G01 X-61.5787 Y24.9647 
G01 X-61.7947 Y24.7487 
G01 X-62.0771 Y24.6317 
G01 X-62.3828 Y24.6317 
G01 X-62.6652 Y24.7487 
G01 X-62.8812 Y24.9647 
G01 X-62.9982 Y25.2471 
G00 Z2.5400  
G00 X-60.4582 Y22.7071 
G01 Z-0.1778 F254   
G01 X-60.4582 Y23.0128 F508   
G01 X-60.3412 Y23.2952 
G01 X-60.1252 Y23.5112 
G01 X-59.8428 Y23.6282 
G01 X-59.5371 Y23.6282 
G01 X-59.2547 Y23.5112 
G01 X-59.0387 Y23.2952 
G01 X-58.9217 Y23.0128 
G01 X-58.9217 Y22.7071 
G01 X-59.0387 Y22.4247 
G01 X-59.2547 Y22.2087 
G01 X-59.5371 Y22.0917 
G01 X-59.8428 Y22.0917 
G01 X-60.1252 Y22.2087 
G01 X-60.3412 Y22.4247 
G01 X-60.4582 Y22.7071 
G00 Z2.5400  
G00 X-60.4582 Y20.1671 
G01 Z-0.1778 F254   
G01 X-60.4582 Y20.4728 F508   
G01 X-60.3412 Y20.7552 
G01 X-60.1252 Y20.9712 
G01 X-59.8428 Y21.0882 
G01 X-59.5371 Y21.0882 
G01 X-59.2547 Y20.9712 
G01 X-59.0387 Y20.7552 
G01 X-58.9217 Y20.4728 
G01 X-58.9217 Y20.1671 
G01 X-59.0387 Y19.8847 
G01 X-59.2547 Y19.6687 
G01 X-59.5371 Y19.5517 
G01 X-59.8428 Y19.5517 
G01 X-60.1252 Y19.6687 
G01 X-60.3412 Y19.8847 
G01 X-60.4582 Y20.1671 
G00 Z2.5400  
G00 X-42.7245 Y90.9446 
G01 Z-0.1778 F254   
G01 X-41.0954 Y90.9446 F508   
G01 X-40.8107 Y90.8267 
G01 X-40.5928 Y90.6088 
G01 X-40.4749 Y90.3241 
G01 X-40.4749 Y90.0158 
G01 X-40.5928 Y89.7311 
G01 X-40.8107 Y89.5132 
G01 X-41.0954 Y89.3953 
G01 X-42.7245 Y89.3953 
G01 X-43.0092 Y89.5132 
G01 X-43.2271 Y89.7311 
G01 X-43.3450 Y90.0158 
G01 X-43.3450 Y90.3241 
G01 X-43.2271 Y90.6088 
G01 X-43.0092 Y90.8267 
G01 X-42.7245 Y90.9446 
G00 Z2.5400  
G00 X-42.7245 Y88.4046 
G01 Z-0.1778 F254   
G01 X-41.0954 Y88.4046 F508   
G01 X-40.8107 Y88.2867 
G01 X-40.5928 Y88.0688 
G01 X-40.4749 Y87.7841 
G01 X-40.4749 Y87.4758 
G01 X-40.5928 Y87.1911 
G01 X-40.8107 Y86.9732 
G01 X-41.0954 Y86.8553 
G01 X-42.7245 Y86.8553 
G01 X-43.0092 Y86.9732 
G01 X-43.2271 Y87.1911 
G01 X-43.3450 Y87.4758 
G01 X-43.3450 Y87.7841 
G01 X-43.2271 Y88.0688 
G01 X-43.0092 Y88.2867 
G01 X-42.7245 Y88.4046 
G00 Z2.5400  
G00 X-42.7245 Y85.8646 
G01 Z-0.1778 F254   
G01 X-41.0954 Y85.8646 F508   
G01 X-40.8107 Y85.7467 
G01 X-40.5928 Y85.5288 
G01 X-40.4749 Y85.2441 
G01 X-40.4749 Y84.9358 
G01 X-40.5928 Y84.6511 
G01 X-40.8107 Y84.4332 
G01 X-41.0954 Y84.3153 
G01 X-42.7245 Y84.3153 
G01 X-43.0092 Y84.4332 
G01 X-43.2271 Y84.6511 
G01 X-43.3450 Y84.9358 
G01 X-43.3450 Y85.2441 
G01 X-43.2271 Y85.5288 
G01 X-43.0092 Y85.7467 
G01 X-42.7245 Y85.8646 
G00 Z2.5400  
G00 X-42.7245 Y83.3246 
G01 Z-0.1778 F254   
G01 X-41.0954 Y83.3246 F508   
G01 X-40.8107 Y83.2067 
G01 X-40.5928 Y82.9888 
G01 X-40.4749 Y82.7041 
G01 X-40.4749 Y82.3958 
G01 X-40.5928 Y82.1111 
G01 X-40.8107 Y81.8932 
G01 X-41.0954 Y81.7753 
G01 X-42.7245 Y81.7753 
G01 X-43.0092 Y81.8932 
G01 X-43.2271 Y82.1111 
G01 X-43.3450 Y82.3958 
G01 X-43.3450 Y82.7041 
G01 X-43.2271 Y82.9888 
G01 X-43.0092 Y83.2067 
G01 X-42.7245 Y83.3246 
G00 Z2.5400  
G00 X-42.7245 Y80.7846 
G01 Z-0.1778 F254   
G01 X-41.0954 Y80.7846 F508   
G01 X-40.8107 Y80.6667 
G01 X-40.5928 Y80.4488 
G01 X-40.4749 Y80.1641 
G01 X-40.4749 Y79.8558 
G01 X-40.5928 Y79.5711 
G01 X-40.8107 Y79.3532 
G01 X-41.0954 Y79.2353 
G01 X-42.7245 Y79.2353 
G01 X-43.0092 Y79.3532 
G01 X-43.2271 Y79.5711 
G01 X-43.3450 Y79.8558 
G01 X-43.3450 Y80.1641 
G01 X-43.2271 Y80.4488 
G01 X-43.0092 Y80.6667 
G01 X-42.7245 Y80.7846 
G00 Z2.5400  
G00 X-42.7245 Y78.2446 
G01 Z-0.1778 F254   
G01 X-41.0954 Y78.2446 F508   
G01 X-40.8107 Y78.1267 
G01 X-40.5928 Y77.9088 
G01 X-40.4749 Y77.6241 
G01 X-40.4749 Y77.3158 
G01 X-40.5928 Y77.0311 
G01 X-40.8107 Y76.8132 
G01 X-41.0954 Y76.6953 
G01 X-42.7245 Y76.6953 
G01 X-43.0092 Y76.8132 
G01 X-43.2271 Y77.0311 
G01 X-43.3450 Y77.3158 
G01 X-43.3450 Y77.6241 
G01 X-43.2271 Y77.9088 
G01 X-43.0092 Y78.1267 
G01 X-42.7245 Y78.2446 
G00 Z2.5400  
G00 X-42.7245 Y75.7046 
G01 Z-0.1778 F254   
G01 X-41.0954 Y75.7046 F508   
G01 X-40.8107 Y75.5867 
G01 X-40.5928 Y75.3688 
G01 X-40.5846 Y75.3490 
G01 X-34.1163 Y75.3490 
G01 X-33.8709 Y75.1036 
G01 X-29.0363 Y70.2690 
G01 X-27.9953 Y70.2690 
G01 X-27.9871 Y70.2888 
G01 X-27.7692 Y70.5067 
G01 X-27.4845 Y70.6246 
G01 X-25.8554 Y70.6246 
G01 X-25.5707 Y70.5067 
G01 X-25.3528 Y70.2888 
G01 X-25.3446 Y70.2690 
G01 X-24.3036 Y70.2690 
G01 X-23.0336 Y71.5390 
G01 X-22.6863 Y71.5390 
G01 X-22.2663 Y71.5390 
G01 X-21.9108 Y71.8946 
G01 X-21.4080 Y71.8946 
G01 X-20.4936 Y72.8090 
G01 X-20.1463 Y72.8090 
G01 X-17.8353 Y72.8090 
G01 X-17.8271 Y72.8288 
G01 X-17.6092 Y73.0467 
G01 X-17.3245 Y73.1646 
G01 X-15.6954 Y73.1646 
G01 X-15.4107 Y73.0467 
G01 X-15.1928 Y72.8288 
G01 X-15.0749 Y72.5441 
G01 X-15.0749 Y72.2358 
G01 X-15.1928 Y71.9511 
G01 X-15.4107 Y71.7332 
G01 X-15.6954 Y71.6153 
G01 X-17.3245 Y71.6153 
G01 X-17.6092 Y71.7332 
G01 X-17.8271 Y71.9511 
G01 X-17.8353 Y71.9709 
G01 X-20.1463 Y71.9709 
G01 X-20.8153 Y71.3019 
G01 X-20.8153 Y70.7991 
G01 X-21.2691 Y70.3453 
G01 X-21.9108 Y70.3453 
G01 X-22.2663 Y70.7009 
G01 X-22.6863 Y70.7009 
G01 X-23.7109 Y69.6763 
G01 X-23.9563 Y69.4309 
G01 X-25.3446 Y69.4309 
G01 X-25.3528 Y69.4111 
G01 X-25.5707 Y69.1932 
G01 X-25.8554 Y69.0753 
G01 X-27.4845 Y69.0753 
G01 X-27.7692 Y69.1932 
G01 X-27.9871 Y69.4111 
G01 X-27.9953 Y69.4309 
G01 X-29.0363 Y69.4309 
G01 X-29.3836 Y69.4309 
G01 X-34.4636 Y74.5109 
G01 X-40.5846 Y74.5109 
G01 X-40.5928 Y74.4911 
G01 X-40.8107 Y74.2732 
G01 X-41.0954 Y74.1553 
G01 X-42.7245 Y74.1553 
G01 X-43.0092 Y74.2732 
G01 X-43.2271 Y74.4911 
G01 X-43.2353 Y74.5109 
G01 X-44.2763 Y74.5109 
G01 X-46.3725 Y72.4147 
G01 X-46.3725 Y72.2671 
G01 X-46.4665 Y72.0402 
G01 X-46.6402 Y71.8665 
G01 X-46.8671 Y71.7725 
G01 X-47.1128 Y71.7725 
G01 X-47.3397 Y71.8665 
G01 X-47.5134 Y72.0402 
G01 X-47.6074 Y72.2671 
G01 X-47.6074 Y72.4148 
G01 X-54.5851 Y79.3925 
G01 X-54.7328 Y79.3925 
G01 X-54.9597 Y79.4865 
G01 X-55.1334 Y79.6602 
G01 X-55.2274 Y79.8871 
G01 X-55.2274 Y80.0348 
G01 X-56.0535 Y80.8609 
G01 X-56.2990 Y81.1063 
G01 X-56.2990 Y83.9936 
G01 X-56.0536 Y84.2390 
G01 X-55.6216 Y84.6709 
G01 X-57.3236 Y84.6709 
G01 X-57.5690 Y84.9163 
G01 X-58.5936 Y85.9409 
G01 X-58.9153 Y85.9409 
G01 X-58.9153 Y85.5454 
G01 X-59.0332 Y85.2607 
G01 X-59.2511 Y85.0428 
G01 X-59.5358 Y84.9249 
G01 X-59.8441 Y84.9249 
G01 X-60.1288 Y85.0428 
G01 X-60.3467 Y85.2607 
G01 X-60.4646 Y85.5454 
G01 X-60.4646 Y86.5419 
G01 X-61.1336 Y87.2109 
G01 X-64.0935 Y87.2109 
G01 X-64.4491 Y86.8553 
G01 X-65.0908 Y86.8553 
G01 X-65.5446 Y87.3091 
G01 X-65.5446 Y87.9508 
G01 X-65.0908 Y88.4046 
G01 X-64.4491 Y88.4046 
G01 X-64.0935 Y88.0490 
G01 X-61.1336 Y88.0490 
G01 X-60.7863 Y88.0490 
G01 X-60.2716 Y87.5342 
G01 X-60.1288 Y87.6771 
G01 X-59.8441 Y87.7950 
G01 X-59.5358 Y87.7950 
G01 X-59.2511 Y87.6771 
G01 X-59.0332 Y87.4592 
G01 X-58.9153 Y87.1745 
G01 X-58.9153 Y86.7790 
G01 X-58.5936 Y86.7790 
G01 X-58.2463 Y86.7790 
G01 X-56.9763 Y85.5090 
G01 X-54.7836 Y85.5090 
G01 X-54.4363 Y85.5090 
G01 X-53.5901 Y85.5090 
G01 X-53.5600 Y85.5818 
G01 X-53.3158 Y85.8260 
G01 X-52.9967 Y85.9582 
G01 X-51.1432 Y85.9582 
G01 X-50.8241 Y85.8260 
G01 X-50.5799 Y85.5818 
G01 X-50.4477 Y85.2627 
G01 X-50.4477 Y84.9172 
G01 X-50.5799 Y84.5981 
G01 X-50.8241 Y84.3539 
G01 X-51.1432 Y84.2217 
G01 X-52.9967 Y84.2217 
G01 X-53.3158 Y84.3539 
G01 X-53.5600 Y84.5981 
G01 X-53.5901 Y84.6709 
G01 X-54.4363 Y84.6709 
G01 X-55.4609 Y83.6463 
G01 X-55.4609 Y81.4535 
G01 X-54.6348 Y80.6274 
G01 X-54.4871 Y80.6274 
G01 X-54.2602 Y80.5334 
G01 X-54.0865 Y80.3597 
G01 X-53.9925 Y80.1328 
G01 X-53.9925 Y79.9851 
G01 X-47.0148 Y73.0074 
G01 X-46.9652 Y73.0074 
G01 X-44.6236 Y75.3490 
G01 X-44.2763 Y75.3490 
G01 X-43.2353 Y75.3490 
G01 X-43.2271 Y75.3688 
G01 X-43.0092 Y75.5867 
G01 X-42.7245 Y75.7046 
G00 Z2.5400  
G00 X-42.7245 Y70.6246 
G01 Z-0.1778 F254   
G01 X-41.0954 Y70.6246 F508   
G01 X-40.8107 Y70.5067 
G01 X-40.5928 Y70.2888 
G01 X-40.4749 Y70.0041 
G01 X-40.4749 Y69.6958 
G01 X-40.5928 Y69.4111 
G01 X-40.8107 Y69.1932 
G01 X-41.0954 Y69.0753 
G01 X-42.7245 Y69.0753 
G01 X-43.0092 Y69.1932 
G01 X-43.2271 Y69.4111 
G01 X-43.3450 Y69.6958 
G01 X-43.3450 Y70.0041 
G01 X-43.2271 Y70.2888 
G01 X-43.0092 Y70.5067 
G01 X-42.7245 Y70.6246 
G00 Z2.5400  
G00 X-42.7245 Y68.0846 
G01 Z-0.1778 F254   
G01 X-41.0954 Y68.0846 F508   
G01 X-40.8107 Y67.9667 
G01 X-40.5928 Y67.7488 
G01 X-40.4749 Y67.4641 
G01 X-40.4749 Y67.1558 
G01 X-40.5928 Y66.8711 
G01 X-40.8107 Y66.6532 
G01 X-41.0954 Y66.5353 
G01 X-42.7245 Y66.5353 
G01 X-43.0092 Y66.6532 
G01 X-43.2271 Y66.8711 
G01 X-43.3450 Y67.1558 
G01 X-43.3450 Y67.4641 
G01 X-43.2271 Y67.7488 
G01 X-43.0092 Y67.9667 
G01 X-42.7245 Y68.0846 
G00 Z2.5400  
G00 X-42.7245 Y65.5446 
G01 Z-0.1778 F254   
G01 X-41.0954 Y65.5446 F508   
G01 X-40.8107 Y65.4267 
G01 X-40.5928 Y65.2088 
G01 X-40.4749 Y64.9241 
G01 X-40.4749 Y64.6158 
G01 X-40.5928 Y64.3311 
G01 X-40.8107 Y64.1132 
G01 X-41.0954 Y63.9953 
G01 X-42.7245 Y63.9953 
G01 X-43.0092 Y64.1132 
G01 X-43.2271 Y64.3311 
G01 X-43.3450 Y64.6158 
G01 X-43.3450 Y64.9241 
G01 X-43.2271 Y65.2088 
G01 X-43.0092 Y65.4267 
G01 X-42.7245 Y65.5446 
G00 Z2.5400  
G00 X-42.7245 Y63.0046 
G01 Z-0.1778 F254   
G01 X-41.0954 Y63.0046 F508   
G01 X-40.8107 Y62.8867 
G01 X-40.5928 Y62.6688 
G01 X-40.4749 Y62.3841 
G01 X-40.4749 Y62.0758 
G01 X-40.5928 Y61.7911 
G01 X-40.8107 Y61.5732 
G01 X-41.0954 Y61.4553 
G01 X-42.7245 Y61.4553 
G01 X-43.0092 Y61.5732 
G01 X-43.2271 Y61.7911 
G01 X-43.3450 Y62.0758 
G01 X-43.3450 Y62.3841 
G01 X-43.2271 Y62.6688 
G01 X-43.0092 Y62.8867 
G01 X-42.7245 Y63.0046 
G00 Z2.5400  
G00 X-42.7245 Y60.4646 
G01 Z-0.1778 F254   
G01 X-41.0954 Y60.4646 F508   
G01 X-40.8107 Y60.3467 
G01 X-40.5928 Y60.1288 
G01 X-40.4749 Y59.8441 
G01 X-40.4749 Y59.5358 
G01 X-40.5928 Y59.2511 
G01 X-40.8107 Y59.0332 
G01 X-41.0954 Y58.9153 
G01 X-42.7245 Y58.9153 
G01 X-43.0092 Y59.0332 
G01 X-43.2271 Y59.2511 
G01 X-43.3450 Y59.5358 
G01 X-43.3450 Y59.8441 
G01 X-43.2271 Y60.1288 
G01 X-43.0092 Y60.3467 
G01 X-42.7245 Y60.4646 
G00 Z2.5400  
G00 X-42.7245 Y57.9246 
G01 Z-0.1778 F254   
G01 X-41.0954 Y57.9246 F508   
G01 X-40.8107 Y57.8067 
G01 X-40.5928 Y57.5888 
G01 X-40.4749 Y57.3041 
G01 X-40.4749 Y56.9958 
G01 X-40.5928 Y56.7111 
G01 X-40.8107 Y56.4932 
G01 X-41.0954 Y56.3753 
G01 X-42.7245 Y56.3753 
G01 X-43.0092 Y56.4932 
G01 X-43.2271 Y56.7111 
G01 X-43.3450 Y56.9958 
G01 X-43.3450 Y57.3041 
G01 X-43.2271 Y57.5888 
G01 X-43.0092 Y57.8067 
G01 X-42.7245 Y57.9246 
G00 Z2.5400  
G00 X-42.7245 Y55.3846 
G01 Z-0.1778 F254   
G01 X-41.0954 Y55.3846 F508   
G01 X-40.8107 Y55.2667 
G01 X-40.5928 Y55.0488 
G01 X-40.4749 Y54.7641 
G01 X-40.4749 Y54.4558 
G01 X-40.5928 Y54.1711 
G01 X-40.8107 Y53.9532 
G01 X-41.0954 Y53.8353 
G01 X-42.7245 Y53.8353 
G01 X-43.0092 Y53.9532 
G01 X-43.2271 Y54.1711 
G01 X-43.3450 Y54.4558 
G01 X-43.3450 Y54.7641 
G01 X-43.2271 Y55.0488 
G01 X-43.0092 Y55.2667 
G01 X-42.7245 Y55.3846 
G00 Z2.5400  
G00 X-42.7245 Y52.8446 
G01 Z-0.1778 F254   
G01 X-41.0954 Y52.8446 F508   
G01 X-40.8107 Y52.7267 
G01 X-40.5928 Y52.5088 
G01 X-40.4749 Y52.2241 
G01 X-40.4749 Y51.9158 
G01 X-40.5928 Y51.6311 
G01 X-40.8107 Y51.4132 
G01 X-41.0954 Y51.2953 
G01 X-42.7245 Y51.2953 
G01 X-43.0092 Y51.4132 
G01 X-43.2271 Y51.6311 
G01 X-43.3450 Y51.9158 
G01 X-43.3450 Y52.2241 
G01 X-43.2271 Y52.5088 
G01 X-43.0092 Y52.7267 
G01 X-42.7245 Y52.8446 
G00 Z2.5400  
G00 X-42.7245 Y50.3046 
G01 Z-0.1778 F254   
G01 X-41.0954 Y50.3046 F508   
G01 X-40.8107 Y50.1867 
G01 X-40.5928 Y49.9688 
G01 X-40.4749 Y49.6841 
G01 X-40.4749 Y49.3758 
G01 X-40.5928 Y49.0911 
G01 X-40.8107 Y48.8732 
G01 X-41.0954 Y48.7553 
G01 X-42.7245 Y48.7553 
G01 X-43.0092 Y48.8732 
G01 X-43.2271 Y49.0911 
G01 X-43.3450 Y49.3758 
G01 X-43.3450 Y49.6841 
G01 X-43.2271 Y49.9688 
G01 X-43.0092 Y50.1867 
G01 X-42.7245 Y50.3046 
G00 Z2.5400  
G00 X-42.7245 Y47.7646 
G01 Z-0.1778 F254   
G01 X-41.0954 Y47.7646 F508   
G01 X-40.8107 Y47.6467 
G01 X-40.5928 Y47.4288 
G01 X-40.4749 Y47.1441 
G01 X-40.4749 Y46.8358 
G01 X-40.5928 Y46.5511 
G01 X-40.8107 Y46.3332 
G01 X-41.0954 Y46.2153 
G01 X-42.7245 Y46.2153 
G01 X-43.0092 Y46.3332 
G01 X-43.2271 Y46.5511 
G01 X-43.3450 Y46.8358 
G01 X-43.3450 Y47.1441 
G01 X-43.2271 Y47.4288 
G01 X-43.0092 Y47.6467 
G01 X-42.7245 Y47.7646 
G00 Z2.5400  
G00 X-27.4845 Y47.7646 
G01 Z-0.1778 F254   
G01 X-25.8554 Y47.7646 F508   
G01 X-25.5707 Y47.6467 
G01 X-25.3528 Y47.4288 
G01 X-25.2349 Y47.1441 
G01 X-25.2349 Y46.8358 
G01 X-25.3528 Y46.5511 
G01 X-25.5707 Y46.3332 
G01 X-25.8554 Y46.2153 
G01 X-27.4845 Y46.2153 
G01 X-27.7692 Y46.3332 
G01 X-27.9871 Y46.5511 
G01 X-28.1050 Y46.8358 
G01 X-28.1050 Y47.1441 
G01 X-27.9871 Y47.4288 
G01 X-27.7692 Y47.6467 
G01 X-27.4845 Y47.7646 
G00 Z2.5400  
G00 X-27.4845 Y50.3046 
G01 Z-0.1778 F254   
G01 X-25.8554 Y50.3046 F508   
G01 X-25.5707 Y50.1867 
G01 X-25.3528 Y49.9688 
G01 X-25.2349 Y49.6841 
G01 X-25.2349 Y49.3758 
G01 X-25.3528 Y49.0911 
G01 X-25.5707 Y48.8732 
G01 X-25.8554 Y48.7553 
G01 X-27.4845 Y48.7553 
G01 X-27.7692 Y48.8732 
G01 X-27.9871 Y49.0911 
G01 X-28.1050 Y49.3758 
G01 X-28.1050 Y49.6841 
G01 X-27.9871 Y49.9688 
G01 X-27.7692 Y50.1867 
G01 X-27.4845 Y50.3046 
G00 Z2.5400  
G00 X-27.4845 Y52.8446 
G01 Z-0.1778 F254   
G01 X-25.8554 Y52.8446 F508   
G01 X-25.5707 Y52.7267 
G01 X-25.3528 Y52.5088 
G01 X-25.2349 Y52.2241 
G01 X-25.2349 Y51.9158 
G01 X-25.3528 Y51.6311 
G01 X-25.5707 Y51.4132 
G01 X-25.8554 Y51.2953 
G01 X-27.4845 Y51.2953 
G01 X-27.7692 Y51.4132 
G01 X-27.9871 Y51.6311 
G01 X-28.1050 Y51.9158 
G01 X-28.1050 Y52.2241 
G01 X-27.9871 Y52.5088 
G01 X-27.7692 Y52.7267 
G01 X-27.4845 Y52.8446 
G00 Z2.5400  
G00 X-27.4845 Y55.3846 
G01 Z-0.1778 F254   
G01 X-25.8554 Y55.3846 F508   
G01 X-25.5707 Y55.2667 
G01 X-25.3528 Y55.0488 
G01 X-25.2349 Y54.7641 
G01 X-25.2349 Y54.4558 
G01 X-25.3528 Y54.1711 
G01 X-25.5707 Y53.9532 
G01 X-25.8554 Y53.8353 
G01 X-27.4845 Y53.8353 
G01 X-27.7692 Y53.9532 
G01 X-27.9871 Y54.1711 
G01 X-28.1050 Y54.4558 
G01 X-28.1050 Y54.7641 
G01 X-27.9871 Y55.0488 
G01 X-27.7692 Y55.2667 
G01 X-27.4845 Y55.3846 
G00 Z2.5400  
G00 X-27.4845 Y57.9246 
G01 Z-0.1778 F254   
G01 X-25.8554 Y57.9246 F508   
G01 X-25.5707 Y57.8067 
G01 X-25.3528 Y57.5888 
G01 X-25.2349 Y57.3041 
G01 X-25.2349 Y56.9958 
G01 X-25.3528 Y56.7111 
G01 X-25.5707 Y56.4932 
G01 X-25.8554 Y56.3753 
G01 X-27.4845 Y56.3753 
G01 X-27.7692 Y56.4932 
G01 X-27.9871 Y56.7111 
G01 X-28.1050 Y56.9958 
G01 X-28.1050 Y57.3041 
G01 X-27.9871 Y57.5888 
G01 X-27.7692 Y57.8067 
G01 X-27.4845 Y57.9246 
G00 Z2.5400  
G00 X-27.4845 Y60.4646 
G01 Z-0.1778 F254   
G01 X-25.8554 Y60.4646 F508   
G01 X-25.5707 Y60.3467 
G01 X-25.3528 Y60.1288 
G01 X-25.2349 Y59.8441 
G01 X-25.2349 Y59.5358 
G01 X-25.3528 Y59.2511 
G01 X-25.5707 Y59.0332 
G01 X-25.8554 Y58.9153 
G01 X-27.4845 Y58.9153 
G01 X-27.7692 Y59.0332 
G01 X-27.9871 Y59.2511 
G01 X-28.1050 Y59.5358 
G01 X-28.1050 Y59.8441 
G01 X-27.9871 Y60.1288 
G01 X-27.7692 Y60.3467 
G01 X-27.4845 Y60.4646 
G00 Z2.5400  
G00 X-27.4845 Y63.0046 
G01 Z-0.1778 F254   
G01 X-25.8554 Y63.0046 F508   
G01 X-25.5707 Y62.8867 
G01 X-25.3528 Y62.6688 
G01 X-25.2349 Y62.3841 
G01 X-25.2349 Y62.0758 
G01 X-25.3528 Y61.7911 
G01 X-25.5707 Y61.5732 
G01 X-25.8554 Y61.4553 
G01 X-27.4845 Y61.4553 
G01 X-27.7692 Y61.5732 
G01 X-27.9871 Y61.7911 
G01 X-28.1050 Y62.0758 
G01 X-28.1050 Y62.3841 
G01 X-27.9871 Y62.6688 
G01 X-27.7692 Y62.8867 
G01 X-27.4845 Y63.0046 
G00 Z2.5400  
G00 X-27.4845 Y65.5446 
G01 Z-0.1778 F254   
G01 X-25.8554 Y65.5446 F508   
G01 X-25.5707 Y65.4267 
G01 X-25.3528 Y65.2088 
G01 X-25.2349 Y64.9241 
G01 X-25.2349 Y64.6158 
G01 X-25.3528 Y64.3311 
G01 X-25.5707 Y64.1132 
G01 X-25.8554 Y63.9953 
G01 X-27.4845 Y63.9953 
G01 X-27.7692 Y64.1132 
G01 X-27.9871 Y64.3311 
G01 X-28.1050 Y64.6158 
G01 X-28.1050 Y64.9241 
G01 X-27.9871 Y65.2088 
G01 X-27.7692 Y65.4267 
G01 X-27.4845 Y65.5446 
G00 Z2.5400  
G00 X-27.4845 Y73.1646 
G01 Z-0.1778 F254   
G01 X-25.8554 Y73.1646 F508   
G01 X-25.5707 Y73.0467 
G01 X-25.3528 Y72.8288 
G01 X-25.2349 Y72.5441 
G01 X-25.2349 Y72.2358 
G01 X-25.3528 Y71.9511 
G01 X-25.5707 Y71.7332 
G01 X-25.8554 Y71.6153 
G01 X-27.4845 Y71.6153 
G01 X-27.7692 Y71.7332 
G01 X-27.9871 Y71.9511 
G01 X-28.1050 Y72.2358 
G01 X-28.1050 Y72.5441 
G01 X-27.9871 Y72.8288 
G01 X-27.7692 Y73.0467 
G01 X-27.4845 Y73.1646 
G00 Z2.5400  
G00 X-27.4845 Y75.7046 
G01 Z-0.1778 F254   
G01 X-25.8554 Y75.7046 F508   
G01 X-25.5707 Y75.5867 
G01 X-25.3528 Y75.3688 
G01 X-25.2349 Y75.0841 
G01 X-25.2349 Y74.7758 
G01 X-25.3528 Y74.4911 
G01 X-25.5707 Y74.2732 
G01 X-25.8554 Y74.1553 
G01 X-27.4845 Y74.1553 
G01 X-27.7692 Y74.2732 
G01 X-27.9871 Y74.4911 
G01 X-28.1050 Y74.7758 
G01 X-28.1050 Y75.0841 
G01 X-27.9871 Y75.3688 
G01 X-27.7692 Y75.5867 
G01 X-27.4845 Y75.7046 
G00 Z2.5400  
G00 X-27.4845 Y78.2446 
G01 Z-0.1778 F254   
G01 X-25.8554 Y78.2446 F508   
G01 X-25.5707 Y78.1267 
G01 X-25.3528 Y77.9088 
G01 X-25.2349 Y77.6241 
G01 X-25.2349 Y77.3158 
G01 X-25.3528 Y77.0311 
G01 X-25.5707 Y76.8132 
G01 X-25.8554 Y76.6953 
G01 X-27.4845 Y76.6953 
G01 X-27.7692 Y76.8132 
G01 X-27.9871 Y77.0311 
G01 X-28.1050 Y77.3158 
G01 X-28.1050 Y77.6241 
G01 X-27.9871 Y77.9088 
G01 X-27.7692 Y78.1267 
G01 X-27.4845 Y78.2446 
G00 Z2.5400  
G00 X-27.4845 Y80.7846 
G01 Z-0.1778 F254   
G01 X-25.8554 Y80.7846 F508   
G01 X-25.5707 Y80.6667 
G01 X-25.3528 Y80.4488 
G01 X-25.2349 Y80.1641 
G01 X-25.2349 Y79.8558 
G01 X-25.3528 Y79.5711 
G01 X-25.5707 Y79.3532 
G01 X-25.8554 Y79.2353 
G01 X-27.4845 Y79.2353 
G01 X-27.7692 Y79.3532 
G01 X-27.9871 Y79.5711 
G01 X-28.1050 Y79.8558 
G01 X-28.1050 Y80.1641 
G01 X-27.9871 Y80.4488 
G01 X-27.7692 Y80.6667 
G01 X-27.4845 Y80.7846 
G00 Z2.5400  
G00 X-27.4845 Y83.3246 
G01 Z-0.1778 F254   
G01 X-25.8554 Y83.3246 F508   
G01 X-25.5707 Y83.2067 
G01 X-25.3528 Y82.9888 
G01 X-25.2349 Y82.7041 
G01 X-25.2349 Y82.3958 
G01 X-25.3528 Y82.1111 
G01 X-25.5707 Y81.8932 
G01 X-25.8554 Y81.7753 
G01 X-27.4845 Y81.7753 
G01 X-27.7692 Y81.8932 
G01 X-27.9871 Y82.1111 
G01 X-28.1050 Y82.3958 
G01 X-28.1050 Y82.7041 
G01 X-27.9871 Y82.9888 
G01 X-27.7692 Y83.2067 
G01 X-27.4845 Y83.3246 
G00 Z2.5400  
G00 X-27.4845 Y85.8646 
G01 Z-0.1778 F254   
G01 X-25.8554 Y85.8646 F508   
G01 X-25.5707 Y85.7467 
G01 X-25.3528 Y85.5288 
G01 X-25.2349 Y85.2441 
G01 X-25.2349 Y84.9358 
G01 X-25.3528 Y84.6511 
G01 X-25.5707 Y84.4332 
G01 X-25.8554 Y84.3153 
G01 X-27.4845 Y84.3153 
G01 X-27.7692 Y84.4332 
G01 X-27.9871 Y84.6511 
G01 X-28.1050 Y84.9358 
G01 X-28.1050 Y85.2441 
G01 X-27.9871 Y85.5288 
G01 X-27.7692 Y85.7467 
G01 X-27.4845 Y85.8646 
G00 Z2.5400  
G00 X-27.4845 Y88.4046 
G01 Z-0.1778 F254   
G01 X-25.8554 Y88.4046 F508   
G01 X-25.5707 Y88.2867 
G01 X-25.3528 Y88.0688 
G01 X-25.2349 Y87.7841 
G01 X-25.2349 Y87.4758 
G01 X-25.3528 Y87.1911 
G01 X-25.5707 Y86.9732 
G01 X-25.8554 Y86.8553 
G01 X-27.4845 Y86.8553 
G01 X-27.7692 Y86.9732 
G01 X-27.9871 Y87.1911 
G01 X-28.1050 Y87.4758 
G01 X-28.1050 Y87.7841 
G01 X-27.9871 Y88.0688 
G01 X-27.7692 Y88.2867 
G01 X-27.4845 Y88.4046 
G00 Z2.5400  
G00 X-27.4845 Y90.9446 
G01 Z-0.1778 F254   
G01 X-25.8554 Y90.9446 F508   
G01 X-25.5707 Y90.8267 
G01 X-25.3528 Y90.6088 
G01 X-25.2349 Y90.3241 
G01 X-25.2349 Y90.0158 
G01 X-25.3528 Y89.7311 
G01 X-25.5707 Y89.5132 
G01 X-25.8554 Y89.3953 
G01 X-27.4845 Y89.3953 
G01 X-27.7692 Y89.5132 
G01 X-27.9871 Y89.7311 
G01 X-28.1050 Y90.0158 
G01 X-28.1050 Y90.3241 
G01 X-27.9871 Y90.6088 
G01 X-27.7692 Y90.8267 
G01 X-27.4845 Y90.9446 
G00 Z2.5400  
G00 X-27.4845 Y93.4846 
G01 Z-0.1778 F254   
G01 X-25.8554 Y93.4846 F508   
G01 X-25.5707 Y93.3667 
G01 X-25.3528 Y93.1488 
G01 X-25.2349 Y92.8641 
G01 X-25.2349 Y92.5558 
G01 X-25.3528 Y92.2711 
G01 X-25.5707 Y92.0532 
G01 X-25.8554 Y91.9353 
G01 X-27.4845 Y91.9353 
G01 X-27.7692 Y92.0532 
G01 X-27.9871 Y92.2711 
G01 X-28.1050 Y92.5558 
G01 X-28.1050 Y92.8641 
G01 X-27.9871 Y93.1488 
G01 X-27.7692 Y93.3667 
G01 X-27.4845 Y93.4846 
G00 Z2.5400  
G00 X-17.3245 Y49.0346 
G01 Z-0.1778 F254   
G01 X-15.6954 Y49.0346 F508   
G01 X-15.4107 Y48.9167 
G01 X-15.1928 Y48.6988 
G01 X-15.0749 Y48.4141 
G01 X-15.0749 Y48.1058 
G01 X-15.1928 Y47.8211 
G01 X-15.4107 Y47.6032 
G01 X-15.6954 Y47.4853 
G01 X-17.3245 Y47.4853 
G01 X-17.6092 Y47.6032 
G01 X-17.8271 Y47.8211 
G01 X-17.9450 Y48.1058 
G01 X-17.9450 Y48.4141 
G01 X-17.8271 Y48.6988 
G01 X-17.6092 Y48.9167 
G01 X-17.3245 Y49.0346 
G00 Z2.5400  
G00 X-17.3245 Y46.4946 
G01 Z-0.1778 F254   
G01 X-15.6954 Y46.4946 F508   
G01 X-15.4107 Y46.3767 
G01 X-15.1928 Y46.1588 
G01 X-15.0749 Y45.8741 
G01 X-15.0749 Y45.5658 
G01 X-15.1928 Y45.2811 
G01 X-15.4107 Y45.0632 
G01 X-15.6954 Y44.9453 
G01 X-17.3245 Y44.9453 
G01 X-17.6092 Y45.0632 
G01 X-17.8271 Y45.2811 
G01 X-17.9450 Y45.5658 
G01 X-17.9450 Y45.8741 
G01 X-17.8271 Y46.1588 
G01 X-17.6092 Y46.3767 
G01 X-17.3245 Y46.4946 
G00 Z2.5400  
G00 X-17.3245 Y43.9546 
G01 Z-0.1778 F254   
G01 X-15.6954 Y43.9546 F508   
G01 X-15.4107 Y43.8367 
G01 X-15.1928 Y43.6188 
G01 X-15.0749 Y43.3341 
G01 X-15.0749 Y43.0258 
G01 X-15.1928 Y42.7411 
G01 X-15.4107 Y42.5232 
G01 X-15.6954 Y42.4053 
G01 X-17.3245 Y42.4053 
G01 X-17.6092 Y42.5232 
G01 X-17.8271 Y42.7411 
G01 X-17.9450 Y43.0258 
G01 X-17.9450 Y43.3341 
G01 X-17.8271 Y43.6188 
G01 X-17.6092 Y43.8367 
G01 X-17.3245 Y43.9546 
G00 Z2.5400  
G00 X-17.3245 Y41.4146 
G01 Z-0.1778 F254   
G01 X-15.6954 Y41.4146 F508   
G01 X-15.4107 Y41.2967 
G01 X-15.1928 Y41.0788 
G01 X-15.0749 Y40.7941 
G01 X-15.0749 Y40.4858 
G01 X-15.1928 Y40.2011 
G01 X-15.4107 Y39.9832 
G01 X-15.6954 Y39.8653 
G01 X-17.3245 Y39.8653 
G01 X-17.6092 Y39.9832 
G01 X-17.8271 Y40.2011 
G01 X-17.9450 Y40.4858 
G01 X-17.9450 Y40.7941 
G01 X-17.8271 Y41.0788 
G01 X-17.6092 Y41.2967 
G01 X-17.3245 Y41.4146 
G00 Z2.5400  
G00 X-17.3245 Y38.8746 
G01 Z-0.1778 F254   
G01 X-15.6954 Y38.8746 F508   
G01 X-15.4107 Y38.7567 
G01 X-15.1928 Y38.5388 
G01 X-15.0749 Y38.2541 
G01 X-15.0749 Y37.9458 
G01 X-15.1928 Y37.6611 
G01 X-15.4107 Y37.4432 
G01 X-15.6954 Y37.3253 
G01 X-17.3245 Y37.3253 
G01 X-17.6092 Y37.4432 
G01 X-17.8271 Y37.6611 
G01 X-17.9450 Y37.9458 
G01 X-17.9450 Y38.2541 
G01 X-17.8271 Y38.5388 
G01 X-17.6092 Y38.7567 
G01 X-17.3245 Y38.8746 
G00 Z2.5400  
G00 X-17.3245 Y36.3346 
G01 Z-0.1778 F254   
G01 X-15.6954 Y36.3346 F508   
G01 X-15.4107 Y36.2167 
G01 X-15.1928 Y35.9988 
G01 X-15.0749 Y35.7141 
G01 X-15.0749 Y35.4058 
G01 X-15.1928 Y35.1211 
G01 X-15.4107 Y34.9032 
G01 X-15.6954 Y34.7853 
G01 X-17.3245 Y34.7853 
G01 X-17.6092 Y34.9032 
G01 X-17.8271 Y35.1211 
G01 X-17.9450 Y35.4058 
G01 X-17.9450 Y35.7141 
G01 X-17.8271 Y35.9988 
G01 X-17.6092 Y36.2167 
G01 X-17.3245 Y36.3346 
G00 Z2.5400  
G00 X-17.3245 Y28.7146 
G01 Z-0.1778 F254   
G01 X-15.6954 Y28.7146 F508   
G01 X-15.4107 Y28.5967 
G01 X-15.1928 Y28.3788 
G01 X-15.0749 Y28.0941 
G01 X-15.0749 Y27.7858 
G01 X-15.1928 Y27.5011 
G01 X-15.4107 Y27.2832 
G01 X-15.6954 Y27.1653 
G01 X-17.3245 Y27.1653 
G01 X-17.6092 Y27.2832 
G01 X-17.8271 Y27.5011 
G01 X-17.9450 Y27.7858 
G01 X-17.9450 Y28.0941 
G01 X-17.8271 Y28.3788 
G01 X-17.6092 Y28.5967 
G01 X-17.3245 Y28.7146 
G00 Z2.5400  
G00 X-17.3245 Y26.1746 
G01 Z-0.1778 F254   
G01 X-15.6954 Y26.1746 F508   
G01 X-15.4107 Y26.0567 
G01 X-15.1928 Y25.8388 
G01 X-15.0749 Y25.5541 
G01 X-15.0749 Y25.2458 
G01 X-15.1928 Y24.9611 
G01 X-15.4107 Y24.7432 
G01 X-15.6954 Y24.6253 
G01 X-17.3245 Y24.6253 
G01 X-17.6092 Y24.7432 
G01 X-17.8271 Y24.9611 
G01 X-17.9450 Y25.2458 
G01 X-17.9450 Y25.5541 
G01 X-17.8271 Y25.8388 
G01 X-17.6092 Y26.0567 
G01 X-17.3245 Y26.1746 
G00 Z2.5400  
G00 X-17.3245 Y23.6346 
G01 Z-0.1778 F254   
G01 X-15.6954 Y23.6346 F508   
G01 X-15.4107 Y23.5167 
G01 X-15.1928 Y23.2988 
G01 X-15.0749 Y23.0141 
G01 X-15.0749 Y22.7058 
G01 X-15.1928 Y22.4211 
G01 X-15.4107 Y22.2032 
G01 X-15.6954 Y22.0853 
G01 X-17.3245 Y22.0853 
G01 X-17.6092 Y22.2032 
G01 X-17.8271 Y22.4211 
G01 X-17.9450 Y22.7058 
G01 X-17.9450 Y23.0141 
G01 X-17.8271 Y23.2988 
G01 X-17.6092 Y23.5167 
G01 X-17.3245 Y23.6346 
G00 Z2.5400  
G00 X-17.3245 Y21.0946 
G01 Z-0.1778 F254   
G01 X-15.6954 Y21.0946 F508   
G01 X-15.4107 Y20.9767 
G01 X-15.1928 Y20.7588 
G01 X-15.0749 Y20.4741 
G01 X-15.0749 Y20.1658 
G01 X-15.1928 Y19.8811 
G01 X-15.4107 Y19.6632 
G01 X-15.6954 Y19.5453 
G01 X-17.3245 Y19.5453 
G01 X-17.6092 Y19.6632 
G01 X-17.8271 Y19.8811 
G01 X-17.9450 Y20.1658 
G01 X-17.9450 Y20.4741 
G01 X-17.8271 Y20.7588 
G01 X-17.6092 Y20.9767 
G01 X-17.3245 Y21.0946 
G00 Z2.5400  
G00 X-9.7045 Y21.0946 
G01 Z-0.1778 F254   
G01 X-8.0754 Y21.0946 F508   
G01 X-7.7907 Y20.9767 
G01 X-7.5728 Y20.7588 
G01 X-7.4549 Y20.4741 
G01 X-7.4549 Y20.1658 
G01 X-7.5728 Y19.8811 
G01 X-7.7907 Y19.6632 
G01 X-8.0754 Y19.5453 
G01 X-9.7045 Y19.5453 
G01 X-9.9892 Y19.6632 
G01 X-10.2071 Y19.8811 
G01 X-10.3250 Y20.1658 
G01 X-10.3250 Y20.4741 
G01 X-10.2071 Y20.7588 
G01 X-9.9892 Y20.9767 
G01 X-9.7045 Y21.0946 
G00 Z2.5400  
G00 X-9.7045 Y23.6346 
G01 Z-0.1778 F254   
G01 X-8.0754 Y23.6346 F508   
G01 X-7.7907 Y23.5167 
G01 X-7.5728 Y23.2988 
G01 X-7.4549 Y23.0141 
G01 X-7.4549 Y22.7058 
G01 X-7.5728 Y22.4211 
G01 X-7.7907 Y22.2032 
G01 X-8.0754 Y22.0853 
G01 X-9.7045 Y22.0853 
G01 X-9.9892 Y22.2032 
G01 X-10.2071 Y22.4211 
G01 X-10.3250 Y22.7058 
G01 X-10.3250 Y23.0141 
G01 X-10.2071 Y23.2988 
G01 X-9.9892 Y23.5167 
G01 X-9.7045 Y23.6346 
G00 Z2.5400  
G00 X-9.7045 Y26.1746 
G01 Z-0.1778 F254   
G01 X-8.0754 Y26.1746 F508   
G01 X-7.7907 Y26.0567 
G01 X-7.5728 Y25.8388 
G01 X-7.4549 Y25.5541 
G01 X-7.4549 Y25.2458 
G01 X-7.5728 Y24.9611 
G01 X-7.7907 Y24.7432 
G01 X-8.0754 Y24.6253 
G01 X-9.7045 Y24.6253 
G01 X-9.9892 Y24.7432 
G01 X-10.2071 Y24.9611 
G01 X-10.3250 Y25.2458 
G01 X-10.3250 Y25.5541 
G01 X-10.2071 Y25.8388 
G01 X-9.9892 Y26.0567 
G01 X-9.7045 Y26.1746 
G00 Z2.5400  
G00 X-9.7045 Y28.7146 
G01 Z-0.1778 F254   
G01 X-8.0754 Y28.7146 F508   
G01 X-7.7907 Y28.5967 
G01 X-7.5728 Y28.3788 
G01 X-7.4549 Y28.0941 
G01 X-7.4549 Y27.7858 
G01 X-7.5728 Y27.5011 
G01 X-7.7907 Y27.2832 
G01 X-8.0754 Y27.1653 
G01 X-9.7045 Y27.1653 
G01 X-9.9892 Y27.2832 
G01 X-10.2071 Y27.5011 
G01 X-10.3250 Y27.7858 
G01 X-10.3250 Y28.0941 
G01 X-10.2071 Y28.3788 
G01 X-9.9892 Y28.5967 
G01 X-9.7045 Y28.7146 
G00 Z2.5400  
G00 X-9.7045 Y31.2546 
G01 Z-0.1778 F254   
G01 X-8.0754 Y31.2546 F508   
G01 X-7.7907 Y31.1367 
G01 X-7.5728 Y30.9188 
G01 X-7.4549 Y30.6341 
G01 X-7.4549 Y30.3258 
G01 X-7.5728 Y30.0411 
G01 X-7.7907 Y29.8232 
G01 X-8.0754 Y29.7053 
G01 X-9.7045 Y29.7053 
G01 X-9.9892 Y29.8232 
G01 X-10.2071 Y30.0411 
G01 X-10.3250 Y30.3258 
G01 X-10.3250 Y30.6341 
G01 X-10.2071 Y30.9188 
G01 X-9.9892 Y31.1367 
G01 X-9.7045 Y31.2546 
G00 Z2.5400  
G00 X-9.7045 Y33.7946 
G01 Z-0.1778 F254   
G01 X-8.0754 Y33.7946 F508   
G01 X-7.7907 Y33.6767 
G01 X-7.5728 Y33.4588 
G01 X-7.4549 Y33.1741 
G01 X-7.4549 Y32.8658 
G01 X-7.5728 Y32.5811 
G01 X-7.7907 Y32.3632 
G01 X-8.0754 Y32.2453 
G01 X-9.7045 Y32.2453 
G01 X-9.9892 Y32.3632 
G01 X-10.2071 Y32.5811 
G01 X-10.3250 Y32.8658 
G01 X-10.3250 Y33.1741 
G01 X-10.2071 Y33.4588 
G01 X-9.9892 Y33.6767 
G01 X-9.7045 Y33.7946 
G00 Z2.5400  
G00 X-9.7045 Y38.8746 
G01 Z-0.1778 F254   
G01 X-8.0754 Y38.8746 F508   
G01 X-7.7907 Y38.7567 
G01 X-7.5728 Y38.5388 
G01 X-7.4549 Y38.2541 
G01 X-7.4549 Y37.9458 
G01 X-7.5728 Y37.6611 
G01 X-7.7907 Y37.4432 
G01 X-8.0754 Y37.3253 
G01 X-9.7045 Y37.3253 
G01 X-9.9892 Y37.4432 
G01 X-10.2071 Y37.6611 
G01 X-10.3250 Y37.9458 
G01 X-10.3250 Y38.2541 
G01 X-10.2071 Y38.5388 
G01 X-9.9892 Y38.7567 
G01 X-9.7045 Y38.8746 
G00 Z2.5400  
G00 X-9.7045 Y41.4146 
G01 Z-0.1778 F254   
G01 X-8.0754 Y41.4146 F508   
G01 X-7.7907 Y41.2967 
G01 X-7.5728 Y41.0788 
G01 X-7.4549 Y40.7941 
G01 X-7.4549 Y40.4858 
G01 X-7.5728 Y40.2011 
G01 X-7.7907 Y39.9832 
G01 X-8.0754 Y39.8653 
G01 X-9.7045 Y39.8653 
G01 X-9.9892 Y39.9832 
G01 X-10.2071 Y40.2011 
G01 X-10.3250 Y40.4858 
G01 X-10.3250 Y40.7941 
G01 X-10.2071 Y41.0788 
G01 X-9.9892 Y41.2967 
G01 X-9.7045 Y41.4146 
G00 Z2.5400  
G00 X-9.7045 Y43.9546 
G01 Z-0.1778 F254   
G01 X-8.0754 Y43.9546 F508   
G01 X-7.7907 Y43.8367 
G01 X-7.5728 Y43.6188 
G01 X-7.4549 Y43.3341 
G01 X-7.4549 Y43.0258 
G01 X-7.5728 Y42.7411 
G01 X-7.7907 Y42.5232 
G01 X-8.0754 Y42.4053 
G01 X-9.7045 Y42.4053 
G01 X-9.9892 Y42.5232 
G01 X-10.2071 Y42.7411 
G01 X-10.3250 Y43.0258 
G01 X-10.3250 Y43.3341 
G01 X-10.2071 Y43.6188 
G01 X-9.9892 Y43.8367 
G01 X-9.7045 Y43.9546 
G00 Z2.5400  
G00 X-9.7045 Y46.4946 
G01 Z-0.1778 F254   
G01 X-8.0754 Y46.4946 F508   
G01 X-7.7907 Y46.3767 
G01 X-7.5728 Y46.1588 
G01 X-7.4549 Y45.8741 
G01 X-7.4549 Y45.5658 
G01 X-7.5728 Y45.2811 
G01 X-7.7907 Y45.0632 
G01 X-8.0754 Y44.9453 
G01 X-9.7045 Y44.9453 
G01 X-9.9892 Y45.0632 
G01 X-10.2071 Y45.2811 
G01 X-10.3250 Y45.5658 
G01 X-10.3250 Y45.8741 
G01 X-10.2071 Y46.1588 
G01 X-9.9892 Y46.3767 
G01 X-9.7045 Y46.4946 
G00 Z2.5400  
G00 X-9.7045 Y49.0346 
G01 Z-0.1778 F254   
G01 X-8.0754 Y49.0346 F508   
G01 X-7.7907 Y48.9167 
G01 X-7.5728 Y48.6988 
G01 X-7.4549 Y48.4141 
G01 X-7.4549 Y48.1058 
G01 X-7.5728 Y47.8211 
G01 X-7.7907 Y47.6032 
G01 X-8.0754 Y47.4853 
G01 X-9.7045 Y47.4853 
G01 X-9.9892 Y47.6032 
G01 X-10.2071 Y47.8211 
G01 X-10.3250 Y48.1058 
G01 X-10.3250 Y48.4141 
G01 X-10.2071 Y48.6988 
G01 X-9.9892 Y48.9167 
G01 X-9.7045 Y49.0346 
G00 Z2.5400  
G00 X-9.7045 Y51.5746 
G01 Z-0.1778 F254   
G01 X-8.0754 Y51.5746 F508   
G01 X-7.7907 Y51.4567 
G01 X-7.5728 Y51.2388 
G01 X-7.4549 Y50.9541 
G01 X-7.4549 Y50.6458 
G01 X-7.5728 Y50.3611 
G01 X-7.7907 Y50.1432 
G01 X-8.0754 Y50.0253 
G01 X-9.7045 Y50.0253 
G01 X-9.9892 Y50.1432 
G01 X-10.2071 Y50.3611 
G01 X-10.3250 Y50.6458 
G01 X-10.3250 Y50.9541 
G01 X-10.2071 Y51.2388 
G01 X-9.9892 Y51.4567 
G01 X-9.7045 Y51.5746 
G00 Z2.5400  
G00 X-17.3245 Y83.3246 
G01 Z-0.1778 F254   
G01 X-15.6954 Y83.3246 F508   
G01 X-15.4107 Y83.2067 
G01 X-15.1928 Y82.9888 
G01 X-15.0749 Y82.7041 
G01 X-15.0749 Y82.3958 
G01 X-15.1928 Y82.1111 
G01 X-15.4107 Y81.8932 
G01 X-15.6954 Y81.7753 
G01 X-17.3245 Y81.7753 
G01 X-17.6092 Y81.8932 
G01 X-17.8271 Y82.1111 
G01 X-17.9450 Y82.3958 
G01 X-17.9450 Y82.7041 
G01 X-17.8271 Y82.9888 
G01 X-17.6092 Y83.2067 
G01 X-17.3245 Y83.3246 
G00 Z2.5400  
G00 X-17.3245 Y80.7846 
G01 Z-0.1778 F254   
G01 X-15.6954 Y80.7846 F508   
G01 X-15.4107 Y80.6667 
G01 X-15.1928 Y80.4488 
G01 X-15.0749 Y80.1641 
G01 X-15.0749 Y79.8558 
G01 X-15.1928 Y79.5711 
G01 X-15.4107 Y79.3532 
G01 X-15.6954 Y79.2353 
G01 X-17.3245 Y79.2353 
G01 X-17.6092 Y79.3532 
G01 X-17.8271 Y79.5711 
G01 X-17.9450 Y79.8558 
G01 X-17.9450 Y80.1641 
G01 X-17.8271 Y80.4488 
G01 X-17.6092 Y80.6667 
G01 X-17.3245 Y80.7846 
G00 Z2.5400  
G00 X-17.3245 Y78.2446 
G01 Z-0.1778 F254   
G01 X-15.6954 Y78.2446 F508   
G01 X-15.4107 Y78.1267 
G01 X-15.1928 Y77.9088 
G01 X-15.0749 Y77.6241 
G01 X-15.0749 Y77.3158 
G01 X-15.1928 Y77.0311 
G01 X-15.4107 Y76.8132 
G01 X-15.6954 Y76.6953 
G01 X-17.3245 Y76.6953 
G01 X-17.6092 Y76.8132 
G01 X-17.8271 Y77.0311 
G01 X-17.9450 Y77.3158 
G01 X-17.9450 Y77.6241 
G01 X-17.8271 Y77.9088 
G01 X-17.6092 Y78.1267 
G01 X-17.3245 Y78.2446 
G00 Z2.5400  
G00 X-17.3245 Y75.7046 
G01 Z-0.1778 F254   
G01 X-15.6954 Y75.7046 F508   
G01 X-15.4107 Y75.5867 
G01 X-15.1928 Y75.3688 
G01 X-15.0749 Y75.0841 
G01 X-15.0749 Y74.7758 
G01 X-15.1928 Y74.4911 
G01 X-15.4107 Y74.2732 
G01 X-15.6954 Y74.1553 
G01 X-17.3245 Y74.1553 
G01 X-17.6092 Y74.2732 
G01 X-17.8271 Y74.4911 
G01 X-17.9450 Y74.7758 
G01 X-17.9450 Y75.0841 
G01 X-17.8271 Y75.3688 
G01 X-17.6092 Y75.5867 
G01 X-17.3245 Y75.7046 
G00 Z2.5400  
G00 X-17.3245 Y65.5446 
G01 Z-0.1778 F254   
G01 X-15.6954 Y65.5446 F508   
G01 X-15.4107 Y65.4267 
G01 X-15.1928 Y65.2088 
G01 X-15.0749 Y64.9241 
G01 X-15.0749 Y64.6158 
G01 X-15.1928 Y64.3311 
G01 X-15.4107 Y64.1132 
G01 X-15.6954 Y63.9953 
G01 X-17.3245 Y63.9953 
G01 X-17.6092 Y64.1132 
G01 X-17.8271 Y64.3311 
G01 X-17.9450 Y64.6158 
G01 X-17.9450 Y64.9241 
G01 X-17.8271 Y65.2088 
G01 X-17.6092 Y65.4267 
G01 X-17.3245 Y65.5446 
G00 Z2.5400  
G00 X-17.3245 Y63.0046 
G01 Z-0.1778 F254   
G01 X-15.6954 Y63.0046 F508   
G01 X-15.4107 Y62.8867 
G01 X-15.1928 Y62.6688 
G01 X-15.0749 Y62.3841 
G01 X-15.0749 Y62.0758 
G01 X-15.1928 Y61.7911 
G01 X-15.4107 Y61.5732 
G01 X-15.6954 Y61.4553 
G01 X-17.3245 Y61.4553 
G01 X-17.6092 Y61.5732 
G01 X-17.8271 Y61.7911 
G01 X-17.9450 Y62.0758 
G01 X-17.9450 Y62.3841 
G01 X-17.8271 Y62.6688 
G01 X-17.6092 Y62.8867 
G01 X-17.3245 Y63.0046 
G00 Z2.5400  
G00 X-9.7045 Y63.0046 
G01 Z-0.1778 F254   
G01 X-8.0754 Y63.0046 F508   
G01 X-7.7907 Y62.8867 
G01 X-7.5728 Y62.6688 
G01 X-7.4549 Y62.3841 
G01 X-7.4549 Y62.0758 
G01 X-7.5728 Y61.7911 
G01 X-7.7907 Y61.5732 
G01 X-8.0754 Y61.4553 
G01 X-9.7045 Y61.4553 
G01 X-9.9892 Y61.5732 
G01 X-10.2071 Y61.7911 
G01 X-10.3250 Y62.0758 
G01 X-10.3250 Y62.3841 
G01 X-10.2071 Y62.6688 
G01 X-9.9892 Y62.8867 
G01 X-9.7045 Y63.0046 
G00 Z2.5400  
G00 X-9.7045 Y65.5446 
G01 Z-0.1778 F254   
G01 X-8.0754 Y65.5446 F508   
G01 X-7.7907 Y65.4267 
G01 X-7.5728 Y65.2088 
G01 X-7.4549 Y64.9241 
G01 X-7.4549 Y64.6158 
G01 X-7.5728 Y64.3311 
G01 X-7.7907 Y64.1132 
G01 X-8.0754 Y63.9953 
G01 X-9.7045 Y63.9953 
G01 X-9.9892 Y64.1132 
G01 X-10.2071 Y64.3311 
G01 X-10.3250 Y64.6158 
G01 X-10.3250 Y64.9241 
G01 X-10.2071 Y65.2088 
G01 X-9.9892 Y65.4267 
G01 X-9.7045 Y65.5446 
G00 Z2.5400  
G00 X-9.7045 Y68.0846 
G01 Z-0.1778 F254   
G01 X-8.0754 Y68.0846 F508   
G01 X-7.7907 Y67.9667 
G01 X-7.5728 Y67.7488 
G01 X-7.4549 Y67.4641 
G01 X-7.4549 Y67.1558 
G01 X-7.5728 Y66.8711 
G01 X-7.7907 Y66.6532 
G01 X-8.0754 Y66.5353 
G01 X-9.7045 Y66.5353 
G01 X-9.9892 Y66.6532 
G01 X-10.2071 Y66.8711 
G01 X-10.3250 Y67.1558 
G01 X-10.3250 Y67.4641 
G01 X-10.2071 Y67.7488 
G01 X-9.9892 Y67.9667 
G01 X-9.7045 Y68.0846 
G00 Z2.5400  
G00 X-9.7045 Y70.6246 
G01 Z-0.1778 F254   
G01 X-8.0754 Y70.6246 F508   
G01 X-7.7907 Y70.5067 
G01 X-7.5728 Y70.2888 
G01 X-7.4549 Y70.0041 
G01 X-7.4549 Y69.6958 
G01 X-7.5728 Y69.4111 
G01 X-7.7907 Y69.1932 
G01 X-8.0754 Y69.0753 
G01 X-9.7045 Y69.0753 
G01 X-9.9892 Y69.1932 
G01 X-10.2071 Y69.4111 
G01 X-10.3250 Y69.6958 
G01 X-10.3250 Y70.0041 
G01 X-10.2071 Y70.2888 
G01 X-9.9892 Y70.5067 
G01 X-9.7045 Y70.6246 
G00 Z2.5400  
G00 X-9.7045 Y78.2446 
G01 Z-0.1778 F254   
G01 X-8.0754 Y78.2446 F508   
G01 X-7.7907 Y78.1267 
G01 X-7.5728 Y77.9088 
G01 X-7.4549 Y77.6241 
G01 X-7.4549 Y77.3158 
G01 X-7.5728 Y77.0311 
G01 X-7.7907 Y76.8132 
G01 X-8.0754 Y76.6953 
G01 X-9.7045 Y76.6953 
G01 X-9.9892 Y76.8132 
G01 X-10.2071 Y77.0311 
G01 X-10.3250 Y77.3158 
G01 X-10.3250 Y77.6241 
G01 X-10.2071 Y77.9088 
G01 X-9.9892 Y78.1267 
G01 X-9.7045 Y78.2446 
G00 Z2.5400  
G00 X-9.7045 Y80.7846 
G01 Z-0.1778 F254   
G01 X-8.0754 Y80.7846 F508   
G01 X-7.7907 Y80.6667 
G01 X-7.5728 Y80.4488 
G01 X-7.4549 Y80.1641 
G01 X-7.4549 Y79.8558 
G01 X-7.5728 Y79.5711 
G01 X-7.7907 Y79.3532 
G01 X-8.0754 Y79.2353 
G01 X-9.7045 Y79.2353 
G01 X-9.9892 Y79.3532 
G01 X-10.2071 Y79.5711 
G01 X-10.3250 Y79.8558 
G01 X-10.3250 Y80.1641 
G01 X-10.2071 Y80.4488 
G01 X-9.9892 Y80.6667 
G01 X-9.7045 Y80.7846 
G00 Z2.5400  
G00 X-9.7045 Y83.3246 
G01 Z-0.1778 F254   
G01 X-8.0754 Y83.3246 F508   
G01 X-7.7907 Y83.2067 
G01 X-7.5728 Y82.9888 
G01 X-7.4549 Y82.7041 
G01 X-7.4549 Y82.3958 
G01 X-7.5728 Y82.1111 
G01 X-7.7907 Y81.8932 
G01 X-8.0754 Y81.7753 
G01 X-9.7045 Y81.7753 
G01 X-9.9892 Y81.8932 
G01 X-10.2071 Y82.1111 
G01 X-10.3250 Y82.3958 
G01 X-10.3250 Y82.7041 
G01 X-10.2071 Y82.9888 
G01 X-9.9892 Y83.2067 
G01 X-9.7045 Y83.3246 
G00 Z2.5400  
G00 X-37.6445 Y22.3646 
G01 Z-0.1778 F254   
G01 X-37.2490 Y22.3646 F508   
G01 X-37.2490 Y22.6863 
G01 X-37.2490 Y23.0336 
G01 X-37.2490 Y24.9809 
G01 X-38.2736 Y24.9809 
G01 X-38.5190 Y25.2263 
G01 X-45.8936 Y32.6009 
G01 X-49.3563 Y32.6009 
G01 X-51.3084 Y30.6489 
G01 X-51.3017 Y30.6328 
G01 X-51.3017 Y30.3271 
G01 X-51.3084 Y30.3110 
G01 X-50.6263 Y29.6290 
G01 X-50.3809 Y29.3836 
G01 X-50.3809 Y17.9536 
G01 X-50.3809 Y17.6063 
G01 X-51.0583 Y16.9290 
G01 X-41.0941 Y16.9290 
G01 X-40.9897 Y17.0334 
G01 X-40.7628 Y17.1274 
G01 X-40.5171 Y17.1274 
G01 X-40.2902 Y17.0334 
G01 X-40.1165 Y16.8597 
G01 X-40.0225 Y16.6328 
G01 X-40.0225 Y16.3871 
G01 X-40.1165 Y16.1602 
G01 X-40.2902 Y15.9865 
G01 X-40.5171 Y15.8925 
G01 X-40.7628 Y15.8925 
G01 X-40.9897 Y15.9865 
G01 X-41.0941 Y16.0909 
G01 X-51.6509 Y16.0909 
G01 X-51.6509 Y15.8979 
G01 X-51.6347 Y15.8912 
G01 X-51.4187 Y15.6752 
G01 X-51.3017 Y15.3928 
G01 X-51.3017 Y15.0871 
G01 X-51.4187 Y14.8047 
G01 X-51.6347 Y14.5887 
G01 X-51.9171 Y14.4717 
G01 X-52.2228 Y14.4717 
G01 X-52.5052 Y14.5887 
G01 X-52.7212 Y14.8047 
G01 X-52.8382 Y15.0871 
G01 X-52.8382 Y15.3928 
G01 X-52.7212 Y15.6752 
G01 X-52.5052 Y15.8912 
G01 X-52.4890 Y15.8979 
G01 X-52.4890 Y16.3363 
G01 X-52.4890 Y16.6836 
G01 X-52.2436 Y16.9290 
G01 X-51.2190 Y17.9536 
G01 X-51.2190 Y29.0363 
G01 X-51.9010 Y29.7184 
G01 X-51.9171 Y29.7117 
G01 X-52.2228 Y29.7117 
G01 X-52.5052 Y29.8287 
G01 X-52.7212 Y30.0447 
G01 X-52.8382 Y30.3271 
G01 X-52.8382 Y30.6328 
G01 X-52.7212 Y30.9152 
G01 X-52.5052 Y31.1312 
G01 X-52.2228 Y31.2482 
G01 X-51.9171 Y31.2482 
G01 X-51.9010 Y31.2415 
G01 X-49.9490 Y33.1936 
G01 X-49.7036 Y33.4390 
G01 X-45.8936 Y33.4390 
G01 X-45.5463 Y33.4390 
G01 X-37.9263 Y25.8190 
G01 X-37.0036 Y25.8190 
G01 X-34.7090 Y28.1136 
G01 X-34.7090 Y32.8463 
G01 X-35.6133 Y33.7507 
G01 X-35.7307 Y33.6332 
G01 X-36.0154 Y33.5153 
G01 X-37.6445 Y33.5153 
G01 X-37.9292 Y33.6332 
G01 X-38.1471 Y33.8511 
G01 X-38.2650 Y34.1358 
G01 X-38.2650 Y34.4441 
G01 X-38.1471 Y34.7288 
G01 X-37.9292 Y34.9467 
G01 X-37.6445 Y35.0646 
G01 X-36.0154 Y35.0646 
G01 X-35.7307 Y34.9467 
G01 X-35.5128 Y34.7288 
G01 X-35.5046 Y34.7090 
G01 X-35.3863 Y34.7090 
G01 X-35.1409 Y34.4636 
G01 X-33.8709 Y33.1936 
G01 X-33.8709 Y32.8463 
G01 X-33.8709 Y27.7663 
G01 X-34.1163 Y27.5209 
G01 X-36.4109 Y25.2263 
G01 X-36.4109 Y23.0336 
G01 X-34.1163 Y20.7390 
G01 X-21.7636 Y20.7390 
G01 X-20.7390 Y21.7636 
G01 X-20.7390 Y22.6863 
G01 X-21.7636 Y23.7109 
G01 X-23.4535 Y23.7109 
G01 X-23.8091 Y23.3553 
G01 X-24.4508 Y23.3553 
G01 X-24.9046 Y23.8091 
G01 X-24.9046 Y24.4508 
G01 X-24.5490 Y24.8064 
G01 X-24.5490 Y26.4963 
G01 X-26.8436 Y28.7909 
G01 X-27.8846 Y28.7909 
G01 X-27.8928 Y28.7711 
G01 X-28.1107 Y28.5532 
G01 X-28.3954 Y28.4353 
G01 X-30.0245 Y28.4353 
G01 X-30.3092 Y28.5532 
G01 X-30.5271 Y28.7711 
G01 X-30.6450 Y29.0558 
G01 X-30.6450 Y29.3641 
G01 X-30.5271 Y29.6488 
G01 X-30.3092 Y29.8667 
G01 X-30.0245 Y29.9846 
G01 X-29.6290 Y29.9846 
G01 X-29.6290 Y30.9753 
G01 X-30.0245 Y30.9753 
G01 X-30.3092 Y31.0932 
G01 X-30.5271 Y31.3111 
G01 X-30.6450 Y31.5958 
G01 X-30.6450 Y31.9041 
G01 X-30.5271 Y32.1888 
G01 X-30.3092 Y32.4067 
G01 X-30.0245 Y32.5246 
G01 X-29.6290 Y32.5246 
G01 X-29.6290 Y33.5153 
G01 X-30.0245 Y33.5153 
G01 X-30.3092 Y33.6332 
G01 X-30.5271 Y33.8511 
G01 X-30.6450 Y34.1358 
G01 X-30.6450 Y34.4441 
G01 X-30.5271 Y34.7288 
G01 X-30.3092 Y34.9467 
G01 X-30.0245 Y35.0646 
G01 X-29.6290 Y35.0646 
G01 X-29.6290 Y36.0553 
G01 X-30.0245 Y36.0553 
G01 X-30.3092 Y36.1732 
G01 X-30.5271 Y36.3911 
G01 X-30.6450 Y36.6758 
G01 X-30.6450 Y36.9841 
G01 X-30.5271 Y37.2688 
G01 X-30.3092 Y37.4867 
G01 X-30.0245 Y37.6046 
G01 X-28.3954 Y37.6046 
G01 X-28.1107 Y37.4867 
G01 X-27.8928 Y37.2688 
G01 X-27.7749 Y36.9841 
G01 X-27.7749 Y36.6758 
G01 X-27.8928 Y36.3911 
G01 X-28.1107 Y36.1732 
G01 X-28.3954 Y36.0553 
G01 X-28.7909 Y36.0553 
G01 X-28.7909 Y35.0646 
G01 X-28.3954 Y35.0646 
G01 X-28.1107 Y34.9467 
G01 X-27.8928 Y34.7288 
G01 X-27.7749 Y34.4441 
G01 X-27.7749 Y34.1358 
G01 X-27.8928 Y33.8511 
G01 X-28.1107 Y33.6332 
G01 X-28.3954 Y33.5153 
G01 X-28.7909 Y33.5153 
G01 X-28.7909 Y32.5246 
G01 X-28.3954 Y32.5246 
G01 X-28.1107 Y32.4067 
G01 X-27.8928 Y32.1888 
G01 X-27.7749 Y31.9041 
G01 X-27.7749 Y31.5958 
G01 X-27.8928 Y31.3111 
G01 X-28.1107 Y31.0932 
G01 X-28.3954 Y30.9753 
G01 X-28.7909 Y30.9753 
G01 X-28.7909 Y29.9846 
G01 X-28.3954 Y29.9846 
G01 X-28.1107 Y29.8667 
G01 X-27.8928 Y29.6488 
G01 X-27.8846 Y29.6290 
G01 X-26.4963 Y29.6290 
G01 X-26.2509 Y29.3836 
G01 X-24.1300 Y27.2626 
G01 X-20.4936 Y30.8990 
G01 X-20.1463 Y30.8990 
G01 X-17.8352 Y30.8990 
G01 X-17.8271 Y30.9188 
G01 X-17.6092 Y31.1367 
G01 X-17.3245 Y31.2546 
G01 X-15.6954 Y31.2546 
G01 X-15.4107 Y31.1367 
G01 X-15.1928 Y30.9188 
G01 X-15.1846 Y30.8990 
G01 X-14.1436 Y30.8990 
G01 X-13.3174 Y31.7252 
G01 X-13.3174 Y31.8728 
G01 X-13.2234 Y32.0997 
G01 X-13.1190 Y32.2040 
G01 X-13.1190 Y34.4636 
G01 X-12.8736 Y34.7090 
G01 X-11.6036 Y35.9790 
G01 X-11.2563 Y35.9790 
G01 X-10.2153 Y35.9790 
G01 X-10.2071 Y35.9988 
G01 X-9.9892 Y36.2167 
G01 X-9.7045 Y36.3346 
G01 X-8.0754 Y36.3346 
G01 X-7.7907 Y36.2167 
G01 X-7.5728 Y35.9988 
G01 X-7.4549 Y35.7141 
G01 X-7.4549 Y35.4058 
G01 X-7.5728 Y35.1211 
G01 X-7.7907 Y34.9032 
G01 X-8.0754 Y34.7853 
G01 X-9.7045 Y34.7853 
G01 X-9.9892 Y34.9032 
G01 X-10.2071 Y35.1211 
G01 X-10.2153 Y35.1409 
G01 X-11.2563 Y35.1409 
G01 X-12.2809 Y34.1163 
G01 X-12.2809 Y32.2040 
G01 X-12.1765 Y32.0997 
G01 X-12.0825 Y31.8728 
G01 X-12.0825 Y31.6271 
G01 X-12.1765 Y31.4002 
G01 X-12.3502 Y31.2265 
G01 X-12.5771 Y31.1325 
G01 X-12.7247 Y31.1325 
G01 X-13.7963 Y30.0609 
G01 X-14.1436 Y30.0609 
G01 X-15.1846 Y30.0609 
G01 X-15.1928 Y30.0411 
G01 X-15.4107 Y29.8232 
G01 X-15.6954 Y29.7053 
G01 X-17.3245 Y29.7053 
G01 X-17.6092 Y29.8232 
G01 X-17.8271 Y30.0411 
G01 X-17.8352 Y30.0609 
G01 X-20.1463 Y30.0609 
G01 X-23.7109 Y26.4963 
G01 X-23.7109 Y24.8064 
G01 X-23.4535 Y24.5490 
G01 X-21.4163 Y24.5490 
G01 X-21.1709 Y24.3036 
G01 X-19.9009 Y23.0336 
G01 X-19.9009 Y22.6863 
G01 X-19.9009 Y21.4163 
G01 X-20.1463 Y21.1709 
G01 X-21.4163 Y19.9009 
G01 X-21.7636 Y19.9009 
G01 X-34.4636 Y19.9009 
G01 X-34.7090 Y20.1463 
G01 X-35.6133 Y21.0507 
G01 X-35.7307 Y20.9332 
G01 X-36.0154 Y20.8153 
G01 X-37.6445 Y20.8153 
G01 X-37.9292 Y20.9332 
G01 X-38.1471 Y21.1511 
G01 X-38.2650 Y21.4358 
G01 X-38.2650 Y21.7441 
G01 X-38.1471 Y22.0288 
G01 X-37.9292 Y22.2467 
G01 X-37.6445 Y22.3646 
G00 Z2.5400  
G00 X-37.6445 Y14.7446 
G01 Z-0.1778 F254   
G01 X-36.0154 Y14.7446 F508   
G01 X-35.7307 Y14.6267 
G01 X-35.5128 Y14.4088 
G01 X-35.3949 Y14.1241 
G01 X-35.3949 Y13.8158 
G01 X-35.5128 Y13.5311 
G01 X-35.7307 Y13.3132 
G01 X-36.0154 Y13.1953 
G01 X-37.6445 Y13.1953 
G01 X-37.9292 Y13.3132 
G01 X-38.1471 Y13.5311 
G01 X-38.2650 Y13.8158 
G01 X-38.2650 Y14.1241 
G01 X-38.1471 Y14.4088 
G01 X-37.9292 Y14.6267 
G01 X-37.6445 Y14.7446 
G00 Z2.5400  
G00 X-30.0245 Y17.2846 
G01 Z-0.1778 F254   
G01 X-28.3954 Y17.2846 F508   
G01 X-28.1107 Y17.1667 
G01 X-27.8928 Y16.9488 
G01 X-27.7749 Y16.6641 
G01 X-27.7749 Y16.3558 
G01 X-27.8928 Y16.0711 
G01 X-28.1107 Y15.8532 
G01 X-28.3954 Y15.7353 
G01 X-30.0245 Y15.7353 
G01 X-30.3092 Y15.8532 
G01 X-30.5271 Y16.0711 
G01 X-30.6450 Y16.3558 
G01 X-30.6450 Y16.6641 
G01 X-30.5271 Y16.9488 
G01 X-30.3092 Y17.1667 
G01 X-30.0245 Y17.2846 
G00 Z2.5400  
G00 X-30.0245 Y19.8246 
G01 Z-0.1778 F254   
G01 X-28.3954 Y19.8246 F508   
G01 X-28.1107 Y19.7067 
G01 X-27.8928 Y19.4888 
G01 X-27.7749 Y19.2041 
G01 X-27.7749 Y18.8958 
G01 X-27.8928 Y18.6111 
G01 X-28.1107 Y18.3932 
G01 X-28.3954 Y18.2753 
G01 X-30.0245 Y18.2753 
G01 X-30.3092 Y18.3932 
G01 X-30.5271 Y18.6111 
G01 X-30.6450 Y18.8958 
G01 X-30.6450 Y19.2041 
G01 X-30.5271 Y19.4888 
G01 X-30.3092 Y19.7067 
G01 X-30.0245 Y19.8246 
G00 Z2.5400  
G00 X-92.2146 Y42.8591 
G01 Z-0.1778 F254   
G01 X-92.2146 Y43.3619 F508   
G01 X-92.8836 Y44.0309 
G01 X-93.1290 Y44.2763 
G01 X-93.1290 Y56.9763 
G01 X-95.4236 Y59.2709 
G01 X-95.6690 Y59.5163 
G01 X-95.6690 Y60.9046 
G01 X-95.6888 Y60.9128 
G01 X-95.9067 Y61.1307 
G01 X-96.0246 Y61.4154 
G01 X-96.0246 Y63.0445 
G01 X-95.9067 Y63.3292 
G01 X-95.6888 Y63.5471 
G01 X-95.4041 Y63.6650 
G01 X-95.0958 Y63.6650 
G01 X-94.8111 Y63.5471 
G01 X-94.5932 Y63.3292 
G01 X-94.4753 Y63.0445 
G01 X-94.4753 Y61.4154 
G01 X-94.5932 Y61.1307 
G01 X-94.8111 Y60.9128 
G01 X-94.8309 Y60.9046 
G01 X-94.8309 Y59.8636 
G01 X-92.2909 Y57.3236 
G01 X-92.2909 Y56.9763 
G01 X-92.2909 Y44.6236 
G01 X-91.6219 Y43.9546 
G01 X-91.1191 Y43.9546 
G01 X-90.6653 Y43.5008 
G01 X-90.6653 Y42.8591 
G01 X-91.1191 Y42.4053 
G01 X-91.7608 Y42.4053 
G01 X-92.2146 Y42.8591 
G00 Z2.5400  
G00 X-92.2146 Y37.7791 
G01 Z-0.1778 F254   
G01 X-92.2146 Y38.4208 F508   
G01 X-91.7608 Y38.8746 
G01 X-91.1191 Y38.8746 
G01 X-90.6653 Y38.4208 
G01 X-90.6653 Y37.9179 
G01 X-88.4809 Y35.7336 
G01 X-88.4809 Y35.3863 
G01 X-88.4809 Y25.2263 
G01 X-88.7263 Y24.9809 
G01 X-89.7509 Y23.9563 
G01 X-89.7509 Y20.3614 
G01 X-89.3953 Y20.0058 
G01 X-89.3953 Y19.3641 
G01 X-89.8491 Y18.9103 
G01 X-90.4908 Y18.9103 
G01 X-90.9446 Y19.3641 
G01 X-90.9446 Y20.0058 
G01 X-90.5890 Y20.3614 
G01 X-90.5890 Y23.9563 
G01 X-90.5890 Y24.3036 
G01 X-89.3190 Y25.5736 
G01 X-89.3190 Y35.3863 
G01 X-91.2579 Y37.3253 
G01 X-91.7608 Y37.3253 
G01 X-92.2146 Y37.7791 
G00 Z2.5400  
G00 X-70.2690 Y18.4564 
G01 Z-0.1778 F254   
G01 X-70.2690 Y22.4323 F508   
G01 X-70.2690 Y22.4375 
G01 X-70.3706 Y22.5391 
G01 X-70.3706 Y23.1808 
G01 X-69.9168 Y23.6346 
G01 X-69.2751 Y23.6346 
G01 X-68.8213 Y23.1808 
G01 X-68.8213 Y22.5391 
G01 X-69.2751 Y22.0853 
G01 X-69.4309 Y22.0853 
G01 X-69.4309 Y18.4564 
G01 X-69.0753 Y18.1008 
G01 X-69.0753 Y17.4591 
G01 X-69.5291 Y17.0053 
G01 X-70.1708 Y17.0053 
G01 X-70.5264 Y17.3609 
G01 X-72.2163 Y17.3609 
G01 X-78.3209 Y11.2563 
G01 X-78.3209 Y10.3336 
G01 X-78.3209 Y9.9863  
G01 X-79.5909 Y8.7164  
G01 X-79.8363 Y8.4709  
G01 X-81.1063 Y8.4709  
G01 X-81.4536 Y8.4709  
G01 X-82.7236 Y9.7409  
G01 X-82.9690 Y9.9863  
G01 X-82.9690 Y15.0663 
G01 X-82.9690 Y15.4136 
G01 X-82.0546 Y16.3280 
G01 X-82.0546 Y16.8308 
G01 X-81.6008 Y17.2846 
G01 X-81.0980 Y17.2846 
G01 X-77.6436 Y20.7390 
G01 X-77.2963 Y20.7390 
G01 X-77.2116 Y20.7390 
G01 X-78.7933 Y22.3207 
G01 X-78.9107 Y22.2032 
G01 X-79.1954 Y22.0853 
G01 X-80.8245 Y22.0853 
G01 X-81.1092 Y22.2032 
G01 X-81.3271 Y22.4211 
G01 X-81.4450 Y22.7058 
G01 X-81.4450 Y23.0141 
G01 X-81.3271 Y23.2988 
G01 X-81.1842 Y23.4416 
G01 X-81.4536 Y23.7109 
G01 X-81.6990 Y23.9563 
G01 X-81.6990 Y30.3063 
G01 X-81.6990 Y30.6536 
G01 X-80.4290 Y31.9236 
G01 X-80.1836 Y32.1690 
G01 X-79.4163 Y32.1690 
G01 X-79.0608 Y32.5246 
G01 X-78.4191 Y32.5246 
G01 X-77.9653 Y32.0708 
G01 X-77.9653 Y31.4291 
G01 X-78.4191 Y30.9753 
G01 X-79.0608 Y30.9753 
G01 X-79.4163 Y31.3309 
G01 X-79.8363 Y31.3309 
G01 X-80.8609 Y30.3063 
G01 X-80.8609 Y24.3036 
G01 X-80.1919 Y23.6346 
G01 X-79.1954 Y23.6346 
G01 X-78.9107 Y23.5167 
G01 X-78.6928 Y23.2988 
G01 X-78.6847 Y23.2790 
G01 X-78.5663 Y23.2790 
G01 X-76.3819 Y21.0946 
G01 X-75.8791 Y21.0946 
G01 X-75.4253 Y20.6408 
G01 X-75.4253 Y19.9991 
G01 X-75.8791 Y19.5453 
G01 X-76.5208 Y19.5453 
G01 X-76.8764 Y19.9009 
G01 X-77.2963 Y19.9009 
G01 X-80.5053 Y16.6919 
G01 X-80.5053 Y16.1891 
G01 X-80.9591 Y15.7353 
G01 X-81.4619 Y15.7353 
G01 X-82.1309 Y15.0663 
G01 X-82.1309 Y10.3336 
G01 X-81.1063 Y9.3090  
G01 X-80.1835 Y9.3090  
G01 X-79.1590 Y10.3336 
G01 X-79.1590 Y11.2563 
G01 X-79.1590 Y11.6036 
G01 X-72.5636 Y18.1990 
G01 X-72.2163 Y18.1990 
G01 X-70.5264 Y18.1990 
G01 X-70.2690 Y18.4564 
G00 Z2.5400  
G00 X-76.9746 Y40.3191 
G01 Z-0.1778 F254   
G01 X-76.9746 Y40.9608 F508   
G01 X-76.5208 Y41.4146 
G01 X-76.0180 Y41.4146 
G01 X-73.8336 Y43.5990 
G01 X-73.4863 Y43.5990 
G01 X-70.5263 Y43.5990 
G01 X-70.1708 Y43.9546 
G01 X-69.5291 Y43.9546 
G01 X-69.0753 Y43.5008 
G01 X-69.0753 Y42.8591 
G01 X-69.5291 Y42.4053 
G01 X-70.1708 Y42.4053 
G01 X-70.5263 Y42.7609 
G01 X-73.4863 Y42.7609 
G01 X-75.4253 Y40.8219 
G01 X-75.4253 Y40.3191 
G01 X-75.8791 Y39.8653 
G01 X-76.5208 Y39.8653 
G01 X-76.9746 Y40.3191 
G00 Z2.5400  
G00 X-76.9746 Y35.2391 
G01 Z-0.1778 F254   
G01 X-76.9746 Y35.8808 F508   
G01 X-76.5208 Y36.3346 
G01 X-75.8791 Y36.3346 
G01 X-75.5235 Y35.9790 
G01 X-67.4836 Y35.9790 
G01 X-67.1363 Y35.9790 
G01 X-65.8663 Y34.7090 
G01 X-65.6209 Y34.4636 
G01 X-65.6209 Y29.3836 
G01 X-64.5963 Y28.3590 
G01 X-64.3509 Y28.1136 
G01 X-64.3509 Y25.5736 
G01 X-62.3989 Y23.6215 
G01 X-62.3828 Y23.6282 
G01 X-62.0771 Y23.6282 
G01 X-61.7947 Y23.5112 
G01 X-61.5787 Y23.2952 
G01 X-61.4617 Y23.0128 
G01 X-61.4617 Y22.7071 
G01 X-61.5787 Y22.4247 
G01 X-61.7947 Y22.2087 
G01 X-62.0771 Y22.0917 
G01 X-62.3828 Y22.0917 
G01 X-62.6652 Y22.2087 
G01 X-62.8812 Y22.4247 
G01 X-62.8879 Y22.4409 
G01 X-63.3263 Y22.4409 
G01 X-64.3509 Y21.4163 
G01 X-64.3509 Y10.3336 
G01 X-62.0563 Y8.0390  
G01 X-33.1936 Y8.0390  
G01 X-29.6290 Y11.6036 
G01 X-29.6290 Y13.1953 
G01 X-30.0245 Y13.1953 
G01 X-30.3092 Y13.3132 
G01 X-30.5271 Y13.5311 
G01 X-30.6450 Y13.8158 
G01 X-30.6450 Y14.1241 
G01 X-30.5271 Y14.4088 
G01 X-30.3092 Y14.6267 
G01 X-30.0245 Y14.7446 
G01 X-28.3954 Y14.7446 
G01 X-28.1107 Y14.6267 
G01 X-27.8928 Y14.4088 
G01 X-27.8846 Y14.3890 
G01 X-9.0636 Y14.3890 
G01 X-5.4990 Y17.9536 
G01 X-5.4990 Y49.3563 
G01 X-8.7079 Y52.5653 
G01 X-9.7045 Y52.5653 
G01 X-9.9892 Y52.6832 
G01 X-10.2071 Y52.9011 
G01 X-10.3250 Y53.1858 
G01 X-10.3250 Y53.4941 
G01 X-10.2071 Y53.7788 
G01 X-9.9892 Y53.9967 
G01 X-9.7045 Y54.1146 
G01 X-8.0754 Y54.1146 
G01 X-7.7907 Y53.9967 
G01 X-7.6733 Y53.8792 
G01 X-5.4990 Y56.0535 
G01 X-5.4990 Y73.4863 
G01 X-6.5236 Y74.5109 
G01 X-7.5646 Y74.5109 
G01 X-7.5728 Y74.4911 
G01 X-7.7907 Y74.2732 
G01 X-8.0754 Y74.1553 
G01 X-9.7045 Y74.1553 
G01 X-9.9892 Y74.2732 
G01 X-10.2071 Y74.4911 
G01 X-10.3250 Y74.7758 
G01 X-10.3250 Y75.0841 
G01 X-10.2071 Y75.3688 
G01 X-9.9892 Y75.5867 
G01 X-9.7045 Y75.7046 
G01 X-8.0754 Y75.7046 
G01 X-7.7907 Y75.5867 
G01 X-7.5728 Y75.3688 
G01 X-7.5646 Y75.3490 
G01 X-6.5236 Y75.3490 
G01 X-5.4990 Y76.3736 
G01 X-5.4990 Y92.5363 
G01 X-7.7936 Y94.8309 
G01 X-25.3446 Y94.8309 
G01 X-25.3528 Y94.8111 
G01 X-25.5707 Y94.5932 
G01 X-25.8554 Y94.4753 
G01 X-27.4845 Y94.4753 
G01 X-27.7692 Y94.5932 
G01 X-27.9871 Y94.8111 
G01 X-27.9953 Y94.8309 
G01 X-30.3063 Y94.8309 
G01 X-30.6536 Y94.8309 
G01 X-34.4636 Y98.6409 
G01 X-44.2763 Y98.6409 
G01 X-46.3725 Y96.5447 
G01 X-46.3725 Y96.3971 
G01 X-46.4665 Y96.1702 
G01 X-46.6402 Y95.9965 
G01 X-46.8671 Y95.9025 
G01 X-47.1128 Y95.9025 
G01 X-47.3397 Y95.9965 
G01 X-47.5134 Y96.1702 
G01 X-47.6074 Y96.3971 
G01 X-47.6074 Y96.6428 
G01 X-47.5134 Y96.8697 
G01 X-47.3397 Y97.0434 
G01 X-47.1128 Y97.1374 
G01 X-46.9652 Y97.1374 
G01 X-44.6236 Y99.4790 
G01 X-44.2763 Y99.4790 
G01 X-34.1163 Y99.4790 
G01 X-33.8709 Y99.2336 
G01 X-30.3063 Y95.6690 
G01 X-27.9953 Y95.6690 
G01 X-27.9871 Y95.6888 
G01 X-27.7692 Y95.9067 
G01 X-27.4845 Y96.0246 
G01 X-25.8554 Y96.0246 
G01 X-25.5707 Y95.9067 
G01 X-25.3528 Y95.6888 
G01 X-25.3446 Y95.6690 
G01 X-7.4463 Y95.6690 
G01 X-7.2009 Y95.4236 
G01 X-4.6609 Y92.8836 
G01 X-4.6609 Y92.5363 
G01 X-4.6609 Y76.0263 
G01 X-4.9063 Y75.7809 
G01 X-5.7573 Y74.9300 
G01 X-4.9063 Y74.0790 
G01 X-4.6609 Y73.8336 
G01 X-4.6609 Y55.7063 
G01 X-4.9063 Y55.4609 
G01 X-7.2009 Y53.1664 
G01 X-7.4463 Y52.9209 
G01 X-7.5646 Y52.9209 
G01 X-7.5728 Y52.9011 
G01 X-7.7157 Y52.7583 
G01 X-4.9063 Y49.9490 
G01 X-4.6609 Y49.7036 
G01 X-4.6609 Y17.9536 
G01 X-4.6609 Y17.6063 
G01 X-8.4709 Y13.7963 
G01 X-8.7163 Y13.5509 
G01 X-27.8846 Y13.5509 
G01 X-27.8928 Y13.5311 
G01 X-28.1107 Y13.3132 
G01 X-28.3954 Y13.1953 
G01 X-28.7909 Y13.1953 
G01 X-28.7909 Y11.2563 
G01 X-29.0363 Y11.0109 
G01 X-32.8463 Y7.2009  
G01 X-33.1936 Y7.2009  
G01 X-62.4036 Y7.2009  
G01 X-62.6490 Y7.4463  
G01 X-65.1890 Y9.9863  
G01 X-65.1890 Y10.3336 
G01 X-65.1890 Y21.4163 
G01 X-65.1890 Y21.7636 
G01 X-63.6736 Y23.2790 
G01 X-63.3263 Y23.2790 
G01 X-63.2416 Y23.2790 
G01 X-65.1890 Y25.2263 
G01 X-65.1890 Y25.5736 
G01 X-65.1890 Y27.7663 
G01 X-66.2136 Y28.7909 
G01 X-73.4863 Y28.7909 
G01 X-75.7809 Y26.4963 
G01 X-75.7809 Y25.5736 
G01 X-74.7563 Y24.5490 
G01 X-73.4863 Y24.5490 
G01 X-73.2409 Y24.3036 
G01 X-71.9709 Y23.0336 
G01 X-71.9709 Y22.6863 
G01 X-71.9709 Y21.4163 
G01 X-72.2163 Y21.1709 
G01 X-72.8853 Y20.5019 
G01 X-72.8853 Y19.9991 
G01 X-73.3391 Y19.5453 
G01 X-73.9808 Y19.5453 
G01 X-74.4346 Y19.9991 
G01 X-74.4346 Y20.6408 
G01 X-73.9808 Y21.0946 
G01 X-73.4780 Y21.0946 
G01 X-72.8090 Y21.7636 
G01 X-72.8090 Y22.6863 
G01 X-73.8336 Y23.7109 
G01 X-74.7563 Y23.7109 
G01 X-75.1036 Y23.7109 
G01 X-76.3736 Y24.9809 
G01 X-76.6190 Y25.2263 
G01 X-76.6190 Y26.4963 
G01 X-76.6190 Y26.8436 
G01 X-74.0790 Y29.3836 
G01 X-73.8336 Y29.6290 
G01 X-66.4590 Y29.6290 
G01 X-66.4590 Y34.1163 
G01 X-67.4836 Y35.1409 
G01 X-75.5235 Y35.1409 
G01 X-75.8791 Y34.7853 
G01 X-76.5208 Y34.7853 
G01 X-76.9746 Y35.2391 
G00 Z2.5400  
G00 X-75.7046 Y21.9041 
G01 Z-0.1778 F254   
G01 X-75.7046 Y22.5458 F508   
G01 X-75.2508 Y22.9996 
G01 X-74.6091 Y22.9996 
G01 X-74.1553 Y22.5458 
G01 X-74.1553 Y21.9041 
G01 X-74.5109 Y21.5486 
G01 X-74.5109 Y17.6063 
G01 X-74.7563 Y17.3609 
G01 X-75.4253 Y16.6920 
G01 X-75.4253 Y16.1891 
G01 X-75.8791 Y15.7353 
G01 X-76.3819 Y15.7353 
G01 X-80.5053 Y11.6119 
G01 X-80.5053 Y11.1091 
G01 X-80.9591 Y10.6553 
G01 X-81.6008 Y10.6553 
G01 X-82.0546 Y11.1091 
G01 X-82.0546 Y11.7508 
G01 X-81.6008 Y12.2046 
G01 X-81.0980 Y12.2046 
G01 X-76.9746 Y16.3280 
G01 X-76.9746 Y16.8308 
G01 X-76.5208 Y17.2846 
G01 X-76.0179 Y17.2846 
G01 X-75.3490 Y17.9535 
G01 X-75.3490 Y21.5486 
G01 X-75.7046 Y21.9041 
G00 Z2.5400  
G00 X-75.7046 Y49.2091 
G01 Z-0.1778 F254   
G01 X-75.7046 Y49.7119 F508   
G01 X-80.4290 Y54.4363 
G01 X-80.4290 Y54.7836 
G01 X-80.4290 Y60.9046 
G01 X-80.4488 Y60.9128 
G01 X-80.6667 Y61.1307 
G01 X-80.7846 Y61.4154 
G01 X-80.7846 Y63.0445 
G01 X-80.6667 Y63.3292 
G01 X-80.4488 Y63.5471 
G01 X-80.1641 Y63.6650 
G01 X-79.8558 Y63.6650 
G01 X-79.5711 Y63.5471 
G01 X-79.3532 Y63.3292 
G01 X-79.2353 Y63.0445 
G01 X-79.2353 Y61.4154 
G01 X-79.3532 Y61.1307 
G01 X-79.5711 Y60.9128 
G01 X-79.5909 Y60.9046 
G01 X-79.5909 Y54.7836 
G01 X-75.1119 Y50.3046 
G01 X-74.6091 Y50.3046 
G01 X-74.1553 Y49.8508 
G01 X-74.1553 Y49.2091 
G01 X-74.6091 Y48.7553 
G01 X-75.2508 Y48.7553 
G01 X-75.7046 Y49.2091 
G00 Z2.5400  
G00 X-69.3546 Y40.9541 
G01 Z-0.1778 F254   
G01 X-69.3546 Y41.5958 F508   
G01 X-68.9008 Y42.0496 
G01 X-68.2591 Y42.0496 
G01 X-67.8053 Y41.5958 
G01 X-67.8053 Y40.9541 
G01 X-68.0534 Y40.7061 
G01 X-67.1363 Y39.7890 
G01 X-66.2136 Y39.7890 
G01 X-63.9190 Y42.0836 
G01 X-63.9190 Y46.8163 
G01 X-66.2136 Y49.1109 
G01 X-69.1735 Y49.1109 
G01 X-69.5291 Y48.7553 
G01 X-70.1708 Y48.7553 
G01 X-70.6246 Y49.2091 
G01 X-70.6246 Y49.8508 
G01 X-70.1708 Y50.3046 
G01 X-69.5291 Y50.3046 
G01 X-69.1735 Y49.9490 
G01 X-66.2136 Y49.9490 
G01 X-65.8663 Y49.9490 
G01 X-63.3263 Y47.4090 
G01 X-63.0809 Y47.1636 
G01 X-63.0809 Y42.0836 
G01 X-63.0809 Y41.7363 
G01 X-65.6209 Y39.1963 
G01 X-65.8663 Y38.9509 
G01 X-67.1363 Y38.9509 
G01 X-67.4836 Y38.9509 
G01 X-68.7536 Y40.2209 
G01 X-68.9990 Y40.4663 
G01 X-68.9990 Y40.5986 
G01 X-69.3546 Y40.9541 
G00 Z2.5400  
G00 X-68.0846 Y42.8591 
G01 Z-0.1778 F254   
G01 X-68.0846 Y43.5008 F508   
G01 X-67.7290 Y43.8563 
G01 X-67.7290 Y44.2763 
G01 X-68.7536 Y45.3009 
G01 X-76.0263 Y45.3009 
G01 X-76.3736 Y45.3009 
G01 X-77.4451 Y46.3725 
G01 X-77.5928 Y46.3725 
G01 X-77.8197 Y46.4665 
G01 X-77.9934 Y46.6402 
G01 X-78.0874 Y46.8671 
G01 X-78.0874 Y47.1128 
G01 X-77.9934 Y47.3397 
G01 X-77.8197 Y47.5134 
G01 X-77.5928 Y47.6074 
G01 X-77.3471 Y47.6074 
G01 X-77.1202 Y47.5134 
G01 X-76.9465 Y47.3397 
G01 X-76.8525 Y47.1128 
G01 X-76.8525 Y46.9651 
G01 X-76.0263 Y46.1390 
G01 X-68.4063 Y46.1390 
G01 X-68.1609 Y45.8936 
G01 X-66.8909 Y44.6236 
G01 X-66.8909 Y44.2763 
G01 X-66.8909 Y43.8563 
G01 X-66.5353 Y43.5008 
G01 X-66.5353 Y42.8591 
G01 X-66.9891 Y42.4053 
G01 X-67.6308 Y42.4053 
G01 X-68.0846 Y42.8591 
G00 Z2.5400  
G00 X-68.0846 Y11.1091 
G01 Z-0.1778 F254   
G01 X-68.0846 Y11.7508 F508   
G01 X-67.6308 Y12.2046 
G01 X-66.9891 Y12.2046 
G01 X-66.5353 Y11.7508 
G01 X-66.5353 Y11.1091 
G01 X-66.8909 Y10.7536 
G01 X-66.8909 Y9.9863  
G01 X-67.1363 Y9.7409  
G01 X-68.4063 Y8.4709  
G01 X-68.7536 Y8.4709  
G01 X-73.8336 Y8.4709  
G01 X-74.0790 Y8.7163  
G01 X-76.0180 Y10.6553 
G01 X-76.5208 Y10.6553 
G01 X-76.9746 Y11.1091 
G01 X-76.9746 Y11.7508 
G01 X-76.5208 Y12.2046 
G01 X-75.8791 Y12.2046 
G01 X-75.4253 Y11.7508 
G01 X-75.4253 Y11.2480 
G01 X-73.4863 Y9.3090  
G01 X-68.7536 Y9.3090  
G01 X-67.7290 Y10.3336 
G01 X-67.7290 Y10.7536 
G01 X-68.0846 Y11.1091 
G00 Z2.5400  
G00 X-69.3546 Y13.0141 
G01 Z-0.1778 F254   
G01 X-69.3546 Y13.6558 F508   
G01 X-68.9008 Y14.1096 
G01 X-68.2591 Y14.1096 
G01 X-68.0110 Y13.8615 
G01 X-66.4590 Y15.4136 
G01 X-66.4590 Y26.2158 
G01 X-66.5634 Y26.3202 
G01 X-66.6574 Y26.5471 
G01 X-66.6574 Y26.7928 
G01 X-66.5634 Y27.0197 
G01 X-66.3897 Y27.1934 
G01 X-66.1628 Y27.2874 
G01 X-65.9171 Y27.2874 
G01 X-65.6902 Y27.1934 
G01 X-65.5165 Y27.0197 
G01 X-65.4225 Y26.7928 
G01 X-65.4225 Y26.5471 
G01 X-65.5165 Y26.3202 
G01 X-65.6209 Y26.2158 
G01 X-65.6209 Y15.0663 
G01 X-65.8663 Y14.8209 
G01 X-67.7713 Y12.9159 
G01 X-67.9035 Y12.9159 
G01 X-68.2591 Y12.5603 
G01 X-68.9008 Y12.5603 
G01 X-69.3546 Y13.0141 
G00 Z2.5400  
G00 X-74.4346 Y32.0708 
G01 Z-0.1778 F254   
G01 X-74.0790 Y32.4264 F508   
G01 X-74.0790 Y32.8463 
G01 X-75.1036 Y33.8709 
G01 X-78.5663 Y33.8709 
G01 X-78.9136 Y33.8709 
G01 X-80.1836 Y35.1409 
G01 X-80.4290 Y35.3863 
G01 X-80.4290 Y36.6563 
G01 X-80.4290 Y37.0036 
G01 X-79.1590 Y38.2736 
G01 X-78.9136 Y38.5190 
G01 X-68.7536 Y38.5190 
G01 X-68.4063 Y38.5190 
G01 X-64.5963 Y34.7090 
G01 X-63.6736 Y34.7090 
G01 X-63.3263 Y34.7090 
G01 X-62.2547 Y33.6374 
G01 X-62.1071 Y33.6374 
G01 X-61.8802 Y33.5434 
G01 X-61.7065 Y33.3697 
G01 X-61.6125 Y33.1428 
G01 X-61.6125 Y32.8971 
G01 X-61.7065 Y32.6702 
G01 X-61.8802 Y32.4965 
G01 X-62.1071 Y32.4025 
G01 X-62.3528 Y32.4025 
G01 X-62.5797 Y32.4965 
G01 X-62.7534 Y32.6702 
G01 X-62.8474 Y32.8971 
G01 X-62.8474 Y33.0447 
G01 X-63.6736 Y33.8709 
G01 X-64.9436 Y33.8709 
G01 X-65.1890 Y34.1163 
G01 X-68.7536 Y37.6809 
G01 X-78.5663 Y37.6809 
G01 X-79.5909 Y36.6563 
G01 X-79.5909 Y35.7336 
G01 X-78.5663 Y34.7090 
G01 X-74.7563 Y34.7090 
G01 X-74.5109 Y34.4636 
G01 X-73.2409 Y33.1936 
G01 X-73.2409 Y32.8463 
G01 X-73.2409 Y32.4264 
G01 X-72.8853 Y32.0708 
G01 X-72.8853 Y31.4291 
G01 X-73.3391 Y30.9753 
G01 X-73.8420 Y30.9753 
G01 X-77.9653 Y26.8520 
G01 X-77.9653 Y26.3491 
G01 X-78.4191 Y25.8953 
G01 X-79.0608 Y25.8953 
G01 X-79.5146 Y26.3491 
G01 X-79.5146 Y26.9908 
G01 X-79.0608 Y27.4446 
G01 X-78.5579 Y27.4446 
G01 X-74.4346 Y31.5679 
G01 X-74.4346 Y32.0708 
G00 Z2.5400  
G00 X-88.4445 Y23.6346 
G01 Z-0.1778 F254   
G01 X-86.8154 Y23.6346 F508   
G01 X-86.5307 Y23.5167 
G01 X-86.3128 Y23.2988 
G01 X-86.1949 Y23.0141 
G01 X-86.1949 Y22.7058 
G01 X-86.3128 Y22.4211 
G01 X-86.5307 Y22.2032 
G01 X-86.8154 Y22.0853 
G01 X-87.2109 Y22.0853 
G01 X-87.2109 Y18.8763 
G01 X-87.4563 Y18.6309 
G01 X-88.1253 Y17.9619 
G01 X-88.1253 Y17.4591 
G01 X-88.4809 Y17.1036 
G01 X-88.4809 Y12.8336 
G01 X-88.1232 Y12.4758 
G01 X-88.0485 Y12.5505 
G01 X-87.8029 Y12.6522 
G01 X-87.5370 Y12.6522 
G01 X-87.2914 Y12.5505 
G01 X-87.1034 Y12.3625 
G01 X-87.0017 Y12.1169 
G01 X-87.0017 Y10.7430 
G01 X-87.1034 Y10.4974 
G01 X-87.2914 Y10.3094 
G01 X-87.5370 Y10.2077 
G01 X-87.8029 Y10.2077 
G01 X-88.0485 Y10.3094 
G01 X-88.2365 Y10.4974 
G01 X-88.3382 Y10.7430 
G01 X-88.3382 Y11.5056 
G01 X-89.0736 Y12.2409 
G01 X-89.3190 Y12.4863 
G01 X-89.3190 Y17.1036 
