(.../Program Files/EAGLE-5.6.0/ulp/pcb-gcode.ulp)
(Copyright 2005 - 2009 by John Johnson)
(See readme.txt for licensing terms.)
(This file generated from the board:)
(.../Programador USBv2/programer.brd)
(Current profile is .../EAGLE-5.6.0/ulp/profiles/mach.pp  )
(This file generated 1/13/2010 2:29:26 PM)
( Tool|       Size       |  Min Sub |  Max Sub |   Count )
( T01 | 0.600mm 0.0236in | 0.0000in | 0.0000in |       0 )
( T02 | 0.700mm 0.0276in | 0.0000in | 0.0000in |       0 )
( T03 | 0.800mm 0.0315in | 0.0000in | 0.0000in |       0 )
( T04 | 0.813mm 0.0320in | 0.0000in | 0.0000in |       0 )
( T05 | 0.914mm 0.0360in | 0.0000in | 0.0000in |       0 )
( T06 | 0.920mm 0.0362in | 0.0000in | 0.0000in |       0 )
( T07 | 1.000mm 0.0394in | 0.0000in | 0.0000in |       0 )
( T08 | 1.016mm 0.0400in | 0.0000in | 0.0000in |       0 )
( T09 | 2.300mm 0.0906in | 0.0000in | 0.0000in |       0 )
G21
(Absolute Coordinates)
G90
M05
G00 Z0.0000  
G00 X0.0000  Y0.0000  
M06 T01  ; 0.6000  
G00 Z2.5400  
M03
G04 P3.000000
G00 X-2.5400 Y31.7500 
G01 Z-0.8128 F254   
G00 Z2.5400  
G00 X-100.3300 Y21.5900 
G01 Z-0.8128 F254   
G00 Z2.5400  
G00 X-102.8700 Y66.0400 
G01 Z-0.8128 F254   
G00 Z2.5400  
G00 X-110.4900 Y21.5900 
G01 Z-0.8128 F254   
G00 Z2.5400  
G00 X-12.7000 Y31.7500 
G01 Z-0.8128 F254   
G00 Z2.5400  
G00 X-34.2900 Y66.0400 
G01 Z-0.8128 F254   
G00 Z2.5400  
G00 X-34.2900 Y77.4700 
G01 Z-0.8128 F254   
G00 Z2.5400  
G00 X-40.6400 Y3.8100  
G01 Z-0.8128 F254   
G00 Z2.5400  
G00 X-40.6400 Y16.5100 
G01 Z-0.8128 F254   
G00 Z2.5400  
G00 X-46.9900 Y53.3400 
G01 Z-0.8128 F254   
G00 Z2.5400  
G00 X-46.9900 Y72.3900 
G01 Z-0.8128 F254   
G00 Z2.5400  
G00 X-46.9900 Y82.5500 
G01 Z-0.8128 F254   
G00 Z2.5400  
G00 X-46.9900 Y96.5200 
G01 Z-0.8128 F254   
G00 Z2.5400  
G00 X-48.2600 Y44.4500 
G01 Z-0.8128 F254   
G00 Z2.5400  
G00 X-48.2600 Y99.0600 
G01 Z-0.8128 F254   
G00 Z2.5400  
G00 X-49.5300 Y44.4500 
G01 Z-0.8128 F254   
G00 Z2.5400  
G00 X-54.6100 Y69.8500 
G01 Z-0.8128 F254   
G00 Z2.5400  
G00 X-54.6100 Y80.0100 
G01 Z-0.8128 F254   
G00 Z2.5400  
G00 X-57.1500 Y44.4500 
G01 Z-0.8128 F254   
G00 Z2.5400  
G00 X-62.2300 Y33.0200 
G01 Z-0.8128 F254   
G00 Z2.5400  
G00 X-62.2300 Y58.4200 
G01 Z-0.8128 F254   
G00 Z2.5400  
G00 X-63.5000 Y36.8300 
G01 Z-0.8128 F254   
G00 Z2.5400  
G00 X-63.5000 Y57.1500 
G01 Z-0.8128 F254   
G00 Z2.5400  
G00 X-66.0400 Y26.6700 
G01 Z-0.8128 F254   
G00 Z2.5400  
G00 X-66.0400 Y55.8800 
G01 Z-0.8128 F254   
G00 Z2.5400  
G00 X-66.0400 Y78.7400 
G01 Z-0.8128 F254   
G00 Z2.5400  
G00 X-71.1200 Y78.7400 
G01 Z-0.8128 F254   
G00 Z2.5400  
G00 X-72.3900 Y3.8100  
G01 Z-0.8128 F254   
G00 Z2.5400  
G00 X-72.3900 Y11.4300 
G01 Z-0.8128 F254   
G00 Z2.5400  
G00 X-74.9300 Y88.9000 
G01 Z-0.8128 F254   
G00 Z2.5400  
G00 X-77.4700 Y46.9900 
G01 Z-0.8128 F254   
G00 Z2.5400  
G00 X-81.2800 Y39.3700 
G01 Z-0.8128 F254   
G00 Z2.5400  
G00 X-82.5500 Y46.9900 
G01 Z-0.8128 F254   
G00 Z2.5400  
G00 X-82.5500 Y66.0400 
G01 Z-0.8128 F254   
G00 Z2.5400  
G00 X-83.8200 Y72.3900 
G01 Z-0.8128 F254   
G00 Z2.5400  
G00 X-83.8200 Y88.9000 
G01 Z-0.8128 F254   
G00 Z2.5400  
G00 X-86.3600 Y8.8900  
G01 Z-0.8128 F254   
G00 Z2.5400  
G00 X-86.3600 Y39.3700 
G01 Z-0.8128 F254   
G00 Z2.5400  
G00 X-87.6700 Y11.4300 
G01 Z-0.8128 F254   
G00 Z2.5400  
G00 X-91.4400 Y8.8900  
G01 Z-0.8128 F254   
G00 Z2.5400  
G00 X-91.4400 Y97.7900 
G01 Z-0.8128 F254   
G00 Z2.5400  
G00 X-92.6700 Y11.4300 
G01 Z-0.8128 F254   
G00 Z2.5400  
M05
G00 Z0.0000  
G00 X0.0000  Y0.0000  
M06 T02  ; 0.7000  
G00 Z2.5400  
M03
G04 P3.000000
G00 X-101.6000 Y92.7100 
G01 Z-0.8128 F254   
G00 Z2.5400  
G00 X-91.4400 Y92.7100 
G01 Z-0.8128 F254   
G00 Z2.5400  
M05
G00 Z0.0000  
G00 X0.0000  Y0.0000  
M06 T03  ; 0.8000  
G00 Z2.5400  
M03
G04 P3.000000
G00 X-44.4500 Y15.2400 
G01 Z-0.8128 F254   
G00 Z2.5400  
G00 X-44.4500 Y17.7800 
G01 Z-0.8128 F254   
G00 Z2.5400  
G00 X-44.4500 Y20.3200 
G01 Z-0.8128 F254   
G00 Z2.5400  
G00 X-44.4500 Y22.8600 
G01 Z-0.8128 F254   
G00 Z2.5400  
G00 X-44.4500 Y25.4000 
G01 Z-0.8128 F254   
G00 Z2.5400  
G00 X-44.4500 Y27.9400 
G01 Z-0.8128 F254   
G00 Z2.5400  
G00 X-46.9900 Y12.7000 
G01 Z-0.8128 F254   
G00 Z2.5400  
G00 X-46.9900 Y15.2400 
G01 Z-0.8128 F254   
G00 Z2.5400  
G00 X-46.9900 Y17.7800 
G01 Z-0.8128 F254   
G00 Z2.5400  
G00 X-46.9900 Y20.3200 
G01 Z-0.8128 F254   
G00 Z2.5400  
G00 X-46.9900 Y22.8600 
G01 Z-0.8128 F254   
G00 Z2.5400  
G00 X-46.9900 Y25.4000 
G01 Z-0.8128 F254   
G00 Z2.5400  
G00 X-46.9900 Y27.9400 
G01 Z-0.8128 F254   
G00 Z2.5400  
G00 X-46.9900 Y30.4800 
G01 Z-0.8128 F254   
G00 Z2.5400  
G00 X-49.5300 Y12.7000 
G01 Z-0.8128 F254   
G00 Z2.5400  
G00 X-49.5300 Y15.2400 
G01 Z-0.8128 F254   
G00 Z2.5400  
G00 X-49.5300 Y27.9400 
G01 Z-0.8128 F254   
G00 Z2.5400  
G00 X-49.5300 Y30.4800 
G01 Z-0.8128 F254   
G00 Z2.5400  
G00 X-52.0700 Y12.7000 
G01 Z-0.8128 F254   
G00 Z2.5400  
G00 X-52.0700 Y15.2400 
G01 Z-0.8128 F254   
G00 Z2.5400  
G00 X-52.0700 Y27.9400 
G01 Z-0.8128 F254   
G00 Z2.5400  
G00 X-52.0700 Y30.4800 
G01 Z-0.8128 F254   
G00 Z2.5400  
G00 X-54.6100 Y12.7000 
G01 Z-0.8128 F254   
G00 Z2.5400  
G00 X-54.6100 Y15.2400 
G01 Z-0.8128 F254   
G00 Z2.5400  
G00 X-54.6100 Y27.9400 
G01 Z-0.8128 F254   
G00 Z2.5400  
G00 X-54.6100 Y30.4800 
G01 Z-0.8128 F254   
G00 Z2.5400  
G00 X-57.1500 Y12.7000 
G01 Z-0.8128 F254   
G00 Z2.5400  
G00 X-57.1500 Y15.2400 
G01 Z-0.8128 F254   
G00 Z2.5400  
G00 X-57.1500 Y27.9400 
G01 Z-0.8128 F254   
G00 Z2.5400  
G00 X-57.1500 Y30.4800 
G01 Z-0.8128 F254   
G00 Z2.5400  
G00 X-59.6900 Y12.7000 
G01 Z-0.8128 F254   
G00 Z2.5400  
G00 X-59.6900 Y15.2400 
G01 Z-0.8128 F254   
G00 Z2.5400  
G00 X-59.6900 Y17.7800 
G01 Z-0.8128 F254   
G00 Z2.5400  
G00 X-59.6900 Y20.3200 
G01 Z-0.8128 F254   
G00 Z2.5400  
G00 X-59.6900 Y22.8600 
G01 Z-0.8128 F254   
G00 Z2.5400  
G00 X-59.6900 Y25.4000 
G01 Z-0.8128 F254   
G00 Z2.5400  
G00 X-59.6900 Y27.9400 
G01 Z-0.8128 F254   
G00 Z2.5400  
G00 X-59.6900 Y30.4800 
G01 Z-0.8128 F254   
G00 Z2.5400  
G00 X-62.2300 Y15.2400 
G01 Z-0.8128 F254   
G00 Z2.5400  
G00 X-62.2300 Y17.7800 
G01 Z-0.8128 F254   
G00 Z2.5400  
G00 X-62.2300 Y20.3200 
G01 Z-0.8128 F254   
G00 Z2.5400  
G00 X-62.2300 Y22.8600 
G01 Z-0.8128 F254   
G00 Z2.5400  
G00 X-62.2300 Y25.4000 
G01 Z-0.8128 F254   
G00 Z2.5400  
G00 X-62.2300 Y27.9400 
G01 Z-0.8128 F254   
G00 Z2.5400  
G00 X-95.2500 Y94.6150 
G01 Z-0.8128 F254   
G00 Z2.5400  
G00 X-97.7900 Y94.6150 
G01 Z-0.8128 F254   
G00 Z2.5400  
M05
G00 Z0.0000  
G00 X0.0000  Y0.0000  
M06 T04  ; 0.8128  
G00 Z2.5400  
M03
G04 P3.000000
G00 X-8.8900 Y20.3200 
G01 Z-0.8128 F254   
G00 Z2.5400  
G00 X-8.8900 Y22.8600 
G01 Z-0.8128 F254   
G00 Z2.5400  
G00 X-8.8900 Y25.4000 
G01 Z-0.8128 F254   
G00 Z2.5400  
G00 X-8.8900 Y27.9400 
G01 Z-0.8128 F254   
G00 Z2.5400  
G00 X-8.8900 Y30.4800 
G01 Z-0.8128 F254   
G00 Z2.5400  
G00 X-8.8900 Y33.0200 
G01 Z-0.8128 F254   
G00 Z2.5400  
G00 X-8.8900 Y35.5600 
G01 Z-0.8128 F254   
G00 Z2.5400  
G00 X-8.8900 Y38.1000 
G01 Z-0.8128 F254   
G00 Z2.5400  
G00 X-8.8900 Y40.6400 
G01 Z-0.8128 F254   
G00 Z2.5400  
G00 X-8.8900 Y43.1800 
G01 Z-0.8128 F254   
G00 Z2.5400  
G00 X-8.8900 Y45.7200 
G01 Z-0.8128 F254   
G00 Z2.5400  
G00 X-8.8900 Y48.2600 
G01 Z-0.8128 F254   
G00 Z2.5400  
G00 X-8.8900 Y50.8000 
G01 Z-0.8128 F254   
G00 Z2.5400  
G00 X-8.8900 Y53.3400 
G01 Z-0.8128 F254   
G00 Z2.5400  
G00 X-8.8900 Y62.2300 
G01 Z-0.8128 F254   
G00 Z2.5400  
G00 X-8.8900 Y64.7700 
G01 Z-0.8128 F254   
G00 Z2.5400  
G00 X-8.8900 Y67.3100 
G01 Z-0.8128 F254   
G00 Z2.5400  
G00 X-8.8900 Y69.8500 
G01 Z-0.8128 F254   
G00 Z2.5400  
G00 X-8.8900 Y72.3900 
G01 Z-0.8128 F254   
G00 Z2.5400  
G00 X-8.8900 Y74.9300 
G01 Z-0.8128 F254   
G00 Z2.5400  
G00 X-8.8900 Y77.4700 
G01 Z-0.8128 F254   
G00 Z2.5400  
G00 X-8.8900 Y80.0100 
G01 Z-0.8128 F254   
G00 Z2.5400  
G00 X-8.8900 Y82.5500 
G01 Z-0.8128 F254   
G00 Z2.5400  
G00 X-16.5100 Y20.3200 
G01 Z-0.8128 F254   
G00 Z2.5400  
G00 X-16.5100 Y22.8600 
G01 Z-0.8128 F254   
G00 Z2.5400  
G00 X-16.5100 Y25.4000 
G01 Z-0.8128 F254   
G00 Z2.5400  
G00 X-16.5100 Y27.9400 
G01 Z-0.8128 F254   
G00 Z2.5400  
G00 X-16.5100 Y30.4800 
G01 Z-0.8128 F254   
G00 Z2.5400  
G00 X-16.5100 Y33.0200 
G01 Z-0.8128 F254   
G00 Z2.5400  
G00 X-16.5100 Y35.5600 
G01 Z-0.8128 F254   
G00 Z2.5400  
G00 X-16.5100 Y38.1000 
G01 Z-0.8128 F254   
G00 Z2.5400  
G00 X-16.5100 Y40.6400 
G01 Z-0.8128 F254   
G00 Z2.5400  
G00 X-16.5100 Y43.1800 
G01 Z-0.8128 F254   
G00 Z2.5400  
G00 X-16.5100 Y45.7200 
G01 Z-0.8128 F254   
G00 Z2.5400  
G00 X-16.5100 Y48.2600 
G01 Z-0.8128 F254   
G00 Z2.5400  
G00 X-16.5100 Y50.8000 
G01 Z-0.8128 F254   
G00 Z2.5400  
G00 X-16.5100 Y53.3400 
G01 Z-0.8128 F254   
G00 Z2.5400  
G00 X-16.5100 Y62.2300 
G01 Z-0.8128 F254   
G00 Z2.5400  
G00 X-16.5100 Y64.7700 
G01 Z-0.8128 F254   
G00 Z2.5400  
G00 X-16.5100 Y67.3100 
G01 Z-0.8128 F254   
G00 Z2.5400  
G00 X-16.5100 Y69.8500 
G01 Z-0.8128 F254   
G00 Z2.5400  
G00 X-16.5100 Y72.3900 
G01 Z-0.8128 F254   
G00 Z2.5400  
G00 X-16.5100 Y74.9300 
G01 Z-0.8128 F254   
G00 Z2.5400  
G00 X-16.5100 Y77.4700 
G01 Z-0.8128 F254   
G00 Z2.5400  
G00 X-16.5100 Y80.0100 
G01 Z-0.8128 F254   
G00 Z2.5400  
G00 X-16.5100 Y82.5500 
G01 Z-0.8128 F254   
G00 Z2.5400  
G00 X-21.5900 Y68.5800 
G01 Z-0.8128 F254   
G00 Z2.5400  
G00 X-21.5900 Y71.1200 
G01 Z-0.8128 F254   
G00 Z2.5400  
G00 X-24.1300 Y21.5900 
G01 Z-0.8128 F254   
G00 Z2.5400  
G00 X-24.1300 Y24.1300 
G01 Z-0.8128 F254   
G00 Z2.5400  
G00 X-26.6700 Y46.9900 
G01 Z-0.8128 F254   
G00 Z2.5400  
G00 X-26.6700 Y49.5300 
G01 Z-0.8128 F254   
G00 Z2.5400  
G00 X-26.6700 Y52.0700 
G01 Z-0.8128 F254   
G00 Z2.5400  
G00 X-26.6700 Y54.6100 
G01 Z-0.8128 F254   
G00 Z2.5400  
G00 X-26.6700 Y57.1500 
G01 Z-0.8128 F254   
G00 Z2.5400  
G00 X-26.6700 Y59.6900 
G01 Z-0.8128 F254   
G00 Z2.5400  
G00 X-26.6700 Y62.2300 
G01 Z-0.8128 F254   
G00 Z2.5400  
G00 X-26.6700 Y64.7700 
G01 Z-0.8128 F254   
G00 Z2.5400  
G00 X-26.6700 Y67.3100 
G01 Z-0.8128 F254   
G00 Z2.5400  
G00 X-26.6700 Y69.8500 
G01 Z-0.8128 F254   
G00 Z2.5400  
G00 X-26.6700 Y72.3900 
G01 Z-0.8128 F254   
G00 Z2.5400  
G00 X-26.6700 Y74.9300 
G01 Z-0.8128 F254   
G00 Z2.5400  
G00 X-26.6700 Y77.4700 
G01 Z-0.8128 F254   
G00 Z2.5400  
G00 X-26.6700 Y80.0100 
G01 Z-0.8128 F254   
G00 Z2.5400  
G00 X-26.6700 Y82.5500 
G01 Z-0.8128 F254   
G00 Z2.5400  
G00 X-26.6700 Y85.0900 
G01 Z-0.8128 F254   
G00 Z2.5400  
G00 X-26.6700 Y87.6300 
G01 Z-0.8128 F254   
G00 Z2.5400  
G00 X-26.6700 Y90.1700 
G01 Z-0.8128 F254   
G00 Z2.5400  
G00 X-26.6700 Y92.7100 
G01 Z-0.8128 F254   
G00 Z2.5400  
G00 X-26.6700 Y95.2500 
G01 Z-0.8128 F254   
G00 Z2.5400  
G00 X-29.2100 Y13.9700 
G01 Z-0.8128 F254   
G00 Z2.5400  
G00 X-29.2100 Y16.5100 
G01 Z-0.8128 F254   
G00 Z2.5400  
G00 X-29.2100 Y19.0500 
G01 Z-0.8128 F254   
G00 Z2.5400  
G00 X-29.2100 Y21.5900 
G01 Z-0.8128 F254   
G00 Z2.5400  
G00 X-29.2100 Y29.2100 
G01 Z-0.8128 F254   
G00 Z2.5400  
G00 X-29.2100 Y31.7500 
G01 Z-0.8128 F254   
G00 Z2.5400  
G00 X-29.2100 Y34.2900 
G01 Z-0.8128 F254   
G00 Z2.5400  
G00 X-29.2100 Y36.8300 
G01 Z-0.8128 F254   
G00 Z2.5400  
G00 X-36.8300 Y13.9700 
G01 Z-0.8128 F254   
G00 Z2.5400  
G00 X-36.8300 Y16.5100 
G01 Z-0.8128 F254   
G00 Z2.5400  
G00 X-36.8300 Y19.0500 
G01 Z-0.8128 F254   
G00 Z2.5400  
G00 X-36.8300 Y21.5900 
G01 Z-0.8128 F254   
G00 Z2.5400  
G00 X-36.8300 Y29.2100 
G01 Z-0.8128 F254   
G00 Z2.5400  
G00 X-36.8300 Y31.7500 
G01 Z-0.8128 F254   
G00 Z2.5400  
G00 X-36.8300 Y34.2900 
G01 Z-0.8128 F254   
G00 Z2.5400  
G00 X-36.8300 Y36.8300 
G01 Z-0.8128 F254   
G00 Z2.5400  
G00 X-41.9100 Y46.9900 
G01 Z-0.8128 F254   
G00 Z2.5400  
G00 X-41.9100 Y49.5300 
G01 Z-0.8128 F254   
G00 Z2.5400  
G00 X-41.9100 Y52.0700 
G01 Z-0.8128 F254   
G00 Z2.5400  
G00 X-41.9100 Y54.6100 
G01 Z-0.8128 F254   
G00 Z2.5400  
G00 X-41.9100 Y57.1500 
G01 Z-0.8128 F254   
G00 Z2.5400  
G00 X-41.9100 Y59.6900 
G01 Z-0.8128 F254   
G00 Z2.5400  
G00 X-41.9100 Y62.2300 
G01 Z-0.8128 F254   
G00 Z2.5400  
G00 X-41.9100 Y64.7700 
G01 Z-0.8128 F254   
G00 Z2.5400  
G00 X-41.9100 Y67.3100 
G01 Z-0.8128 F254   
G00 Z2.5400  
G00 X-41.9100 Y69.8500 
G01 Z-0.8128 F254   
G00 Z2.5400  
G00 X-41.9100 Y72.3900 
G01 Z-0.8128 F254   
G00 Z2.5400  
G00 X-41.9100 Y74.9300 
G01 Z-0.8128 F254   
G00 Z2.5400  
G00 X-41.9100 Y77.4700 
G01 Z-0.8128 F254   
G00 Z2.5400  
G00 X-41.9100 Y80.0100 
G01 Z-0.8128 F254   
G00 Z2.5400  
G00 X-41.9100 Y82.5500 
G01 Z-0.8128 F254   
G00 Z2.5400  
G00 X-41.9100 Y85.0900 
G01 Z-0.8128 F254   
G00 Z2.5400  
G00 X-41.9100 Y87.6300 
G01 Z-0.8128 F254   
G00 Z2.5400  
G00 X-41.9100 Y90.1700 
G01 Z-0.8128 F254   
G00 Z2.5400  
G00 X-41.9100 Y92.7100 
G01 Z-0.8128 F254   
G00 Z2.5400  
G00 X-41.9100 Y95.2500 
G01 Z-0.8128 F254   
G00 Z2.5400  
G00 X-50.8000 Y35.5600 
G01 Z-0.8128 F254   
G00 Z2.5400  
G00 X-50.8000 Y40.6400 
G01 Z-0.8128 F254   
G00 Z2.5400  
G00 X-50.8000 Y48.2600 
G01 Z-0.8128 F254   
G00 Z2.5400  
G00 X-50.8000 Y50.8000 
G01 Z-0.8128 F254   
G00 Z2.5400  
G00 X-50.8000 Y62.2300 
G01 Z-0.8128 F254   
G00 Z2.5400  
G00 X-50.8000 Y67.3100 
G01 Z-0.8128 F254   
G00 Z2.5400  
G00 X-55.8800 Y35.5600 
G01 Z-0.8128 F254   
G00 Z2.5400  
G00 X-55.8800 Y40.6400 
G01 Z-0.8128 F254   
G00 Z2.5400  
G00 X-55.8800 Y62.2300 
G01 Z-0.8128 F254   
G00 Z2.5400  
G00 X-55.8800 Y67.3100 
G01 Z-0.8128 F254   
G00 Z2.5400  
G00 X-57.1500 Y69.8500 
G01 Z-0.8128 F254   
G00 Z2.5400  
G00 X-58.4200 Y48.2600 
G01 Z-0.8128 F254   
G00 Z2.5400  
G00 X-58.4200 Y50.8000 
G01 Z-0.8128 F254   
G00 Z2.5400  
G00 X-58.4200 Y72.3900 
G01 Z-0.8128 F254   
G00 Z2.5400  
G00 X-59.6900 Y86.3600 
G01 Z-0.8128 F254   
G00 Z2.5400  
G00 X-59.6900 Y93.9800 
G01 Z-0.8128 F254   
G00 Z2.5400  
G00 X-62.2300 Y69.8500 
G01 Z-0.8128 F254   
G00 Z2.5400  
G00 X-63.5000 Y72.3900 
G01 Z-0.8128 F254   
G00 Z2.5400  
G00 X-64.7700 Y57.1500 
G01 Z-0.8128 F254   
G00 Z2.5400  
G00 X-64.7700 Y62.2300 
G01 Z-0.8128 F254   
G00 Z2.5400  
G00 X-64.7700 Y69.8500 
G01 Z-0.8128 F254   
G00 Z2.5400  
G00 X-64.7700 Y87.6300 
G01 Z-0.8128 F254   
G00 Z2.5400  
G00 X-64.7700 Y92.7100 
G01 Z-0.8128 F254   
G00 Z2.5400  
G00 X-67.3100 Y11.4300 
G01 Z-0.8128 F254   
G00 Z2.5400  
G00 X-67.3100 Y17.7800 
G01 Z-0.8128 F254   
G00 Z2.5400  
G00 X-67.3100 Y43.1800 
G01 Z-0.8128 F254   
G00 Z2.5400  
G00 X-67.3100 Y54.6100 
G01 Z-0.8128 F254   
G00 Z2.5400  
G00 X-67.3100 Y62.2300 
G01 Z-0.8128 F254   
G00 Z2.5400  
G00 X-67.3100 Y69.8500 
G01 Z-0.8128 F254   
G00 Z2.5400  
G00 X-67.5640 Y22.8600 
G01 Z-0.8128 F254   
G00 Z2.5400  
G00 X-68.5800 Y13.3350 
G01 Z-0.8128 F254   
G00 Z2.5400  
G00 X-68.5800 Y41.2750 
G01 Z-0.8128 F254   
G00 Z2.5400  
G00 X-68.5800 Y52.0700 
G01 Z-0.8128 F254   
G00 Z2.5400  
G00 X-69.2150 Y87.6300 
G01 Z-0.8128 F254   
G00 Z2.5400  
G00 X-69.2150 Y95.2500 
G01 Z-0.8128 F254   
G00 Z2.5400  
G00 X-69.5960 Y22.8600 
G01 Z-0.8128 F254   
G00 Z2.5400  
G00 X-69.8500 Y11.4300 
G01 Z-0.8128 F254   
G00 Z2.5400  
G00 X-69.8500 Y17.7800 
G01 Z-0.8128 F254   
G00 Z2.5400  
G00 X-69.8500 Y43.1800 
G01 Z-0.8128 F254   
G00 Z2.5400  
G00 X-69.8500 Y49.5300 
G01 Z-0.8128 F254   
G00 Z2.5400  
G00 X-69.8500 Y57.1500 
G01 Z-0.8128 F254   
G00 Z2.5400  
G00 X-69.8500 Y62.2300 
G01 Z-0.8128 F254   
G00 Z2.5400  
G00 X-69.8500 Y69.8500 
G01 Z-0.8128 F254   
G00 Z2.5400  
G00 X-71.1200 Y73.6600 
G01 Z-0.8128 F254   
G00 Z2.5400  
G00 X-71.1200 Y81.2800 
G01 Z-0.8128 F254   
G00 Z2.5400  
G00 X-71.1200 Y86.3600 
G01 Z-0.8128 F254   
G00 Z2.5400  
G00 X-71.1200 Y88.9000 
G01 Z-0.8128 F254   
G00 Z2.5400  
G00 X-71.1200 Y93.9800 
G01 Z-0.8128 F254   
G00 Z2.5400  
G00 X-71.1200 Y96.5200 
G01 Z-0.8128 F254   
G00 Z2.5400  
G00 X-72.3900 Y54.6100 
G01 Z-0.8128 F254   
G00 Z2.5400  
G00 X-72.3900 Y62.2300 
G01 Z-0.8128 F254   
G00 Z2.5400  
G00 X-72.3900 Y69.8500 
G01 Z-0.8128 F254   
G00 Z2.5400  
G00 X-72.3900 Y77.4700 
G01 Z-0.8128 F254   
G00 Z2.5400  
G00 X-73.6600 Y20.3200 
G01 Z-0.8128 F254   
G00 Z2.5400  
G00 X-73.6600 Y26.6700 
G01 Z-0.8128 F254   
G00 Z2.5400  
G00 X-73.6600 Y31.7500 
G01 Z-0.8128 F254   
G00 Z2.5400  
G00 X-73.6600 Y52.0700 
G01 Z-0.8128 F254   
G00 Z2.5400  
G00 X-74.9300 Y22.2250 
G01 Z-0.8128 F254   
G00 Z2.5400  
G00 X-74.9300 Y49.5300 
G01 Z-0.8128 F254   
G00 Z2.5400  
G00 X-74.9300 Y62.2300 
G01 Z-0.8128 F254   
G00 Z2.5400  
G00 X-74.9300 Y69.8500 
G01 Z-0.8128 F254   
G00 Z2.5400  
G00 X-76.2000 Y11.4300 
G01 Z-0.8128 F254   
G00 Z2.5400  
G00 X-76.2000 Y16.5100 
G01 Z-0.8128 F254   
G00 Z2.5400  
G00 X-76.2000 Y20.3200 
G01 Z-0.8128 F254   
G00 Z2.5400  
G00 X-76.2000 Y35.5600 
G01 Z-0.8128 F254   
G00 Z2.5400  
G00 X-76.2000 Y40.6400 
G01 Z-0.8128 F254   
G00 Z2.5400  
G00 X-76.2000 Y73.6600 
G01 Z-0.8128 F254   
G00 Z2.5400  
G00 X-76.2000 Y81.2800 
G01 Z-0.8128 F254   
G00 Z2.5400  
G00 X-76.2000 Y85.0900 
G01 Z-0.8128 F254   
G00 Z2.5400  
G00 X-76.2000 Y90.1700 
G01 Z-0.8128 F254   
G00 Z2.5400  
G00 X-77.4700 Y62.2300 
G01 Z-0.8128 F254   
G00 Z2.5400  
G00 X-77.4700 Y69.8500 
G01 Z-0.8128 F254   
G00 Z2.5400  
G00 X-77.4700 Y77.4700 
G01 Z-0.8128 F254   
G00 Z2.5400  
G00 X-77.4700 Y92.7100 
G01 Z-0.8128 F254   
G00 Z2.5400  
G00 X-77.4700 Y95.2500 
G01 Z-0.8128 F254   
G00 Z2.5400  
G00 X-78.7400 Y26.6700 
G01 Z-0.8128 F254   
G00 Z2.5400  
G00 X-78.7400 Y31.7500 
G01 Z-0.8128 F254   
G00 Z2.5400  
G00 X-80.0100 Y22.8600 
G01 Z-0.8128 F254   
G00 Z2.5400  
G00 X-80.0100 Y62.2300 
G01 Z-0.8128 F254   
G00 Z2.5400  
G00 X-80.0100 Y69.8500 
G01 Z-0.8128 F254   
G00 Z2.5400  
G00 X-81.2800 Y11.4300 
G01 Z-0.8128 F254   
G00 Z2.5400  
G00 X-81.2800 Y16.5100 
G01 Z-0.8128 F254   
G00 Z2.5400  
G00 X-81.2800 Y85.0900 
G01 Z-0.8128 F254   
G00 Z2.5400  
G00 X-81.2800 Y90.1700 
G01 Z-0.8128 F254   
G00 Z2.5400  
G00 X-82.5500 Y62.2300 
G01 Z-0.8128 F254   
G00 Z2.5400  
G00 X-82.5500 Y69.8500 
G01 Z-0.8128 F254   
G00 Z2.5400  
G00 X-83.8200 Y92.9640 
G01 Z-0.8128 F254   
G00 Z2.5400  
G00 X-83.8200 Y94.9960 
G01 Z-0.8128 F254   
G00 Z2.5400  
G00 X-85.0900 Y49.5300 
G01 Z-0.8128 F254   
G00 Z2.5400  
G00 X-85.0900 Y55.8800 
G01 Z-0.8128 F254   
G00 Z2.5400  
G00 X-85.0900 Y62.2300 
G01 Z-0.8128 F254   
G00 Z2.5400  
G00 X-85.0900 Y69.8500 
G01 Z-0.8128 F254   
G00 Z2.5400  
G00 X-86.3600 Y27.9400 
G01 Z-0.8128 F254   
G00 Z2.5400  
G00 X-86.3600 Y33.0200 
G01 Z-0.8128 F254   
G00 Z2.5400  
G00 X-86.3600 Y78.7400 
G01 Z-0.8128 F254   
G00 Z2.5400  
G00 X-86.3600 Y81.2800 
G01 Z-0.8128 F254   
G00 Z2.5400  
G00 X-87.6300 Y22.8600 
G01 Z-0.8128 F254   
G00 Z2.5400  
G00 X-87.6300 Y45.7200 
G01 Z-0.8128 F254   
G00 Z2.5400  
G00 X-87.6300 Y49.5300 
G01 Z-0.8128 F254   
G00 Z2.5400  
G00 X-87.6300 Y62.2300 
G01 Z-0.8128 F254   
G00 Z2.5400  
G00 X-87.6300 Y69.8500 
G01 Z-0.8128 F254   
G00 Z2.5400  
G00 X-88.9000 Y17.7800 
G01 Z-0.8128 F254   
G00 Z2.5400  
G00 X-90.1700 Y19.6850 
G01 Z-0.8128 F254   
G00 Z2.5400  
G00 X-90.1700 Y45.7200 
G01 Z-0.8128 F254   
G00 Z2.5400  
G00 X-90.1700 Y55.8800 
G01 Z-0.8128 F254   
G00 Z2.5400  
G00 X-90.1700 Y62.2300 
G01 Z-0.8128 F254   
G00 Z2.5400  
G00 X-90.1700 Y69.8500 
G01 Z-0.8128 F254   
G00 Z2.5400  
G00 X-91.4400 Y17.7800 
G01 Z-0.8128 F254   
G00 Z2.5400  
G00 X-91.4400 Y27.9400 
G01 Z-0.8128 F254   
G00 Z2.5400  
G00 X-91.4400 Y33.0200 
G01 Z-0.8128 F254   
G00 Z2.5400  
G00 X-91.4400 Y38.1000 
G01 Z-0.8128 F254   
G00 Z2.5400  
G00 X-91.4400 Y43.1800 
G01 Z-0.8128 F254   
G00 Z2.5400  
G00 X-92.7100 Y62.2300 
G01 Z-0.8128 F254   
G00 Z2.5400  
G00 X-92.7100 Y69.8500 
G01 Z-0.8128 F254   
G00 Z2.5400  
G00 X-95.2500 Y62.2300 
G01 Z-0.8128 F254   
G00 Z2.5400  
G00 X-95.2500 Y69.8500 
G01 Z-0.8128 F254   
G00 Z2.5400  
G00 X-96.5200 Y27.9400 
G01 Z-0.8128 F254   
G00 Z2.5400  
G00 X-96.5200 Y33.0200 
G01 Z-0.8128 F254   
G00 Z2.5400  
G00 X-96.5200 Y38.1000 
G01 Z-0.8128 F254   
G00 Z2.5400  
G00 X-96.5200 Y55.8800 
G01 Z-0.8128 F254   
G00 Z2.5400  
G00 X-97.7900 Y62.2300 
G01 Z-0.8128 F254   
G00 Z2.5400  
G00 X-97.7900 Y69.8500 
G01 Z-0.8128 F254   
G00 Z2.5400  
G00 X-99.0600 Y27.9400 
G01 Z-0.8128 F254   
G00 Z2.5400  
G00 X-99.0600 Y33.0200 
G01 Z-0.8128 F254   
G00 Z2.5400  
G00 X-99.0600 Y38.1000 
G01 Z-0.8128 F254   
G00 Z2.5400  
G00 X-99.0600 Y43.1800 
G01 Z-0.8128 F254   
G00 Z2.5400  
G00 X-99.0600 Y48.2600 
G01 Z-0.8128 F254   
G00 Z2.5400  
G00 X-99.0600 Y55.8800 
G01 Z-0.8128 F254   
G00 Z2.5400  
M05
G00 Z0.0000  
G00 X0.0000  Y0.0000  
M06 T05  ; 0.9144  
G00 Z2.5400  
M03
G04 P3.000000
G00 X-88.9000 Y92.7100 
G01 Z-0.8128 F254   
G00 Z2.5400  
G00 X-88.9000 Y95.2500 
G01 Z-0.8128 F254   
G00 Z2.5400  
G00 X-97.7900 Y11.4300 
G01 Z-0.8128 F254   
G00 Z2.5400  
G00 X-97.7900 Y13.9700 
G01 Z-0.8128 F254   
G00 Z2.5400  
G00 X-97.7900 Y16.5100 
G01 Z-0.8128 F254   
G00 Z2.5400  
G00 X-97.7900 Y19.0500 
G01 Z-0.8128 F254   
G00 Z2.5400  
G00 X-97.7900 Y21.5900 
G01 Z-0.8128 F254   
G00 Z2.5400  
M05
G00 Z0.0000  
G00 X0.0000  Y0.0000  
M06 T06  ; 0.9200  
G00 Z2.5400  
M03
G04 P3.000000
G00 X-89.2700 Y78.7600 
G01 Z-0.8128 F254   
G00 Z2.5400  
G00 X-89.2700 Y81.2600 
G01 Z-0.8128 F254   
G00 Z2.5400  
G00 X-91.2700 Y78.7600 
G01 Z-0.8128 F254   
G00 Z2.5400  
G00 X-91.2700 Y81.2600 
G01 Z-0.8128 F254   
G00 Z2.5400  
M05
G00 Z0.0000  
G00 X0.0000  Y0.0000  
M06 T07  ; 1.0000  
G00 Z2.5400  
M03
G04 P3.000000
G00 X-52.0700 Y82.5500 
G01 Z-0.8128 F254   
G00 Z2.5400  
G00 X-52.0700 Y85.0900 
G01 Z-0.8128 F254   
G00 Z2.5400  
G00 X-52.0700 Y87.6300 
G01 Z-0.8128 F254   
G00 Z2.5400  
G00 X-52.0700 Y90.1700 
G01 Z-0.8128 F254   
G00 Z2.5400  
G00 X-52.0700 Y92.7100 
G01 Z-0.8128 F254   
G00 Z2.5400  
G00 X-52.0700 Y95.2500 
G01 Z-0.8128 F254   
G00 Z2.5400  
M05
G00 Z0.0000  
G00 X0.0000  Y0.0000  
M06 T08  ; 1.0160  
G00 Z2.5400  
M03
G04 P3.000000
G00 X-58.9788 Y76.4794 
G01 Z-0.8128 F254   
G00 Z2.5400  
G00 X-58.9788 Y81.0006 
G01 Z-0.8128 F254   
G00 Z2.5400  
G00 X-65.4812 Y76.4794 
G01 Z-0.8128 F254   
G00 Z2.5400  
G00 X-65.4812 Y81.0006 
G01 Z-0.8128 F254   
G00 Z2.5400  
M05
G00 Z0.0000  
G00 X0.0000  Y0.0000  
M06 T09  ; 2.3000  
G00 Z2.5400  
M03
G04 P3.000000
G00 X-93.9800 Y73.9900 
G01 Z-0.8128 F254   
G00 Z2.5400  
G00 X-93.9800 Y86.0300 
G01 Z-0.8128 F254   
G00 Z2.5400  
T01 
G00 Z12.7000 
M05
M02
